; generated by Slic3r 0.9.11-dev on 2013-07-19 at 20:51:53

; layer_height = 0.2
; perimeters = 2
; top_solid_layers = 3
; bottom_solid_layers = 3
; fill_density = .5
; perimeter_speed = 40
; infill_speed = 60
; travel_speed = 160
; nozzle_diameter = 0.5
; filament_diameter = 3
; extrusion_multiplier = 1
; perimeters extrusion width = 0.50mm
; infill extrusion width = 1.02mm
; solid infill extrusion width = 0.85mm
; top infill extrusion width = 0.85mm
; first layer extrusion width = 1.00mm

G21 ; set units to millimeters
M107
M104 S200 ; set temperature
G28 ; home all axes
M109 S200 ; wait for temperature to be reached
G90 ; use absolute coordinates
G92 E0
M82 ; use absolute distances for extrusion
G1 F2160.000 E-1.00000
G92 E0
G1 Z0.500 F9600.000
G1 X81.511 Y28.822
G1 F2160.000 E1.00000
G1 X85.671 Y28.482 F720.000 E1.26356
G1 X89.111 Y28.252 E1.48127
G1 X92.741 Y28.102 E1.71068
G1 X99.841 Y27.962 E2.15910
G1 X107.221 Y28.102 E2.62520
G1 X110.841 Y28.252 E2.85398
G1 X114.291 Y28.482 E3.07232
G1 X118.521 Y28.822 E3.34029
G1 X124.401 Y29.422 E3.71351
G1 X126.721 Y29.722 E3.86123
G1 X127.611 Y29.902 E3.91856
G1 X128.461 Y30.182 E3.97507
G1 X130.531 Y31.032 E4.11638
G1 X131.641 Y31.612 E4.19546
G1 X132.631 Y32.382 E4.27466
G1 X133.931 Y33.602 E4.38723
G1 X134.531 Y34.252 E4.44309
G1 X135.561 Y35.502 E4.54537
G1 X136.091 Y36.232 E4.60233
G1 X136.821 Y37.402 E4.68941
G1 X137.111 Y37.912 E4.72646
G1 X137.751 Y39.162 E4.81514
G1 X138.041 Y39.822 E4.86066
G1 X138.551 Y41.142 E4.95001
G1 X138.811 Y41.972 E5.00494
G1 X139.131 Y43.272 E5.08948
G1 X139.291 Y44.122 E5.14409
G1 X139.381 Y44.892 E5.19305
G1 X139.421 Y45.672 E5.24236
G1 X139.481 Y71.722 E6.88731
G1 X139.421 Y154.242 E12.09808
G1 X139.381 Y155.032 E12.14803
G1 X139.291 Y155.802 E12.19698
G1 X139.141 Y156.642 E12.25086
G1 X138.821 Y157.952 E12.33602
G1 X138.571 Y158.752 E12.38894
G1 X138.071 Y160.072 E12.47807
G1 X137.771 Y160.752 E12.52501
G1 X137.131 Y162.012 E12.61424
G1 X136.841 Y162.522 E12.65129
G1 X136.111 Y163.702 E12.73891
G1 X135.551 Y164.482 E12.79954
G1 X134.511 Y165.732 E12.90222
G1 X133.951 Y166.332 E12.95405
G1 X132.651 Y167.562 E13.06706
G1 X131.641 Y168.342 E13.14764
G1 X130.511 Y168.932 E13.22813
G1 X128.451 Y169.772 E13.36861
G1 X127.581 Y170.062 E13.42652
G1 X126.681 Y170.232 E13.48436
G1 X124.231 Y170.532 E13.64022
G1 X118.451 Y171.112 E14.00703
G1 X114.291 Y171.442 E14.27054
G1 X110.671 Y171.682 E14.49963
G1 X107.221 Y171.822 E14.71766
G1 X100.151 Y171.962 E15.16419
G1 X92.801 Y171.822 E15.62839
G1 X89.171 Y171.672 E15.85781
G1 X85.731 Y171.442 E16.07551
G1 X82.791 Y171.222 E16.26168
G1 X81.561 Y171.112 E16.33966
G1 X75.661 Y170.522 E16.71408
G1 X73.301 Y170.232 E16.86422
G1 X72.541 Y170.092 E16.91302
G1 X71.801 Y169.872 E16.96177
G1 X69.541 Y169.052 E17.11358
G1 X68.481 Y168.562 E17.18732
G1 X67.521 Y167.902 E17.26088
G1 X66.031 Y166.682 E17.38249
G1 X65.211 Y165.882 E17.45482
G1 X64.111 Y164.622 E17.56044
G1 X63.731 Y164.162 E17.59812
G1 X63.401 Y163.662 E17.63595
G1 X62.681 Y162.472 E17.72377
G1 X62.321 Y161.782 E17.77292
G1 X61.741 Y160.522 E17.86051
G1 X61.371 Y159.532 E17.92724
G1 X60.991 Y158.202 E18.01459
G1 X60.811 Y157.352 E18.06945
G1 X60.611 Y156.042 E18.15313
G1 X60.531 Y155.272 E18.20202
G1 X60.501 Y154.502 E18.25067
G1 X60.501 Y71.702 E23.47913
G1 X60.541 Y45.682 E25.12217
G1 X60.581 Y44.892 E25.17212
G1 X60.671 Y44.122 E25.22108
G1 X60.821 Y43.322 E25.27247
G1 X61.131 Y42.022 E25.35686
G1 X61.401 Y41.142 E25.41499
G1 X61.911 Y39.822 E25.50435
G1 X62.201 Y39.162 E25.54987
G1 X62.841 Y37.912 E25.63854
G1 X63.131 Y37.402 E25.67559
G1 X63.861 Y36.232 E25.76267
G1 X64.391 Y35.502 E25.81964
G1 X65.421 Y34.252 E25.92191
G1 X66.021 Y33.602 E25.97777
G1 X67.321 Y32.382 E26.09035
G1 X68.311 Y31.612 E26.16954
G1 X69.421 Y31.032 E26.24863
G1 X71.491 Y30.182 E26.38993
G1 X72.341 Y29.902 E26.44644
G1 X73.231 Y29.722 E26.50378
G1 X75.551 Y29.422 E26.65149
G1 X81.377 Y28.827 E27.02131
G1 F2160.000 E26.02131
G92 E0
G1 X89.342 Y71.169 F9600.000
G1 F2160.000 E1.00000
G1 X89.334 Y71.903 F720.000 E1.04638
G1 X89.369 Y72.637 E1.09279
G1 X89.445 Y73.369 E1.13927
G1 X89.563 Y74.097 E1.18581
G1 X89.721 Y74.815 E1.23221
G1 X89.919 Y75.521 E1.27855
G1 X90.161 Y76.218 E1.32513
G1 X90.438 Y76.900 E1.37164
G1 X90.755 Y77.562 E1.41793
G1 X91.110 Y78.208 E1.46449
G1 X91.500 Y78.831 E1.51090
G1 X91.926 Y79.431 E1.55737
G1 X92.384 Y80.007 E1.60387
G1 X92.874 Y80.553 E1.65017
G1 X93.397 Y81.072 E1.69671
G1 X93.947 Y81.563 E1.74324
G1 X94.521 Y82.018 E1.78952
G1 X95.124 Y82.440 E1.83599
G1 X95.751 Y82.828 E1.88254
G1 X96.397 Y83.180 E1.92899
G1 X97.061 Y83.495 E1.97539
G1 X97.744 Y83.770 E2.02190
G1 X98.440 Y84.008 E2.06833
G1 X99.640 Y84.356 E2.14726
G1 X100.103 Y84.563 E2.17930
G1 X100.544 Y84.824 E2.21162
G1 X100.953 Y85.139 E2.24422
G1 X101.318 Y85.498 E2.27656
G1 X101.614 Y85.867 E2.30642
G1 X103.415 Y88.410 E2.50323
G1 X103.682 Y88.845 E2.53541
G1 X103.910 Y89.347 E2.57027
G1 X104.073 Y89.878 E2.60535
G1 X104.166 Y90.427 E2.64045
G1 X104.186 Y90.981 E2.67551
G1 X104.137 Y91.530 E2.71029
G1 X104.018 Y92.072 E2.74536
G1 X103.829 Y92.597 E2.78061
G1 X103.574 Y93.090 E2.81562
G1 X103.260 Y93.545 E2.85052
G1 X102.889 Y93.957 E2.88554
G1 X102.470 Y94.318 E2.92045
G1 X102.009 Y94.623 E2.95540
G1 X101.509 Y94.867 E2.99052
G1 X101.025 Y95.030 E3.02279
G1 X80.727 Y100.470 E4.34970
G1 X80.250 Y100.567 E4.38044
G1 X79.725 Y100.607 E4.41368
G1 X79.199 Y100.584 E4.44695
G1 X78.680 Y100.498 E4.48020
G1 X78.173 Y100.349 E4.51356
G1 X77.688 Y100.137 E4.54694
G1 X77.233 Y99.870 E4.58028
G1 X76.815 Y99.549 E4.61355
G1 X76.438 Y99.180 E4.64689
G1 X76.109 Y98.764 E4.68037
G1 X75.834 Y98.315 E4.71358
G1 X75.617 Y97.837 E4.74679
G1 X75.457 Y97.332 E4.78017
G1 X75.361 Y96.813 E4.81355
G1 X75.332 Y96.329 E4.84417
G1 X75.332 Y62.297 E6.99309
G1 X75.364 Y61.796 E7.02480
G1 X75.465 Y61.261 E7.05921
G1 X75.635 Y60.740 E7.09376
G1 X75.869 Y60.249 E7.12817
G1 X76.161 Y59.789 E7.16255
G1 X76.511 Y59.369 E7.19710
G1 X76.910 Y58.999 E7.23144
G1 X77.350 Y58.680 E7.26576
G1 X77.833 Y58.418 E7.30044
G1 X78.339 Y58.222 E7.33470
G1 X78.868 Y58.088 E7.36914
G1 X79.410 Y58.025 E7.40362
G1 X79.954 Y58.027 E7.43798
G1 X80.497 Y58.100 E7.47259
G1 X81.026 Y58.243 E7.50714
G1 X81.528 Y58.448 E7.54138
G1 X82.002 Y58.714 E7.57575
G1 X82.442 Y59.040 E7.61030
G1 X82.834 Y59.417 E7.64467
G1 X83.149 Y59.807 E7.67633
G1 X88.638 Y67.555 E8.27587
G1 X88.889 Y67.956 E8.30576
G1 X89.107 Y68.420 E8.33815
G1 X89.269 Y68.908 E8.37062
G1 X89.371 Y69.413 E8.40317
G1 X89.412 Y69.922 E8.43536
G1 X89.351 Y71.035 E8.50578
G1 X88.449 Y71.134 F9600.000
G1 X88.441 Y71.920 F288.000 E8.55543
G1 X88.478 Y72.704 E8.60503
G1 X88.560 Y73.487 E8.65472
G1 X88.686 Y74.264 E8.70444
G1 X88.854 Y75.032 E8.75404
G1 X89.067 Y75.788 E8.80369
G1 X89.325 Y76.533 E8.85343
G1 X89.621 Y77.261 E8.90311
G1 X89.960 Y77.970 E8.95269
G1 X90.340 Y78.660 E9.00243
G1 X90.757 Y79.326 E9.05205
G1 X91.212 Y79.968 E9.10172
G1 X91.702 Y80.584 E9.15143
G1 X92.227 Y81.168 E9.20103
G1 X92.785 Y81.723 E9.25072
G1 X93.372 Y82.246 E9.30040
G1 X93.988 Y82.734 E9.34998
G1 X94.633 Y83.185 E9.39969
G1 X95.302 Y83.600 E9.44939
G1 X95.992 Y83.976 E9.49901
G1 X96.702 Y84.313 E9.54867
G1 X97.433 Y84.607 E9.59840
G1 X98.177 Y84.861 E9.64804
G1 X99.323 Y85.192 E9.72340
G1 X99.692 Y85.357 E9.74893
G1 X100.042 Y85.564 E9.77458
G1 X100.365 Y85.813 E9.80033
G1 X100.655 Y86.098 E9.82600
G1 X100.901 Y86.405 E9.85086
G1 X102.670 Y88.902 E10.04408
G1 X102.892 Y89.264 E10.07091
G1 X103.073 Y89.664 E10.09862
G1 X103.202 Y90.085 E10.12642
G1 X103.276 Y90.518 E10.15418
G1 X103.292 Y90.958 E10.18196
G1 X103.253 Y91.394 E10.20961
G1 X103.159 Y91.824 E10.23742
G1 X103.009 Y92.239 E10.26529
G1 X102.807 Y92.630 E10.29307
G1 X102.558 Y92.991 E10.32075
G1 X102.264 Y93.318 E10.34852
G1 X101.931 Y93.605 E10.37627
G1 X101.565 Y93.846 E10.40397
G1 X101.169 Y94.040 E10.43179
G1 X100.766 Y94.175 E10.45863
G1 X80.523 Y99.601 E11.78200
G1 X80.127 Y99.681 E11.80754
G1 X79.710 Y99.713 E11.83390
G1 X79.292 Y99.695 E11.86033
G1 X78.879 Y99.626 E11.88677
G1 X78.478 Y99.508 E11.91316
G1 X78.094 Y99.340 E11.93963
G1 X77.733 Y99.129 E11.96606
G1 X77.402 Y98.874 E11.99246
G1 X77.103 Y98.581 E12.01888
G1 X76.842 Y98.252 E12.04538
G1 X76.624 Y97.896 E12.07176
G1 X76.452 Y97.516 E12.09809
G1 X76.325 Y97.116 E12.12458
G1 X76.249 Y96.704 E12.15103
G1 X76.225 Y96.302 E12.17650
G1 X76.225 Y62.326 E14.32192
G1 X76.251 Y61.908 E14.34835
G1 X76.332 Y61.483 E14.37568
G1 X76.466 Y61.072 E14.40296
G1 X76.652 Y60.682 E14.43028
G1 X76.884 Y60.316 E14.45760
G1 X77.160 Y59.984 E14.48490
G1 X77.477 Y59.690 E14.51219
G1 X77.827 Y59.437 E14.53943
G1 X78.209 Y59.230 E14.56689
G1 X78.611 Y59.074 E14.59411
G1 X79.030 Y58.968 E14.62140
G1 X79.460 Y58.918 E14.64875
G1 X79.892 Y58.920 E14.67603
G1 X80.321 Y58.977 E14.70336
G1 X80.740 Y59.090 E14.73075
G1 X81.139 Y59.253 E14.75799
G1 X81.516 Y59.465 E14.78527
G1 X81.864 Y59.723 E14.81262
G1 X82.175 Y60.022 E14.83986
G1 X82.437 Y60.346 E14.86621
G1 X87.895 Y68.050 E15.46237
G1 X88.104 Y68.384 E15.48724
G1 X88.276 Y68.752 E15.51292
G1 X88.405 Y69.139 E15.53865
G1 X88.486 Y69.538 E15.56436
G1 X88.518 Y69.942 E15.58995
G1 X88.458 Y71.000 E15.65688
G1 X89.120 Y71.544 F9600.000
G1 F2160.000 E14.65688
G92 E0
G1 X84.545 Y54.544 F9600.000
G1 F2160.000 E1.00000
G1 X84.227 Y54.628 F540.000 E1.02079
G1 X83.735 Y54.670 E1.05194
G1 X83.243 Y54.628 E1.08310
G1 X82.756 Y54.499 E1.11492
G1 X82.304 Y54.286 E1.14652
G1 X81.901 Y54.003 E1.17761
G1 X81.546 Y53.651 E1.20917
G1 X81.260 Y53.240 E1.24079
G1 X81.050 Y52.790 E1.27215
G1 X80.922 Y52.312 E1.30339
G1 X80.876 Y51.814 E1.33494
G1 X80.922 Y51.315 E1.36664
G1 X81.050 Y50.836 E1.39790
G1 X81.260 Y50.386 E1.42927
G1 X81.546 Y49.975 E1.46088
G1 X81.901 Y49.623 E1.49244
G1 X82.307 Y49.337 E1.52383
G1 X82.756 Y49.130 E1.55507
G1 X83.238 Y48.998 E1.58662
G1 X83.735 Y48.956 E1.61809
G1 X84.232 Y48.998 E1.64956
G1 X84.714 Y49.130 E1.68112
G1 X85.163 Y49.337 E1.71235
G1 X85.569 Y49.623 E1.74374
G1 X85.924 Y49.975 E1.77530
G1 X86.210 Y50.386 E1.80692
G1 X86.420 Y50.836 E1.83828
G1 X86.548 Y51.315 E1.86955
G1 X86.594 Y51.814 E1.90125
G1 X86.548 Y52.312 E1.93279
G1 X86.420 Y52.790 E1.96403
G1 X86.210 Y53.240 E1.99539
G1 X85.924 Y53.651 E2.02701
G1 X85.569 Y54.003 E2.05857
G1 X85.166 Y54.286 E2.08966
G1 X84.674 Y54.510 E2.12380
G1 X84.407 Y53.657 F9600.000
G1 X84.074 Y53.745 F540.000 E2.14555
G1 X83.735 Y53.774 E2.16701
G1 X83.396 Y53.745 E2.18846
G1 X83.063 Y53.657 E2.21022
G1 X82.754 Y53.511 E2.23182
G1 X82.476 Y53.316 E2.25331
G1 X82.232 Y53.074 E2.27496
G1 X82.037 Y52.793 E2.29657
G1 X81.892 Y52.483 E2.31818
G1 X81.804 Y52.155 E2.33966
G1 X81.773 Y51.814 E2.36125
G1 X81.804 Y51.471 E2.38297
G1 X81.892 Y51.143 E2.40446
G1 X82.037 Y50.833 E2.42607
G1 X82.232 Y50.552 E2.44768
G1 X82.476 Y50.310 E2.46933
G1 X82.755 Y50.114 E2.49091
G1 X83.063 Y49.971 E2.51236
G1 X83.395 Y49.881 E2.53405
G1 X83.735 Y49.852 E2.55561
G1 X84.075 Y49.881 E2.57717
G1 X84.407 Y49.971 E2.59886
G1 X84.715 Y50.114 E2.62031
G1 X84.994 Y50.310 E2.64189
G1 X85.238 Y50.552 E2.66354
G1 X85.433 Y50.833 E2.68515
G1 X85.578 Y51.143 E2.70676
G1 X85.666 Y51.472 E2.72825
G1 X85.697 Y51.814 E2.74997
G1 X85.666 Y52.155 E2.77156
G1 X85.578 Y52.483 E2.79305
G1 X85.433 Y52.793 E2.81465
G1 X85.238 Y53.074 E2.83626
G1 X84.994 Y53.316 E2.85791
G1 X84.716 Y53.511 E2.87940
G1 X84.528 Y53.600 E2.89255
G1 X84.337 Y53.994 F9600.000
G1 F2160.000 E1.89255
G92 E0
G1 X89.510 Y48.238 F9600.000
G1 F2160.000 E1.00000
G1 X89.476 Y47.843 F720.000 E1.02501
G1 X89.494 Y47.303 E1.05917
G1 X89.573 Y46.765 E1.09349
G1 X89.712 Y46.234 E1.12816
G1 X89.913 Y45.727 E1.16258
G1 X90.168 Y45.245 E1.19704
G1 X90.554 Y44.708 E1.23878
G1 X90.836 Y44.384 E1.26590
G1 X91.239 Y44.017 E1.30035
G1 X91.678 Y43.699 E1.33455
G1 X92.155 Y43.429 E1.36918
G1 X92.647 Y43.221 E1.40289
G1 X93.182 Y43.065 E1.43807
G1 X93.715 Y42.974 E1.47221
G1 X94.224 Y42.944 E1.50444
G1 X106.310 Y42.967 E2.26762
G1 X106.885 Y43.065 E2.30444
G1 X107.408 Y43.218 E2.33880
G1 X107.772 Y43.371 E2.36378
G1 X107.912 Y43.431 E2.37340
G1 X108.390 Y43.701 E2.40806
G1 X108.829 Y44.018 E2.44225
G1 X109.227 Y44.382 E2.47632
G1 X109.333 Y44.502 E2.48641
G1 X109.589 Y44.799 E2.51120
G1 X109.897 Y45.243 E2.54526
G1 X110.158 Y45.736 E2.58051
G1 X110.350 Y46.234 E2.61425
G1 X110.491 Y46.751 E2.64804
G1 X110.574 Y47.301 E2.68322
G1 X110.589 Y47.836 E2.71698
G1 X110.547 Y48.385 E2.75178
G1 X110.441 Y48.920 E2.78622
G1 X110.231 Y49.544 E2.82777
G1 X110.068 Y49.904 E2.85271
G1 X104.259 Y61.066 E3.64729
G1 X103.996 Y61.508 E3.67975
G1 X103.664 Y61.942 E3.71428
G1 X103.285 Y62.336 E3.74877
G1 X102.862 Y62.685 E3.78346
G1 X102.391 Y62.990 E3.81886
G1 X101.911 Y63.226 E3.85260
G1 X101.390 Y63.414 E3.88761
G1 X100.848 Y63.541 E3.92278
G1 X100.306 Y63.601 E3.95717
G1 X99.762 Y63.601 E3.99154
G1 X99.220 Y63.541 E4.02595
G1 X98.680 Y63.416 E4.06096
G1 X98.124 Y63.216 E4.09824
G1 X97.198 Y62.699 E4.16523
G1 X96.419 Y61.967 E4.23274
G1 X96.069 Y61.507 E4.26921
G1 X95.806 Y61.066 E4.30168
G1 X89.956 Y49.831 E5.10154
G1 X89.530 Y48.461 E5.19215
G1 X89.522 Y48.371 E5.19780
G1 X90.399 Y48.160 F9600.000
G1 X90.370 Y47.822 F288.000 E5.21921
G1 X90.384 Y47.381 E5.24713
G1 X90.449 Y46.943 E5.27506
G1 X90.562 Y46.513 E5.30316
G1 X90.725 Y46.101 E5.33111
G1 X90.933 Y45.708 E5.35916
G1 X91.244 Y45.275 E5.39287
G1 X91.475 Y45.009 E5.41508
G1 X91.803 Y44.711 E5.44310
G1 X92.161 Y44.451 E5.47102
G1 X92.549 Y44.232 E5.49913
G1 X92.950 Y44.063 E5.52661
G1 X93.382 Y43.936 E5.55508
G1 X93.818 Y43.862 E5.58298
G1 X94.249 Y43.837 E5.61022
G1 X106.235 Y43.860 E6.36708
G1 X106.684 Y43.936 E6.39588
G1 X107.109 Y44.061 E6.42384
G1 X107.423 Y44.192 E6.44534
G1 X107.905 Y44.452 E6.47993
G1 X108.264 Y44.711 E6.50786
G1 X108.660 Y45.089 E6.54240
G1 X108.881 Y45.345 E6.56380
G1 X109.133 Y45.708 E6.59167
G1 X109.343 Y46.104 E6.61999
G1 X109.501 Y46.513 E6.64767
G1 X109.617 Y46.939 E6.67553
G1 X109.683 Y47.380 E6.70372
G1 X109.696 Y47.819 E6.73147
G1 X109.661 Y48.262 E6.75949
G1 X109.575 Y48.699 E6.78760
G1 X109.405 Y49.203 E6.82121
G1 X109.265 Y49.513 E6.84271
G1 X103.479 Y60.632 E7.63417
G1 X103.257 Y61.005 E7.66161
G1 X102.986 Y61.359 E7.68976
G1 X102.677 Y61.680 E7.71788
G1 X102.332 Y61.965 E7.74614
G1 X101.954 Y62.209 E7.77455
G1 X101.557 Y62.405 E7.80246
G1 X101.136 Y62.557 E7.83076
G1 X100.698 Y62.659 E7.85916
G1 X100.256 Y62.708 E7.88722
G1 X99.810 Y62.708 E7.91539
G1 X99.369 Y62.659 E7.94341
G1 X98.932 Y62.558 E7.97177
G1 X98.498 Y62.402 E8.00084
G1 X97.729 Y61.973 E8.05646
G1 X97.085 Y61.368 E8.11227
G1 X96.809 Y61.005 E8.14105
G1 X96.586 Y60.631 E8.16853
G1 X90.785 Y49.489 E8.96178
G1 X90.412 Y48.293 E9.04085
G1 X90.084 Y48.037 F9600.000
G1 F2160.000 E8.04085
G92 E0
G1 X113.928 Y50.241 F9600.000
G1 F2160.000 E1.00000
G1 X113.958 Y49.919 F540.000 E1.02038
G1 X114.086 Y49.437 E1.05187
G1 X114.297 Y48.988 E1.08320
G1 X114.582 Y48.579 E1.11468
G1 X114.937 Y48.227 E1.14624
G1 X115.340 Y47.944 E1.17734
G1 X115.791 Y47.731 E1.20885
G1 X116.276 Y47.602 E1.24058
G1 X116.771 Y47.560 E1.27194
G1 X117.263 Y47.602 E1.30307
G1 X117.750 Y47.731 E1.33489
G1 X118.202 Y47.944 E1.36649
G1 X118.605 Y48.227 E1.39758
G1 X118.960 Y48.579 E1.42915
G1 X119.245 Y48.988 E1.46062
G1 X119.456 Y49.437 E1.49196
G1 X119.584 Y49.919 E1.52346
G1 X119.630 Y50.415 E1.55491
G1 X119.584 Y50.915 E1.58662
G1 X119.456 Y51.396 E1.61801
G1 X119.245 Y51.844 E1.64927
G1 X118.963 Y52.250 E1.68052
G1 X118.605 Y52.608 E1.71243
G1 X118.199 Y52.890 E1.74368
G1 X117.750 Y53.101 E1.77502
G1 X117.268 Y53.229 E1.80651
G1 X116.771 Y53.275 E1.83797
G1 X116.272 Y53.229 E1.86967
G1 X115.791 Y53.101 E1.90108
G1 X115.343 Y52.890 E1.93232
G1 X114.937 Y52.608 E1.96358
G1 X114.579 Y52.250 E1.99549
G1 X114.297 Y51.844 E2.02674
G1 X114.086 Y51.396 E2.05799
G1 X113.958 Y50.915 E2.08940
G1 X113.916 Y50.374 E2.12369
G1 X114.809 Y50.416 F9600.000
G1 X114.840 Y50.076 F540.000 E2.14525
G1 X114.928 Y49.744 E2.16690
G1 X115.073 Y49.436 E2.18842
G1 X115.268 Y49.156 E2.20998
G1 X115.512 Y48.914 E2.23163
G1 X115.790 Y48.719 E2.25312
G1 X116.099 Y48.573 E2.27469
