; generated by Slic3r 0.9.11-dev on 2013-07-18 at 21:36:27

; layer_height = 0.3
; perimeters = 3
; top_solid_layers = 3
; bottom_solid_layers = 3
; fill_density = .3
; perimeter_speed = 40
; infill_speed = 60
; travel_speed = 130
; nozzle_diameter = 0.5
; filament_diameter = 3
; extrusion_multiplier = 1
; perimeters extrusion width = 0.50mm
; infill extrusion width = 0.70mm
; solid infill extrusion width = 0.70mm
; top infill extrusion width = 0.70mm
; first layer extrusion width = 1.00mm

G21 ; set units to millimeters
M107
M104 S200 ; set temperature
G28 ; home all axes
M109 S200 ; wait for temperature to be reached
G90 ; use absolute coordinates
G92 E0
M82 ; use absolute distances for extrusion
G1 F2160.000 E-1.00000
G92 E0
G1 Z0.500 F7800.000
G1 X40.230 Y68.020
G1 F2160.000 E1.00000
G1 X41.810 Y67.410 F720.000 E1.10695
G1 X43.490 Y67.210 E1.21378
G1 X157.890 Y67.210 E8.43763
G1 X159.230 Y67.340 E8.52264
G1 X160.530 Y67.730 E8.60835
G1 X161.720 Y68.370 E8.69367
G1 X162.760 Y69.230 E8.77888
G1 X163.620 Y70.270 E8.86410
G1 X164.260 Y71.460 E8.94942
G1 X164.650 Y72.760 E9.03513
G1 X164.780 Y74.100 E9.12014
G1 X164.780 Y91.300 E10.20624
G1 X164.690 Y92.400 E10.27593
G1 X164.430 Y93.470 E10.34546
G1 X152.930 Y128.070 E12.64782
G1 X152.340 Y129.380 E12.73854
G1 X151.490 Y130.540 E12.82935
G1 X150.420 Y131.490 E12.91970
G1 X149.180 Y132.200 E13.00993
G1 X147.820 Y132.640 E13.10019
G1 X146.390 Y132.790 E13.19099
G1 X134.790 Y132.790 E13.92347
G1 X133.930 Y132.740 E13.97787
G1 X133.090 Y132.580 E14.03187
G1 X41.790 Y109.280 E19.98183
G1 X40.210 Y108.660 E20.08901
G1 X38.830 Y107.680 E20.19589
G1 X37.730 Y106.670 E20.29019
G1 X36.780 Y105.600 E20.38054
G1 X36.080 Y104.360 E20.47045
G1 X35.640 Y103.010 E20.56011
G1 X35.500 Y101.590 E20.65022
G1 X35.500 Y75.100 E22.32294
G1 X35.650 Y73.670 E22.41374
G1 X36.090 Y72.310 E22.50400
G1 X36.800 Y71.070 E22.59422
G1 X37.750 Y70.000 E22.68458
G1 X38.850 Y69.000 E22.77845
G1 X40.121 Y68.098 E22.87687
G1 F2160.000 E21.87687
G92 E0
G1 X84.932 Y76.332 F7800.000
G1 F2160.000 E1.00000
G1 X103.468 Y76.332 F720.000 E2.17050
G1 X103.468 Y94.868 E3.34100
G1 X84.932 Y94.868 E4.51149
G1 X84.932 Y76.466 E5.67353
G1 X84.039 Y75.439 F7800.000
G1 X104.361 Y75.439 F720.000 E6.95677
G1 X104.361 Y95.761 E8.24001
G1 X84.039 Y95.761 E9.52325
G1 X84.039 Y75.573 E10.79803
G1 X83.146 Y74.546 F7800.000
G1 X105.254 Y74.546 F360.000 E12.19401
G1 X105.254 Y96.654 E13.58998
G1 X83.146 Y96.654 E14.98596
G1 X83.146 Y74.680 E16.37348
G1 X83.919 Y74.993 F7800.000
G1 X102.821 Y77.001
G1 X102.799 Y76.979 F1080.000 E16.37549
G1 X101.523 Y76.979 E16.45687
G1 X102.821 Y78.277 E16.57396
G1 X102.821 Y79.552 E16.65534
G1 X100.248 Y76.979 E16.88753
G1 X98.972 Y76.979 E16.96891
G1 X102.821 Y80.828 E17.31619
G1 X102.821 Y82.103 E17.39757
G1 X97.697 Y76.979 E17.85994
G1 X96.421 Y76.979 E17.94132
G1 X102.821 Y83.379 E18.51878
G1 X102.821 Y84.654 E18.60016
G1 X95.146 Y76.979 E19.29271
G1 X93.870 Y76.979 E19.37409
G1 X102.821 Y85.930 E20.18174
G1 X102.821 Y87.206 E20.26312
G1 X92.594 Y76.979 E21.18585
G1 X91.319 Y76.979 E21.26724
G1 X102.821 Y88.481 E22.30506
G1 X102.821 Y89.757 E22.38644
G1 X90.043 Y76.979 E23.53936
G1 X88.768 Y76.979 E23.62074
G1 X102.821 Y91.032 E24.88875
G1 X102.821 Y92.308 E24.97013
G1 X87.492 Y76.979 E26.35323
G1 X86.217 Y76.979 E26.43461
G1 X102.821 Y93.583 E27.93280
G1 X102.183 Y94.221 E27.99035
G1 X85.579 Y77.617 E29.48854
G1 X85.579 Y78.892 E29.56992
G1 X100.908 Y94.221 E30.95302
G1 X99.632 Y94.221 E31.03441
G1 X85.579 Y80.168 E32.30241
G1 X85.579 Y81.443 E32.38380
G1 X98.357 Y94.221 E33.53671
G1 X97.081 Y94.221 E33.61810
G1 X85.579 Y82.719 E34.65592
G1 X85.579 Y83.994 E34.73730
G1 X95.806 Y94.221 E35.66004
G1 X94.530 Y94.221 E35.74142
G1 X85.579 Y85.270 E36.54906
G1 X85.579 Y86.546 E36.63045
G1 X93.254 Y94.221 E37.32300
G1 X91.979 Y94.221 E37.40438
G1 X85.579 Y87.821 E37.98184
G1 X85.579 Y89.097 E38.06322
G1 X90.703 Y94.221 E38.52559
G1 X89.428 Y94.221 E38.60697
G1 X85.579 Y90.372 E38.95425
G1 X85.579 Y91.648 E39.03563
G1 X88.152 Y94.221 E39.26782
G1 X86.877 Y94.221 E39.34920
G1 X85.579 Y92.923 E39.46629
G1 X85.579 Y94.199 E39.54768
G1 X85.601 Y94.221 E39.54968
G1 F2160.000 E38.54968
G92 E0
G1 X137.032 Y91.332 F7800.000
G1 F2160.000 E1.00000
G1 X144.168 Y91.332 F720.000 E1.45064
G1 X144.168 Y123.668 E3.49254
G1 X137.032 Y123.668 E3.94318
G1 X137.032 Y91.466 E5.97663
G1 X136.139 Y90.439 F7800.000
G1 X145.061 Y90.439 F720.000 E6.54001
G1 X145.061 Y124.561 E8.69466
G1 X136.139 Y124.561 E9.25804
G1 X136.139 Y90.573 E11.40423
G1 X148.632 Y89.068 F7800.000
G1 X148.632 Y76.332 F540.000 E12.20848
G1 X155.668 Y76.332 E12.65280
G1 X155.668 Y89.068 E13.45706
G1 X148.766 Y89.068 E13.89293
G1 X147.739 Y89.961 F7800.000
G1 X147.739 Y75.439 F720.000 E14.80992
G1 X156.561 Y75.439 E15.36698
G1 X156.561 Y89.961 E16.28398
G1 X147.873 Y89.961 E16.83258
G1 X132.568 Y89.068 F7800.000
G1 X125.532 Y89.068 F540.000 E17.27691
G1 X125.532 Y76.332 E18.08116
G1 X132.568 Y76.332 E18.52548
G1 X132.568 Y88.934 E19.32128
G1 X133.461 Y89.961 F7800.000
G1 X124.639 Y89.961 F720.000 E19.87835
G1 X124.639 Y75.439 E20.79534
G1 X133.461 Y75.439 E21.35240
G1 X133.461 Y89.827 E22.26094
G1 X134.354 Y89.546 F7800.000
G1 X146.846 Y89.546 F360.000 E23.04980
G1 X146.846 Y74.546 E23.99698
G1 X157.454 Y74.546 E24.66679
G1 X157.454 Y90.854 E25.69652
G1 X145.954 Y90.854 E26.42269
G1 X145.954 Y125.454 E28.60753
G1 X135.246 Y125.454 E29.28365
G1 X135.246 Y90.854 E31.46848
G1 X123.746 Y90.854 E32.19466
G1 X123.746 Y74.546 E33.22439
G1 X134.354 Y74.546 E33.89419
G1 X134.354 Y89.412 E34.83292
G1 X134.354 Y90.439 F7800.000
G1 X143.017 Y91.979
G1 X143.521 Y92.483 F1080.000 E34.87828
G1 X143.521 Y93.755 E34.95931
G1 X141.745 Y91.979 E35.11927
G1 X140.472 Y91.979 E35.20029
G1 X143.521 Y95.028 E35.47484
G1 X143.521 Y96.301 E35.55587
G1 X139.199 Y91.979 E35.94500
G1 X137.926 Y91.979 E36.02603
G1 X143.521 Y97.574 E36.52976
G1 X143.521 Y98.847 E36.61079
G1 X137.679 Y93.004 E37.13678
G1 X137.679 Y94.277 E37.21781
G1 X143.521 Y100.119 E37.74381
G1 X143.521 Y101.392 E37.82484
G1 X137.679 Y95.550 E38.35083
G1 X137.679 Y96.823 E38.43186
G1 X143.521 Y102.665 E38.95785
G1 X143.521 Y103.938 E39.03888
G1 X137.679 Y98.095 E39.56488
G1 X137.679 Y99.368 E39.64590
G1 X143.521 Y105.211 E40.17190
G1 X143.521 Y106.483 E40.25293
G1 X137.679 Y100.641 E40.77892
G1 X137.679 Y101.914 E40.85995
G1 X143.521 Y107.756 E41.38594
G1 X143.521 Y109.029 E41.46697
G1 X137.679 Y103.187 E41.99297
G1 X137.679 Y104.459 E42.07400
G1 X143.521 Y110.302 E42.59999
G1 X143.521 Y111.575 E42.68102
G1 X137.679 Y105.732 E43.20701
G1 X137.679 Y107.005 E43.28804
G1 X143.521 Y112.847 E43.81404
G1 X143.521 Y114.120 E43.89506
G1 X137.679 Y108.278 E44.42106
G1 X137.679 Y109.551 E44.50209
G1 X143.521 Y115.393 E45.02808
G1 X143.521 Y116.666 E45.10911
G1 X137.679 Y110.823 E45.63511
G1 X137.679 Y112.096 E45.71613
G1 X143.521 Y117.939 E46.24213
G1 X143.521 Y119.211 E46.32316
G1 X137.679 Y113.369 E46.84915
G1 X137.679 Y114.642 E46.93018
G1 X143.521 Y120.484 E47.45617
G1 X143.521 Y121.757 E47.53720
G1 X137.679 Y115.915 E48.06320
G1 X137.679 Y117.187 E48.14423
G1 X143.513 Y123.021 E48.66945
G1 X142.240 Y123.021 E48.75048
G1 X137.679 Y118.460 E49.16112
G1 X137.679 Y119.733 E49.24214
G1 X140.967 Y123.021 E49.53819
G1 X139.694 Y123.021 E49.61922
G1 X137.679 Y121.006 E49.80067
G1 X137.679 Y122.279 E49.88170
G1 X138.421 Y123.021 E49.94856
G1 F2160.000 E48.94856
G92 E0
G1 X149.642 Y88.421 F7800.000
G1 F2160.000 E1.00000
G1 X149.279 Y88.058 F1080.000 E1.03243
G1 X149.279 Y86.785 E1.11280
G1 X150.915 Y88.421 E1.25889
G1 X152.188 Y88.421 E1.33926
G1 X149.279 Y85.512 E1.59902
G1 X149.279 Y84.240 E1.67939
G1 X153.460 Y88.421 E2.05281
G1 X154.733 Y88.421 E2.13318
G1 X149.279 Y82.967 E2.62025
G1 X149.279 Y81.694 E2.70063
G1 X155.021 Y87.436 E3.21342
G1 X155.021 Y86.164 E3.29379
G1 X149.279 Y80.421 E3.80659
G1 X149.279 Y79.148 E3.88696
G1 X155.021 Y84.891 E4.39976
G1 X155.021 Y83.618 E4.48013
G1 X149.279 Y77.876 E4.99293
G1 X149.655 Y76.979 E5.05433
G1 X155.021 Y82.345 E5.53356
G1 X155.021 Y81.072 E5.61393
G1 X150.928 Y76.979 E5.97949
G1 X152.200 Y76.979 E6.05986
G1 X155.021 Y79.800 E6.31176
G1 X155.021 Y78.527 E6.39213
G1 X153.473 Y76.979 E6.53037
G1 X154.746 Y76.979 E6.61074
G1 X155.021 Y77.254 E6.63532
G1 F2160.000 E5.63532
G92 E0
G1 X131.921 Y77.064 F7800.000
G1 F2160.000 E1.00000
G1 X131.836 Y76.979 F1080.000 E1.00763
G1 X130.563 Y76.979 E1.08800
G1 X131.921 Y78.337 E1.20930
G1 X131.921 Y79.610 E1.28967
G1 X129.290 Y76.979 E1.52463
G1 X128.017 Y76.979 E1.60500
G1 X131.921 Y80.883 E1.95361
G1 X131.921 Y82.155 E2.03399
G1 X126.745 Y76.979 E2.49627
G1 X126.179 Y77.686 E2.55345
G1 X131.921 Y83.428 E3.06624
G1 X131.921 Y84.701 E3.14662
G1 X126.179 Y78.959 E3.65941
G1 X126.179 Y80.232 E3.73978
G1 X131.921 Y85.974 E4.25258
G1 X131.921 Y87.247 E4.33295
G1 X126.179 Y81.504 E4.84575
G1 X126.179 Y82.777 E4.92612
G1 X131.823 Y88.421 E5.43014
G1 X130.550 Y88.421 E5.51051
G1 X126.179 Y84.050 E5.90087
G1 X126.179 Y85.323 E5.98124
G1 X129.277 Y88.421 E6.25794
G1 X128.005 Y88.421 E6.33831
G1 X126.179 Y86.595 E6.50135
G1 X126.179 Y87.868 E6.58172
G1 X126.732 Y88.421 E6.63109
G1 F2160.000 E5.63109
G92 E0
G1 X49.565 Y101.664 F7800.000
G1 F2160.000 E1.00000
G1 X48.989 Y102.190 F540.000 E1.04924
G1 X48.091 Y99.046 E1.25567
G1 X49.843 Y99.046 E1.36634
G1 X49.844 Y101.405 E1.51529
G1 X49.663 Y101.573 E1.53087
G1 X48.821 Y101.430 F7800.000
G1 F2160.000 E0.53087
G92 E0
G1 X43.118 Y101.664 F7800.000
G1 F2160.000 E1.00000
G1 X42.840 Y101.405 F540.000 E1.02397
G1 X42.840 Y99.046 E1.17293
G1 X44.593 Y99.046 E1.28360
G1 X43.695 Y102.190 E1.49002
G1 X43.216 Y101.755 E1.53086
G1 X43.201 Y101.294 F7800.000
G1 F2160.000 E0.53086
G92 E0
G1 X45.729 Y89.366 F7800.000
G1 F2160.000 E1.00000
G1 X45.238 Y89.212 F540.000 E1.03250
G1 X45.238 Y87.505 E1.14032
G1 X45.729 Y87.369 E1.17250
G1 X45.729 Y86.689 E1.21542
G1 X46.955 Y86.689 E1.29281
G1 X46.955 Y87.334 E1.33356
G1 X47.446 Y87.488 E1.36606
G1 X47.446 Y89.195 E1.47387
G1 X46.955 Y89.331 E1.50605
G1 X46.955 Y90.011 E1.54897
G1 X45.729 Y90.011 E1.62636
G1 X45.729 Y89.500 E1.65864
G1 X44.836 Y90.022 F7800.000
G1 X44.345 Y89.868 F540.000 E1.69114
G1 X44.345 Y86.826 E1.88327
G1 X44.836 Y86.690 E1.91546
G1 X44.837 Y85.239 E2.00706
G1 X45.318 Y85.606 E2.04531
G1 X45.670 Y85.752 E2.06938
G1 X46.013 Y85.796 E2.09121
G1 X46.670 Y85.796 E2.13272
G1 X47.013 Y85.752 E2.15455
G1 X47.365 Y85.606 E2.17861
G1 X47.847 Y85.239 E2.21687
G1 X47.847 Y86.678 E2.30776
G1 X48.338 Y86.832 E2.34026
G1 X48.338 Y89.874 E2.53240
G1 X47.847 Y90.010 E2.56458
G1 X47.847 Y91.461 E2.65619
G1 X47.365 Y91.094 E2.69445
G1 X47.013 Y90.948 E2.71851
G1 X46.670 Y90.904 E2.74034
G1 X46.013 Y90.904 E2.78185
G1 X45.670 Y90.948 E2.80368
G1 X45.318 Y91.094 E2.82774
G1 X44.836 Y91.461 E2.86600
G1 X44.836 Y90.156 E2.94843
G1 X44.940 Y89.518 F7800.000
G1 F2160.000 E1.94843
G92 E0
G1 X49.566 Y75.036 F7800.000
G1 F2160.000 E1.00000
G1 X49.844 Y75.295 F540.000 E1.02397
G1 X49.843 Y77.654 E1.17293
G1 X48.091 Y77.654 E1.28360
G1 X48.989 Y74.510 E1.49002
G1 X49.468 Y74.945 E1.53086
G1 X49.482 Y75.406 F7800.000
G1 F2160.000 E0.53086
G92 E0
G1 X43.118 Y75.036 F7800.000
G1 F2160.000 E1.00000
G1 X43.695 Y74.510 F540.000 E1.04924
G1 X44.593 Y77.654 E1.25567
G1 X42.840 Y77.654 E1.36634
G1 X42.840 Y75.295 E1.51529
G1 X43.020 Y75.127 E1.53087
G1 X43.862 Y75.270 F7800.000
G1 F2160.000 E0.53087
G92 E0
G1 X47.959 Y94.033 F7800.000
G1 F2160.000 E1.00000
G1 X47.988 Y92.191 F360.000 E1.11631
G1 X47.700 Y91.763 E1.14887
G1 X47.959 Y94.033 F7800.000
G1 X47.924 Y96.437 F360.000 E1.30068
G1 X47.934 Y97.398 E1.36140
G1 X47.960 Y98.254 E1.41549
G1 F2160.000 E0.41549
G92 E0
G1 X44.719 Y98.250 F7800.000
G1 F2160.000 E1.00000
G1 X44.709 Y97.422 F360.000 E1.05230
G1 X44.702 Y96.480 E1.11180
G1 X44.689 Y94.125 E1.26054
G1 X44.705 Y92.347 E1.37276
G1 X44.984 Y91.765 E1.41355
G1 X44.981 Y84.931 F7800.000
G1 X44.695 Y84.509 F360.000 E1.44571
G1 X44.682 Y80.946 E1.67069
G1 X44.682 Y80.082 E1.72528
G1 X44.694 Y79.201 E1.78090
G1 X44.723 Y78.446 E1.82862
G1 F2160.000 E0.82862
G92 E0
G1 X47.965 Y78.450 F7800.000
G1 F2160.000 E1.00000
G1 X47.943 Y81.234 F360.000 E1.17583
G1 X47.931 Y83.645 E1.32805
G1 X47.946 Y84.545 E1.38493
G1 X47.715 Y84.785 E1.40593
G1 X47.700 Y84.935 E1.41547
G1 X46.500 Y88.188 F7800.000
G1 X46.492 Y88.181 F360.000 E1.41611
G1 F2160.000 E0.41611
G92 E0
G1 Z0.800 F7800.000
G1 X83.950 Y95.850
G1 F2160.000 E1.00000
G1 X83.950 Y75.350 F2400.000 E1.43502
G1 X104.450 Y75.350 E1.87005
G1 X104.450 Y95.850 E2.30507
G1 X84.025 Y95.850 E2.73850
G1 X83.450 Y96.350 F7800.000
G1 X83.450 Y74.850 F2400.000 E3.19475
G1 X104.950 Y74.850 E3.65099
G1 X104.950 Y96.350 E4.10724
G1 X83.525 Y96.350 E4.56189
G1 X82.950 Y96.850 F7800.000
G1 X82.950 Y74.350 F1200.000 E5.03935
G1 X105.450 Y74.350 E5.51682
G1 X105.450 Y96.850 E5.99428
G1 X83.025 Y96.850 E6.47016
G1 X83.200 Y96.417 F7800.000
G1 X84.770 Y75.747
G1 X84.347 Y76.170 F3600.000 E6.48684
G1 X84.347 Y77.100 E6.51276
G1 X85.700 Y75.747 E6.56610
G1 X86.629 Y75.747 E6.59202
G1 X84.347 Y78.029 E6.68202
G1 X84.347 Y78.958 E6.70794
G1 X87.558 Y75.747 E6.83459
G1 X88.488 Y75.747 E6.86051
G1 X84.347 Y79.888 E7.02381
G1 X84.347 Y80.817 E7.04973
G1 X89.417 Y75.747 E7.24970
G1 X90.346 Y75.747 E7.27562
G1 X84.347 Y81.746 E7.51223
G1 X84.347 Y82.676 E7.53815
G1 X91.276 Y75.747 E7.81143
G1 X92.205 Y75.747 E7.83735
G1 X84.347 Y83.605 E8.14728
G1 X84.347 Y84.534 E8.17320
G1 X93.134 Y75.747 E8.51978
G1 X94.064 Y75.747 E8.54570
G1 X84.347 Y85.464 E8.92894
G1 X84.347 Y86.393 E8.95486
G1 X94.993 Y75.747 E9.37476
G1 X95.922 Y75.747 E9.40068
G1 X84.347 Y87.322 E9.85723
G1 X84.347 Y88.252 E9.88315
G1 X96.852 Y75.747 E10.37635
G1 X97.781 Y75.747 E10.40227
G1 X84.347 Y89.181 E10.93213
G1 X84.347 Y90.110 E10.95805
G1 X98.710 Y75.747 E11.52457
G1 X99.640 Y75.747 E11.55049
G1 X84.347 Y91.040 E12.15366
G1 X84.347 Y91.969 E12.17958
G1 X100.569 Y75.747 E12.81941
G1 X101.498 Y75.747 E12.84533
G1 X84.347 Y92.898 E13.52182
G1 X84.347 Y93.828 E13.54774
G1 X102.428 Y75.747 E14.26088
G1 X103.357 Y75.747 E14.28680
G1 X84.347 Y94.757 E15.03659
G1 X84.581 Y95.453 E15.05706
G1 X104.053 Y75.981 E15.82509
G1 X104.053 Y76.910 E15.85101
G1 X85.510 Y95.453 E16.58239
G1 X86.439 Y95.453 E16.60831
G1 X104.053 Y77.839 E17.30303
G1 X104.053 Y78.769 E17.32895
G1 X87.369 Y95.453 E17.98702
G1 X88.298 Y95.453 E18.01294
G1 X104.053 Y79.698 E18.63435
G1 X104.053 Y80.627 E18.66027
G1 X89.227 Y95.453 E19.24502
G1 X90.157 Y95.453 E19.27094
G1 X104.053 Y81.557 E19.81904
G1 X104.053 Y82.486 E19.84496
G1 X91.086 Y95.453 E20.35641
G1 X92.015 Y95.453 E20.38233
G1 X104.053 Y83.415 E20.85711
G1 X104.053 Y84.345 E20.88303
G1 X92.945 Y95.453 E21.32117
G1 X93.874 Y95.453 E21.34709
G1 X104.053 Y85.274 E21.74856
G1 X104.053 Y86.203 E21.77448
G1 X94.803 Y95.453 E22.13931
G1 X95.733 Y95.453 E22.16523
G1 X104.053 Y87.133 E22.49339
G1 X104.053 Y88.062 E22.51931
G1 X96.662 Y95.453 E22.81082
G1 X97.591 Y95.453 E22.83674
G1 X104.053 Y88.991 E23.09160
G1 X104.053 Y89.921 E23.11752
G1 X98.521 Y95.453 E23.33572
G1 X99.450 Y95.453 E23.36164
G1 X104.053 Y90.850 E23.54318
G1 X104.053 Y91.779 E23.56910
G1 X100.379 Y95.453 E23.71399
G1 X101.309 Y95.453 E23.73991
G1 X104.053 Y92.709 E23.84815
G1 X104.053 Y93.638 E23.87406
G1 X102.238 Y95.453 E23.94564
G1 X103.167 Y95.453 E23.97156
G1 X104.053 Y94.567 E24.00649
G1 F2160.000 E23.00649
G92 E0
G1 X136.050 Y90.350 F7800.000
G1 F2160.000 E1.00000
G1 X145.150 Y90.350 F2400.000 E1.19311
G1 X145.150 Y124.650 E1.92098
G1 X136.050 Y124.650 E2.11408
G1 X136.050 Y90.425 E2.84036
G1 X147.650 Y90.050 F7800.000
G1 X147.650 Y75.350 F2400.000 E3.15231
G1 X156.650 Y75.350 E3.34329
G1 X156.650 Y90.050 E3.65523
G1 X147.725 Y90.050 E3.84463
G1 X133.550 Y90.050 F7800.000
G1 X124.550 Y90.050 F2400.000 E4.03562
G1 X124.550 Y75.350 E4.34756
G1 X133.550 Y75.350 E4.53854
G1 X133.550 Y89.975 E4.84890
G1 X134.050 Y89.850 F7800.000
G1 X147.150 Y89.850 F2400.000 E5.12689
G1 X147.150 Y74.850 E5.44520
G1 X157.150 Y74.850 E5.65740
G1 X157.150 Y90.550 E5.99057
G1 X145.650 Y90.550 E6.23461
