; generated by Slic3r 0.9.11-dev on 2013-07-17 at 17:39:51

; layer_height = 0.2
; perimeters = 1
; top_solid_layers = 3
; bottom_solid_layers = 3
; fill_density = .25
; perimeter_speed = 40
; infill_speed = 60
; travel_speed = 130
; nozzle_diameter = 0.5
; filament_diameter = 3
; extrusion_multiplier = 1
; perimeters extrusion width = 0.50mm
; infill extrusion width = 1.02mm
; solid infill extrusion width = 0.85mm
; top infill extrusion width = 0.85mm
; first layer extrusion width = 1.00mm

G21 ; set units to millimeters
M107
M104 S200 ; set temperature
G28 ; home all axes
M109 S200 ; wait for temperature to be reached
G90 ; use absolute coordinates
G92 E0
M82 ; use absolute distances for extrusion
G1 F2160.000 E-1.00000
G92 E0
G1 Z0.500 F7800.000
G1 X68.014 Y83.453
G1 F2160.000 E1.00000
G1 X77.094 Y78.443 F720.000 E1.65485
G1 X134.284 Y48.693 E5.72554
G1 X134.954 Y48.383 E5.77215
G1 X135.364 Y48.223 E5.79994
G1 X135.994 Y48.013 E5.84188
G1 X136.644 Y47.863 E5.88400
G1 X137.084 Y47.783 E5.91224
G1 X137.984 Y47.683 E5.96942
G1 X138.404 Y47.663 E5.99597
G1 X139.374 Y47.683 E6.05724
G1 X139.804 Y47.723 E6.08451
G1 X140.954 Y47.923 E6.15821
G1 X141.364 Y48.033 E6.18502
G1 X142.344 Y48.383 E6.25073
G1 X142.754 Y48.563 E6.27901
G1 X143.694 Y49.063 E6.34624
G1 X144.054 Y49.293 E6.37321
G1 X144.894 Y49.923 E6.43952
G1 X145.224 Y50.213 E6.46726
G1 X145.714 Y50.693 E6.51057
G1 X146.164 Y51.223 E6.55447
G1 X158.764 Y67.793 E7.86894
G1 X159.144 Y68.353 E7.91167
G1 X159.474 Y68.943 E7.95436
G1 X159.664 Y69.333 E7.98175
G1 X160.084 Y70.413 E8.05493
G1 X160.204 Y70.823 E8.08190
G1 X160.384 Y71.653 E8.13553
G1 X160.534 Y72.713 E8.20313
G1 X160.534 Y73.793 E8.27133
G1 X160.444 Y74.763 E8.33284
G1 X160.374 Y75.183 E8.35973
G1 X160.114 Y76.233 E8.42804
G1 X159.974 Y76.653 E8.45599
G1 X159.604 Y77.553 E8.51744
G1 X159.414 Y77.933 E8.54427
G1 X159.114 Y78.463 E8.58272
G1 X158.514 Y79.313 E8.64842
G1 X158.024 Y79.903 E8.69685
G1 X113.944 Y127.183 E12.77863
G1 X106.804 Y134.483 E13.42343
G1 X105.844 Y135.403 E13.50739
G1 X105.304 Y135.803 E13.54983
G1 X90.944 Y145.423 E14.64127
G1 X87.554 Y147.383 E14.88853
G1 X86.904 Y147.713 E14.93456
G1 X83.214 Y149.343 E15.18929
G1 X82.604 Y149.583 E15.23068
G1 X78.734 Y150.873 E15.48828
G1 X78.104 Y151.053 E15.52965
G1 X74.284 Y151.933 E15.77718
G1 X73.154 Y152.093 E15.84925
G1 X69.244 Y152.333 E16.09661
G1 X68.124 Y152.313 E16.16735
G1 X64.194 Y151.913 E16.41679
G1 X63.384 Y151.783 E16.46859
G1 X59.734 Y150.963 E16.70482
G1 X58.874 Y150.703 E16.76155
G1 X55.624 Y149.513 E16.98010
G1 X54.974 Y149.243 E17.02455
G1 X54.354 Y148.903 E17.06920
G1 X51.424 Y147.083 E17.28700
G1 X50.854 Y146.683 E17.33097
G1 X50.334 Y146.233 E17.37440
G1 X47.444 Y143.503 E17.62543
G1 X46.734 Y142.723 E17.69204
G1 X44.224 Y139.493 E17.95034
G1 X43.574 Y138.493 E18.02565
G1 X41.664 Y134.893 E18.28299
G1 X41.364 Y134.253 E18.32762
G1 X41.134 Y133.583 E18.37235
G1 X40.074 Y129.923 E18.61296
G1 X39.914 Y129.253 E18.65646
G1 X39.824 Y128.583 E18.69915
G1 X39.474 Y124.403 E18.96402
G1 X39.454 Y123.643 E19.01203
G1 X39.464 Y123.263 E19.03603
G1 X39.534 Y122.413 E19.08989
G1 X40.744 Y114.383 E19.60267
G1 X40.844 Y113.853 E19.63673
G1 X41.124 Y112.833 E19.70352
G1 X41.554 Y111.873 E19.76994
G1 X44.354 Y106.703 E20.14121
G1 X44.714 Y106.113 E20.18485
G1 X47.164 Y102.503 E20.46035
G1 X47.524 Y102.013 E20.49874
G1 X50.084 Y98.883 E20.75408
G1 X50.634 Y98.283 E20.80547
G1 X52.924 Y96.073 E21.00643
G1 X66.344 Y84.543 E22.12366
G1 X66.864 Y84.133 E22.16547
G1 X67.896 Y83.515 E22.24139
G1 F2160.000 E21.24139
G92 E0
G1 X68.978 Y120.614 F7800.000
G1 F2160.000 E1.00000
G1 X71.684 Y120.627 F720.000 E1.17084
G1 X74.294 Y121.339 E1.34167
G1 X76.631 Y122.702 E1.51251
G1 X78.535 Y124.623 E1.68334
G1 X78.648 Y124.822 E1.69777
G1 X79.877 Y126.972 E1.85418
G1 X80.566 Y129.589 E2.02501
G1 X80.553 Y132.294 E2.19585
G1 X79.842 Y134.904 E2.36668
G1 X78.478 Y137.241 E2.53752
G1 X76.557 Y139.146 E2.70835
G1 X74.406 Y140.374 E2.86476
G1 X74.208 Y140.488 E2.87919
G1 X71.591 Y141.176 E3.05003
G1 X68.886 Y141.164 E3.22086
G1 X66.276 Y140.452 E3.39170
G1 X63.939 Y139.089 E3.56254
G1 X62.035 Y137.167 E3.73337
G1 X60.692 Y134.818 E3.90421
G1 X60.004 Y132.202 E4.07504
G1 X60.016 Y129.496 E4.24588
G1 X60.728 Y126.886 E4.41672
G1 X62.091 Y124.549 E4.58755
G1 X64.013 Y122.645 E4.75838
G1 X66.362 Y121.303 E4.92922
G1 X68.849 Y120.649 E5.09160
G1 X69.092 Y121.508 F7800.000
G1 X71.562 Y121.519 F360.000 E5.24760
G1 X73.945 Y122.169 E5.40359
G1 X76.079 Y123.414 E5.55958
G1 X77.818 Y125.168 E5.71557
G1 X77.873 Y125.265 E5.72259
G1 X79.044 Y127.313 E5.87157
G1 X79.672 Y129.702 E6.02756
G1 X79.661 Y132.173 E6.18355
G1 X79.011 Y134.556 E6.33955
G1 X77.766 Y136.690 E6.49554
G1 X76.012 Y138.429 E6.65153
G1 X73.867 Y139.654 E6.80753
G1 X71.478 Y140.283 E6.96352
G1 X69.007 Y140.272 E7.11951
G1 X66.624 Y139.622 E7.27551
G1 X64.490 Y138.377 E7.43150
G1 X62.751 Y136.622 E7.58749
G1 X61.526 Y134.477 E7.74349
G1 X60.897 Y132.088 E7.89948
G1 X60.908 Y129.618 E8.05547
G1 X61.558 Y127.235 E8.21147
G1 X62.803 Y125.101 E8.36746
G1 X64.558 Y123.362 E8.52345
G1 X66.703 Y122.136 E8.67945
G1 X68.962 Y121.542 E8.82698
G1 X77.612 Y115.275 F7800.000
G1 X84.844 Y109.776 F720.000 E9.40071
G1 X71.535 Y92.137 E10.79604
G1 X71.378 Y91.863 E10.81599
G1 X71.321 Y91.645 E10.83020
G1 X71.322 Y91.420 E10.84441
G1 X71.381 Y91.203 E10.85862
G1 X71.494 Y91.009 E10.87282
G1 X71.654 Y90.851 E10.88703
G1 X71.850 Y90.739 E10.90124
G1 X72.067 Y90.682 E10.91545
G1 X72.292 Y90.683 E10.92966
G1 X72.509 Y90.742 E10.94387
G1 X72.704 Y90.855 E10.95808
G1 X72.924 Y91.078 E10.97788
G1 X86.298 Y108.671 E12.37334
G1 X92.908 Y103.645 E12.89764
G1 X80.456 Y87.266 E14.19687
G1 X80.296 Y86.985 E14.21729
G1 X80.236 Y86.758 E14.23211
G1 X80.237 Y86.523 E14.24694
G1 X80.299 Y86.297 E14.26176
G1 X80.417 Y86.094 E14.27659
G1 X80.584 Y85.929 E14.29141
G1 X80.788 Y85.812 E14.30624
G1 X81.015 Y85.752 E14.32107
G1 X81.250 Y85.754 E14.33589
G1 X81.476 Y85.815 E14.35072
G1 X81.679 Y85.934 E14.36554
G1 X81.907 Y86.163 E14.38596
G1 X94.358 Y102.543 E15.68518
G1 X100.968 Y97.517 E16.20949
G1 X89.822 Y82.856 E17.37244
G1 X89.662 Y82.575 E17.39285
G1 X89.602 Y82.348 E17.40768
G1 X89.603 Y82.113 E17.42250
G1 X89.665 Y81.887 E17.43733
G1 X89.783 Y81.684 E17.45216
G1 X89.950 Y81.519 E17.46698
G1 X90.154 Y81.402 E17.48181
G1 X90.381 Y81.343 E17.49663
G1 X90.616 Y81.344 E17.51146
G1 X90.842 Y81.405 E17.52629
G1 X91.045 Y81.524 E17.54111
G1 X91.273 Y81.753 E17.56153
G1 X102.418 Y96.415 E18.72447
G1 X109.028 Y91.389 E19.24877
G1 X99.606 Y78.995 E20.23193
G1 X99.445 Y78.714 E20.25234
G1 X99.385 Y78.487 E20.26717
G1 X99.386 Y78.252 E20.28200
G1 X99.448 Y78.025 E20.29682
G1 X99.567 Y77.823 E20.31165
G1 X99.733 Y77.657 E20.32648
G1 X99.937 Y77.541 E20.34130
G1 X100.164 Y77.481 E20.35613
G1 X100.399 Y77.482 E20.37095
G1 X100.626 Y77.544 E20.38578
G1 X100.828 Y77.662 E20.40060
G1 X101.056 Y77.892 E20.42102
G1 X110.478 Y90.287 E21.40417
G1 X117.088 Y85.261 E21.92848
G1 X109.791 Y75.663 E22.68983
G1 X109.631 Y75.382 E22.71025
G1 X109.571 Y75.155 E22.72507
G1 X109.572 Y74.920 E22.73990
G1 X109.634 Y74.694 E22.75472
G1 X109.752 Y74.491 E22.76955
G1 X109.919 Y74.326 E22.78438
G1 X110.123 Y74.209 E22.79920
G1 X110.350 Y74.150 E22.81403
G1 X110.585 Y74.151 E22.82885
G1 X110.811 Y74.212 E22.84368
G1 X111.014 Y74.331 E22.85851
G1 X111.242 Y74.560 E22.87892
G1 X118.538 Y84.159 E23.64027
G1 X125.148 Y79.133 E24.16457
G1 X120.447 Y72.950 E24.65507
G1 X120.287 Y72.669 E24.67549
G1 X120.227 Y72.442 E24.69031
G1 X120.228 Y72.207 E24.70514
G1 X120.290 Y71.981 E24.71997
G1 X120.408 Y71.778 E24.73479
G1 X120.575 Y71.612 E24.74962
G1 X120.779 Y71.496 E24.76444
G1 X121.006 Y71.436 E24.77927
G1 X121.241 Y71.437 E24.79410
G1 X121.467 Y71.499 E24.80892
G1 X121.670 Y71.617 E24.82375
G1 X121.897 Y71.847 E24.84416
G1 X126.598 Y78.031 E25.33466
G1 X129.261 Y76.006 E25.54588
G1 X137.399 Y56.605 E26.87441
G1 X137.510 Y56.440 E26.88692
G1 X137.664 Y56.274 E26.90125
G1 X137.842 Y56.134 E26.91557
G1 X138.040 Y56.022 E26.92990
G1 X138.253 Y55.943 E26.94422
G1 X138.475 Y55.897 E26.95855
G1 X138.701 Y55.886 E26.97288
G1 X138.927 Y55.910 E26.98720
G1 X139.146 Y55.968 E27.00153
G1 X139.354 Y56.059 E27.01586
G1 X139.548 Y56.183 E27.03040
G1 X143.480 Y66.340 E27.71812
G1 X152.215 Y72.845 E28.40587
G1 X152.283 Y73.065 E28.42041
G1 X152.316 Y73.290 E28.43474
G1 X152.313 Y73.516 E28.44906
G1 X152.276 Y73.740 E28.46338
G1 X152.204 Y73.956 E28.47771
G1 X152.101 Y74.157 E28.49204
G1 X151.967 Y74.341 E28.50637
G1 X151.807 Y74.502 E28.52069
G1 X151.624 Y74.636 E28.53502
G1 X151.423 Y74.740 E28.54935
G1 X151.235 Y74.803 E28.56186
G1 X130.364 Y77.457 E29.89039
G1 X127.701 Y79.481 E30.10161
G1 X132.402 Y85.665 E30.59211
G1 X132.562 Y85.946 E30.61252
G1 X132.622 Y86.173 E30.62735
G1 X132.621 Y86.407 E30.64217
G1 X132.559 Y86.634 E30.65700
G1 X132.441 Y86.837 E30.67183
G1 X132.274 Y87.002 E30.68665
G1 X132.070 Y87.118 E30.70148
G1 X131.843 Y87.178 E30.71630
G1 X131.608 Y87.177 E30.73113
G1 X131.382 Y87.115 E30.74596
G1 X131.179 Y86.997 E30.76078
G1 X130.951 Y86.767 E30.78120
G1 X126.251 Y80.584 E31.27168
G1 X119.641 Y85.609 E31.79599
G1 X126.938 Y95.208 E32.55733
G1 X127.098 Y95.488 E32.57775
G1 X127.158 Y95.715 E32.59258
G1 X127.157 Y95.950 E32.60740
G1 X127.095 Y96.177 E32.62223
G1 X126.977 Y96.379 E32.63705
G1 X126.810 Y96.545 E32.65188
G1 X126.606 Y96.661 E32.66671
G1 X126.379 Y96.721 E32.68153
G1 X126.144 Y96.720 E32.69636
G1 X125.918 Y96.658 E32.71118
G1 X125.715 Y96.540 E32.72601
G1 X125.487 Y96.310 E32.74642
G1 X118.191 Y86.712 E33.50777
G1 X111.581 Y91.737 E34.03207
G1 X121.004 Y104.132 E35.01522
G1 X121.164 Y104.413 E35.03564
G1 X121.224 Y104.640 E35.05046
G1 X121.223 Y104.874 E35.06529
G1 X121.161 Y105.101 E35.08012
G1 X121.043 Y105.304 E35.09494
G1 X120.876 Y105.469 E35.10977
G1 X120.672 Y105.585 E35.12459
G1 X120.445 Y105.645 E35.13942
G1 X120.210 Y105.644 E35.15425
G1 X119.984 Y105.582 E35.16907
G1 X119.781 Y105.464 E35.18390
G1 X119.553 Y105.234 E35.20431
G1 X110.131 Y92.840 E36.18746
G1 X103.521 Y97.865 E36.71176
G1 X114.667 Y112.526 E37.87470
G1 X114.827 Y112.807 E37.89511
G1 X114.887 Y113.034 E37.90994
G1 X114.886 Y113.269 E37.92477
G1 X114.824 Y113.496 E37.93959
G1 X114.706 Y113.698 E37.95442
G1 X114.539 Y113.864 E37.96924
G1 X114.335 Y113.980 E37.98407
G1 X114.108 Y114.040 E37.99890
G1 X113.873 Y114.039 E38.01372
G1 X113.647 Y113.977 E38.02855
G1 X113.444 Y113.859 E38.04337
G1 X113.216 Y113.629 E38.06379
G1 X102.071 Y98.968 E39.22672
G1 X95.461 Y103.993 E39.75103
G1 X107.913 Y120.373 E41.05024
G1 X108.073 Y120.653 E41.07066
G1 X108.133 Y120.880 E41.08548
G1 X108.132 Y121.115 E41.10031
G1 X108.070 Y121.342 E41.11514
G1 X107.952 Y121.544 E41.12996
G1 X107.785 Y121.710 E41.14479
G1 X107.581 Y121.826 E41.15961
G1 X107.354 Y121.886 E41.17444
G1 X107.119 Y121.885 E41.18927
G1 X106.893 Y121.823 E41.20409
G1 X106.690 Y121.705 E41.21892
G1 X106.462 Y121.475 E41.23933
G1 X94.011 Y105.096 E42.53854
G1 X87.400 Y110.122 E43.06293
G1 X100.775 Y127.714 E44.45839
G1 X100.931 Y127.986 E44.47818
G1 X100.988 Y128.204 E44.49239
G1 X100.987 Y128.429 E44.50660
G1 X100.928 Y128.646 E44.52081
G1 X100.814 Y128.840 E44.53501
G1 X100.654 Y128.998 E44.54922
G1 X100.459 Y129.110 E44.56343
G1 X100.242 Y129.167 E44.57764
G1 X100.017 Y129.166 E44.59185
G1 X99.799 Y129.107 E44.60605
G1 X99.605 Y128.994 E44.62026
G1 X99.383 Y128.769 E44.64021
G1 X85.947 Y111.227 E46.03551
G1 X78.714 Y116.726 E46.60924
G1 X89.657 Y131.120 E47.75103
G1 X90.205 Y132.074 E47.82046
G1 X90.347 Y132.493 E47.84844
G1 X90.443 Y132.970 E47.87916
G1 X90.478 Y133.456 E47.90988
G1 X90.449 Y133.941 E47.94059
G1 X90.358 Y134.419 E47.97131
G1 X90.207 Y134.882 E48.00203
G1 X89.997 Y135.321 E48.03275
G1 X89.733 Y135.729 E48.06347
G1 X89.419 Y136.100 E48.09419
G1 X89.027 Y136.457 E48.12764
G1 X86.357 Y138.592 E48.34355
G1 X83.516 Y140.225 E48.55043
G1 X79.943 Y141.801 E48.79705
G1 X76.194 Y143.046 E49.04646
G1 X72.542 Y143.885 E49.28311
G1 X68.860 Y144.113 E49.51604
G1 X65.114 Y143.731 E49.75380
G1 X61.626 Y142.955 E49.97943
G1 X58.587 Y141.834 E50.18400
G1 X55.893 Y140.164 E50.38416
G1 X53.177 Y137.598 E50.62010
G1 X50.795 Y134.537 E50.86496
G1 X49.011 Y131.162 E51.10603
G1 X48.018 Y127.765 E51.32953
G1 X47.687 Y123.753 E51.58375
G1 X47.689 Y123.597 E51.59356
G1 X47.718 Y123.413 E51.60533
G1 X48.207 Y122.930 E51.64874
G1 X61.240 Y113.022 E52.68253
G1 X61.845 Y112.423 E52.73630
G1 X62.318 Y111.611 E52.79564
G1 X62.566 Y110.704 E52.85500
G1 X62.570 Y109.764 E52.91435
G1 X62.331 Y108.855 E52.97371
G1 X61.864 Y108.039 E53.03306
G1 X61.203 Y107.372 E53.09241
G1 X60.391 Y106.898 E53.15176
G1 X59.484 Y106.651 E53.21112
G1 X58.544 Y106.646 E53.27047
G1 X57.635 Y106.885 E53.32983
G1 X56.896 Y107.308 E53.38359
G1 X51.882 Y111.119 E53.78130
G1 X51.509 Y110.766 E53.81374
G1 X53.944 Y107.181 E54.08738
G1 X56.417 Y104.161 E54.33388
G1 X58.581 Y102.066 E54.52410
G1 X61.358 Y100.060 E54.74039
G1 X61.807 Y99.778 E54.77384
G1 X62.248 Y99.574 E54.80456
G1 X62.713 Y99.429 E54.83528
G1 X63.192 Y99.345 E54.86599
G1 X63.678 Y99.323 E54.89671
G1 X64.162 Y99.363 E54.92743
G1 X64.638 Y99.465 E54.95815
G1 X65.096 Y99.628 E54.98887
G1 X65.530 Y99.848 E55.01959
G1 X65.896 Y100.098 E55.04756
G1 X66.669 Y100.881 E55.11699
G1 X77.531 Y115.169 E56.25034
G1 X77.782 Y114.024 F7800.000
G1 X83.596 Y109.604 F360.000 E56.71153
G1 X70.788 Y92.630 E58.05428
G1 X70.545 Y92.204 E58.08525
G1 X70.428 Y91.759 E58.11430
G1 X70.430 Y91.299 E58.14335
G1 X70.551 Y90.855 E58.17240
G1 X70.783 Y90.458 E58.20145
G1 X71.109 Y90.134 E58.23050
G1 X71.509 Y89.906 E58.25956
G1 X71.954 Y89.788 E58.28861
G1 X72.414 Y89.791 E58.31766
G1 X72.858 Y89.912 E58.34671
G1 X73.255 Y90.143 E58.37576
G1 X73.600 Y90.491 E58.40668
G1 X86.469 Y107.420 E59.74946
G1 X91.657 Y103.475 E60.16102
G1 X79.710 Y87.760 E61.40758
G1 X79.463 Y87.326 E61.43911
G1 X79.343 Y86.872 E61.46878
G1 X79.345 Y86.402 E61.49845
G1 X79.469 Y85.948 E61.52812
G1 X79.705 Y85.543 E61.55778
G1 X80.039 Y85.212 E61.58745
G1 X80.447 Y84.979 E61.61712
G1 X80.902 Y84.859 E61.64679
G1 X81.371 Y84.861 E61.67646
G1 X81.825 Y84.985 E61.70613
G1 X82.230 Y85.222 E61.73579
G1 X82.582 Y85.576 E61.76733
G1 X94.529 Y101.292 E63.01387
G1 X99.717 Y97.347 E63.42543
G1 X89.076 Y83.350 E64.53571
G1 X88.829 Y82.916 E64.56724
G1 X88.709 Y82.462 E64.59691
G1 X88.711 Y81.992 E64.62658
G1 X88.835 Y81.539 E64.65625
G1 X89.072 Y81.133 E64.68592
G1 X89.405 Y80.802 E64.71558
G1 X89.813 Y80.569 E64.74525
G1 X90.268 Y80.449 E64.77492
G1 X90.737 Y80.451 E64.80459
G1 X91.191 Y80.575 E64.83426
G1 X91.597 Y80.812 E64.86393
G1 X91.948 Y81.167 E64.89546
G1 X102.589 Y95.164 E66.00572
G1 X107.777 Y91.219 E66.41728
G1 X98.859 Y79.488 E67.34777
G1 X98.612 Y79.055 E67.37930
G1 X98.492 Y78.600 E67.40897
G1 X98.494 Y78.130 E67.43864
G1 X98.618 Y77.677 E67.46831
G1 X98.855 Y77.271 E67.49798
G1 X99.188 Y76.941 E67.52765
G1 X99.596 Y76.708 E67.55731
G1 X100.051 Y76.588 E67.58698
G1 X100.521 Y76.590 E67.61665
G1 X100.974 Y76.714 E67.64632
G1 X101.380 Y76.950 E67.67599
G1 X101.731 Y77.305 E67.70752
G1 X110.649 Y89.036 E68.63799
G1 X115.837 Y85.091 E69.04956
G1 X109.045 Y76.157 E69.75824
G1 X108.797 Y75.723 E69.78977
G1 X108.678 Y75.269 E69.81944
G1 X108.680 Y74.799 E69.84911
G1 X108.804 Y74.346 E69.87877
G1 X109.040 Y73.940 E69.90844
G1 X109.374 Y73.609 E69.93811
G1 X109.782 Y73.376 E69.96778
G1 X110.236 Y73.256 E69.99745
G1 X110.706 Y73.258 E70.02712
G1 X111.160 Y73.382 E70.05679
G1 X111.565 Y73.619 E70.08645
G1 X111.917 Y73.973 E70.11799
G1 X118.709 Y82.908 E70.82665
G1 X123.897 Y78.963 E71.23822
G1 X119.701 Y73.443 E71.67605
G1 X119.453 Y73.010 E71.70758
G1 X119.334 Y72.555 E71.73725
G1 X119.336 Y72.085 E71.76691
G1 X119.460 Y71.632 E71.79658
G1 X119.696 Y71.226 E71.82625
G1 X120.030 Y70.896 E71.85592
G1 X120.438 Y70.663 E71.88559
G1 X120.892 Y70.543 E71.91526
G1 X121.362 Y70.545 E71.94493
G1 X121.815 Y70.669 E71.97459
G1 X122.221 Y70.905 E72.00426
G1 X122.573 Y71.260 E72.03579
G1 X126.769 Y76.780 E72.47361
G1 X128.530 Y75.440 E72.61335
G1 X136.610 Y56.178 E73.93235
