; generated by Slic3r 0.9.11-dev on 2013-08-06 at 21:56:24

; layer_height = 0.2
; perimeters = 2
; top_solid_layers = 3
; bottom_solid_layers = 3
; fill_density = .5
; perimeter_speed = 40
; infill_speed = 60
; travel_speed = 130
; nozzle_diameter = 0.5
; filament_diameter = 3
; extrusion_multiplier = 1
; perimeters extrusion width = 0.50mm
; infill extrusion width = 1.02mm
; solid infill extrusion width = 0.85mm
; top infill extrusion width = 0.85mm
; support material extrusion width = 0.85mm
; first layer extrusion width = 0.60mm

G21 ; set units to millimeters
M107
M190 S60 ; wait for bed temperature to be reached
M104 S180 ; set temperature
G28 ; home all axes
M109 S180 ; wait for temperature to be reached
G90 ; use absolute coordinates
G92 E0
M82 ; use absolute distances for extrusion
G1 F2160.000 E-1.00000
G92 E0
G1 Z0.300 F7800.000
G1 X84.849 Y84.100
G1 F2160.000 E1.00000
G1 X85.849 Y83.280 F720.000 E1.03175
G1 X86.979 Y82.670 E1.06328
G1 X88.219 Y82.300 E1.09506
G1 X89.499 Y82.170 E1.12665
G1 X110.499 Y82.170 E1.64228
G1 X111.779 Y82.300 E1.67387
G1 X113.019 Y82.670 E1.70565
G1 X114.149 Y83.280 E1.73718
G1 X115.149 Y84.100 E1.76893
G1 X115.969 Y85.100 E1.80068
G1 X116.579 Y86.230 E1.83221
G1 X116.949 Y87.470 E1.86399
G1 X117.079 Y88.750 E1.89558
G1 X117.079 Y111.250 E2.44804
G1 X116.949 Y112.530 E2.47963
G1 X116.579 Y113.770 E2.51141
G1 X115.969 Y114.900 E2.54294
G1 X115.149 Y115.900 E2.57469
G1 X114.149 Y116.720 E2.60645
G1 X113.019 Y117.330 E2.63798
G1 X111.779 Y117.700 E2.66975
G1 X110.499 Y117.830 E2.70134
G1 X89.499 Y117.830 E3.21697
G1 X88.219 Y117.700 E3.24857
G1 X86.979 Y117.330 E3.28034
G1 X85.849 Y116.720 E3.31187
G1 X84.849 Y115.900 E3.34362
G1 X84.029 Y114.900 E3.37538
G1 X83.419 Y113.770 E3.40691
G1 X83.049 Y112.530 E3.43868
G1 X82.919 Y111.250 E3.47027
G1 X82.919 Y88.750 E4.02274
G1 X83.049 Y87.470 E4.05433
G1 X83.419 Y86.230 E4.08610
G1 X84.029 Y85.100 E4.11763
G1 X84.794 Y84.167 E4.14725
G1 F2160.000 E3.14725
G92 E0
G1 X92.521 Y89.329 F7800.000
G1 F2160.000 E1.00000
G1 X107.478 Y89.329 F1080.000 E1.36723
G1 F2160.000 E0.36723
G92 E0
G1 X95.126 Y90.486 F7800.000
G1 F2160.000 E1.00000
G1 X104.874 Y90.486 F1080.000 E1.23933
G1 X104.874 Y91.643 E1.26774
G1 X95.126 Y91.643 E1.50708
G1 X95.126 Y92.800 E1.53549
G1 X104.874 Y92.800 E1.77482
G1 X104.874 Y93.957 E1.80323
G1 X95.126 Y93.957 E2.04256
G1 X95.126 Y95.114 E2.07097
G1 X104.874 Y95.114 E2.31031
G1 X104.874 Y96.271 E2.33872
G1 X95.126 Y96.271 E2.57805
G1 X95.126 Y97.428 E2.60646
G1 X104.874 Y97.428 E2.84580
G1 X104.874 Y98.585 E2.87421
G1 X95.126 Y98.585 E3.11354
G1 X95.126 Y99.742 E3.14195
G1 X104.874 Y99.742 E3.38129
G1 X104.874 Y100.899 E3.40970
G1 X95.126 Y100.899 E3.64903
G1 X95.126 Y102.057 E3.67744
G1 X104.874 Y102.057 E3.91678
G1 X104.874 Y103.214 E3.94519
G1 X95.126 Y103.214 E4.18452
G1 X95.126 Y104.371 E4.21293
G1 X104.874 Y104.371 E4.45227
G1 X104.874 Y105.528 E4.48068
G1 X95.126 Y105.528 E4.72001
G1 X95.126 Y106.685 E4.74842
G1 X104.874 Y106.685 E4.98776
G1 F2160.000 E3.98776
G92 E0
G1 X107.016 Y109.371 F7800.000
G1 F2160.000 E1.00000
G1 X107.016 Y92.618 F720.000 E1.41135
G1 X109.633 Y92.618 E1.47560
G1 X109.633 Y110.382 E1.91178
G1 X90.367 Y110.382 E2.38482
G1 X90.367 Y92.618 E2.82101
G1 X92.984 Y92.618 E2.88525
G1 X92.984 Y109.371 E3.29660
G1 X106.930 Y109.371 E3.63903
G1 X106.438 Y108.792 F7800.000
G1 X106.438 Y92.039 F288.000 E4.05039
G1 X109.042 Y92.039 E4.11432
G1 X109.042 Y89.039 E4.18799
G1 X110.211 Y89.039 E4.21670
G1 X110.211 Y110.961 E4.75496
G1 X89.789 Y110.961 E5.25641
G1 X89.789 Y89.039 E5.79467
G1 X90.957 Y89.039 E5.82336
G1 X90.957 Y92.039 E5.89702
G1 X93.562 Y92.039 E5.96099
G1 X93.562 Y108.792 E6.37234
G1 X106.351 Y108.792 E6.68636
G1 X107.016 Y108.792 F7800.000
G1 X107.602 Y109.963
G1 X107.436 Y109.797 F1080.000 E6.69214
G1 X107.436 Y108.976 E6.71233
G1 X108.422 Y109.963 E6.74668
G1 X109.213 Y109.934 E6.76617
G1 X107.436 Y108.156 E6.82806
G1 X107.436 Y107.336 E6.84825
G1 X109.213 Y109.114 E6.91014
G1 X109.213 Y108.293 E6.93033
G1 X107.436 Y106.516 E6.99222
G1 X107.436 Y105.695 E7.01241
G1 X109.213 Y107.473 E7.07430
G1 X109.213 Y106.653 E7.09449
G1 X107.436 Y104.875 E7.15638
G1 X107.436 Y104.055 E7.17657
G1 X109.213 Y105.833 E7.23846
G1 X109.213 Y105.012 E7.25865
G1 X107.436 Y103.235 E7.32054
G1 X107.436 Y102.414 E7.34073
G1 X109.213 Y104.192 E7.40262
G1 X109.213 Y103.372 E7.42281
G1 X107.436 Y101.594 E7.48470
G1 X107.436 Y100.774 E7.50489
G1 X109.213 Y102.552 E7.56678
G1 X109.213 Y101.731 E7.58697
G1 X107.436 Y99.954 E7.64886
G1 X107.436 Y99.133 E7.66905
G1 X109.213 Y100.911 E7.73094
G1 X109.213 Y100.091 E7.75114
G1 X107.436 Y98.313 E7.81302
G1 X107.436 Y97.493 E7.83322
G1 X109.213 Y99.270 E7.89510
G1 X109.213 Y98.450 E7.91530
G1 X107.436 Y96.672 E7.97719
G1 X107.436 Y95.852 E7.99738
G1 X109.213 Y97.630 E8.05927
G1 X109.213 Y96.810 E8.07946
G1 X107.436 Y95.032 E8.14135
G1 X107.436 Y94.212 E8.16154
G1 X109.213 Y95.989 E8.22343
G1 X109.213 Y95.169 E8.24362
G1 X107.436 Y93.391 E8.30551
G1 X107.902 Y93.037 E8.31992
G1 X109.213 Y94.349 E8.36558
G1 X109.213 Y93.529 E8.38578
G1 X108.722 Y93.037 E8.40289
G1 F2160.000 E7.40289
G92 E0
G1 X93.132 Y109.973 F7800.000
G1 F2160.000 E1.00000
G1 X92.939 Y109.780 F360.000 E1.00343
G1 X93.357 Y109.780 E1.00868
G1 X93.550 Y109.973 E1.01211
G1 X93.776 Y109.780 E1.01584
G1 X93.969 Y109.973 E1.01927
G1 X94.194 Y109.780 E1.02300
G1 X94.387 Y109.973 E1.02643
G1 X94.613 Y109.780 E1.03015
G1 X94.806 Y109.973 E1.03358
G1 X95.031 Y109.780 E1.03731
G1 X95.224 Y109.973 E1.04074
G1 X95.450 Y109.780 E1.04447
G1 X95.643 Y109.973 E1.04790
G1 X95.868 Y109.780 E1.05162
G1 X96.061 Y109.973 E1.05505
G1 X96.287 Y109.780 E1.05878
G1 X96.480 Y109.973 E1.06221
G1 X96.705 Y109.780 E1.06594
G1 X96.898 Y109.973 E1.06937
G1 X97.124 Y109.780 E1.07309
G1 X97.317 Y109.973 E1.07652
G1 X97.542 Y109.780 E1.08025
G1 X97.735 Y109.973 E1.08368
G1 X97.961 Y109.780 E1.08741
G1 X98.154 Y109.973 E1.09084
G1 X98.379 Y109.780 E1.09456
G1 X98.572 Y109.973 E1.09799
G1 X98.798 Y109.780 E1.10172
G1 X98.991 Y109.973 E1.10515
G1 X99.216 Y109.780 E1.10888
G1 X99.409 Y109.973 E1.11231
G1 X99.635 Y109.780 E1.11603
G1 X99.828 Y109.973 E1.11946
G1 X100.053 Y109.780 E1.12319
G1 X100.246 Y109.973 E1.12662
G1 X100.472 Y109.780 E1.13035
G1 X100.665 Y109.973 E1.13378
G1 X100.890 Y109.780 E1.13750
G1 X101.083 Y109.973 E1.14093
G1 X101.309 Y109.780 E1.14466
G1 X101.502 Y109.973 E1.14809
G1 X101.727 Y109.780 E1.15182
G1 X101.920 Y109.973 E1.15525
G1 X102.146 Y109.780 E1.15897
G1 X102.339 Y109.973 E1.16240
G1 X102.564 Y109.780 E1.16613
G1 X102.757 Y109.973 E1.16956
G1 X102.983 Y109.780 E1.17329
G1 X103.176 Y109.973 E1.17672
G1 X103.401 Y109.780 E1.18044
G1 X103.594 Y109.973 E1.18387
G1 X103.820 Y109.780 E1.18760
G1 X104.013 Y109.973 E1.19103
G1 X104.238 Y109.780 E1.19476
G1 X104.431 Y109.973 E1.19819
G1 X104.657 Y109.780 E1.20191
G1 X104.850 Y109.973 E1.20534
G1 X105.075 Y109.780 E1.20907
G1 X105.268 Y109.973 E1.21250
G1 X105.494 Y109.780 E1.21623
G1 X105.687 Y109.973 E1.21966
G1 X105.912 Y109.780 E1.22338
G1 X106.105 Y109.973 E1.22681
G1 X106.331 Y109.780 E1.23054
G1 X106.524 Y109.973 E1.23397
G1 X106.749 Y109.780 E1.23770
G1 X106.942 Y109.973 E1.24113
G1 X107.186 Y109.798 E1.24489
G1 X91.197 Y109.963 F7800.000
G1 X90.787 Y109.553 F1080.000 E1.25912
G1 X90.787 Y108.733 E1.27927
G1 X92.017 Y109.963 E1.32198
G1 X92.564 Y109.690 E1.33700
G1 X90.787 Y107.912 E1.39873
G1 X90.787 Y107.092 E1.41887
G1 X92.564 Y108.870 E1.48060
G1 X92.564 Y108.050 E1.50074
G1 X90.787 Y106.272 E1.56247
G1 X90.787 Y105.452 E1.58261
G1 X92.564 Y107.229 E1.64433
G1 X92.564 Y106.409 E1.66448
G1 X90.787 Y104.631 E1.72620
G1 X90.787 Y103.811 E1.74634
G1 X92.564 Y105.589 E1.80807
G1 X92.564 Y104.769 E1.82821
G1 X90.787 Y102.991 E1.88994
G1 X90.787 Y102.171 E1.91008
G1 X92.564 Y103.948 E1.97181
G1 X92.564 Y103.128 E1.99195
G1 X90.787 Y101.350 E2.05368
G1 X90.787 Y100.530 E2.07382
G1 X92.564 Y102.308 E2.13555
G1 X92.564 Y101.487 E2.15569
G1 X90.787 Y99.710 E2.21741
G1 X90.787 Y98.890 E2.23756
G1 X92.564 Y100.667 E2.29928
G1 X92.564 Y99.847 E2.31942
G1 X90.787 Y98.069 E2.38115
G1 X90.787 Y97.249 E2.40129
G1 X92.564 Y99.027 E2.46302
G1 X92.564 Y98.206 E2.48316
G1 X90.787 Y96.429 E2.54489
G1 X90.787 Y95.608 E2.56503
G1 X92.564 Y97.386 E2.62676
G1 X92.564 Y96.566 E2.64690
G1 X90.787 Y94.788 E2.70863
G1 X90.787 Y93.968 E2.72877
G1 X92.564 Y95.746 E2.79049
G1 X92.564 Y94.925 E2.81064
G1 X90.787 Y93.148 E2.87236
G1 X91.496 Y93.037 E2.89000
G1 X92.564 Y94.105 E2.92708
G1 X92.564 Y93.285 E2.94722
G1 X92.317 Y93.037 E2.95582
G1 X90.433 Y92.209 F7800.000
G1 X90.198 Y91.973 F360.000 E2.96001
G1 X90.548 Y91.905 E2.96449
G1 X90.198 Y91.555 E2.97070
G1 X90.548 Y91.486 E2.97518
G1 X90.198 Y91.136 E2.98140
G1 X90.548 Y91.068 E2.98587
G1 X90.198 Y90.718 E2.99209
G1 X90.548 Y90.649 E2.99657
G1 X90.198 Y90.299 E3.00279
G1 X90.548 Y90.231 E3.00726
G1 X90.198 Y89.881 E3.01348
G1 X90.548 Y89.812 E3.01796
G1 X90.198 Y89.462 E3.02417
G1 F2160.000 E2.02417
G92 E0
G1 X109.685 Y92.209 F7800.000
G1 F2160.000 E1.00000
G1 X109.451 Y91.975 F360.000 E1.00415
G1 X109.802 Y91.908 E1.00864
G1 X109.451 Y91.556 E1.01487
G1 X109.802 Y91.489 E1.01936
G1 X109.451 Y91.138 E1.02559
G1 X109.802 Y91.071 E1.03008
G1 X109.451 Y90.719 E1.03631
G1 X109.802 Y90.652 E1.04080
G1 X109.451 Y90.301 E1.04704
G1 X109.802 Y90.234 E1.05153
G1 X109.451 Y89.882 E1.05776
G1 X109.802 Y89.815 E1.06225
G1 X109.451 Y89.464 E1.06848
M106 S255
G1 F2160.000 E0.06848
G92 E0
G1 Z0.500 F7800.000
G1 X104.499 Y106.803
G1 F2160.000 E1.00000
G1 X104.499 Y88.925 F1770.657 E1.40826
G1 X101.499 Y88.925 E1.47677
G1 X101.499 Y106.803 E1.88503
G1 X98.499 Y106.803 E1.95354
G1 X98.499 Y88.925 E2.36180
G1 X95.499 Y88.925 E2.43030
G1 X95.499 Y106.803 E2.83856
G1 F2160.000 E1.83856
G92 E0
G1 X92.851 Y109.253 F7800.000
G1 F2160.000 E1.00000
G1 X107.148 Y109.253 F1180.438 E1.20226
G1 X107.148 Y92.500 E1.43927
G1 X109.750 Y92.500 E1.47608
G1 X109.750 Y110.500 E1.73073
G1 X90.249 Y110.500 E2.00661
G1 X90.249 Y92.500 E2.26126
G1 X92.851 Y92.500 E2.29807
G1 X92.851 Y109.178 E2.53402
G1 X93.351 Y108.753 F7800.000
G1 X106.648 Y108.753 F600.000 E2.72213
G1 X106.648 Y92.000 E2.95914
G1 X109.002 Y92.000 E2.99244
G1 X109.002 Y89.000 E3.03488
G1 X110.250 Y89.000 E3.05254
G1 X110.250 Y111.000 E3.36377
G1 X89.749 Y111.000 E3.65380
G1 X89.749 Y89.000 E3.96504
G1 X90.996 Y89.000 E3.98268
G1 X90.996 Y92.000 E4.02512
G1 X93.351 Y92.000 E4.05844
G1 X93.351 Y108.678 E4.29439
G1 X93.351 Y109.253 F7800.000
G1 X92.420 Y109.045
G1 X91.396 Y110.069 F1770.657 E4.32801
G1 X90.681 Y109.623 E4.34758
G1 X92.420 Y107.884 E4.40469
G1 X92.420 Y106.723 E4.43165
G1 X90.681 Y108.462 E4.48876
G1 X90.681 Y107.301 E4.51571
G1 X92.420 Y105.562 E4.57282
G1 X92.420 Y104.402 E4.59978
G1 X90.681 Y106.140 E4.65689
G1 X90.681 Y104.980 E4.68385
G1 X92.420 Y103.241 E4.74096
G1 X92.420 Y102.080 E4.76791
G1 X90.681 Y103.819 E4.82502
G1 X90.681 Y102.658 E4.85198
G1 X92.420 Y100.919 E4.90909
G1 X92.420 Y99.759 E4.93605
G1 X90.681 Y101.497 E4.99316
G1 X90.681 Y100.337 E5.02011
G1 X92.420 Y98.598 E5.07722
G1 X92.420 Y97.437 E5.10418
G1 X90.681 Y99.176 E5.16129
G1 X90.681 Y98.015 E5.18825
G1 X92.420 Y96.276 E5.24536
G1 X92.420 Y95.116 E5.27232
G1 X90.681 Y96.854 E5.32943
G1 X90.681 Y95.694 E5.35638
G1 X92.420 Y93.955 E5.41349
G1 X92.282 Y92.931 E5.43747
G1 X90.681 Y94.533 E5.49007
G1 X90.681 Y93.372 E5.51703
G1 X91.122 Y92.931 E5.53150
G1 F2160.000 E4.53150
G92 E0
G1 X107.149 Y109.993 F7800.000
G1 F2160.000 E1.00000
G1 X105.974 Y109.753 F600.000 E1.01696
G1 X105.727 Y110.000 E1.02190
G1 X105.267 Y109.753 E1.02929
G1 X105.020 Y110.000 E1.03424
G1 X104.560 Y109.753 E1.04162
G1 X104.313 Y110.000 E1.04657
G1 X103.853 Y109.753 E1.05396
G1 X103.606 Y110.000 E1.05890
G1 X103.146 Y109.753 E1.06629
G1 X102.898 Y110.000 E1.07124
G1 X102.439 Y109.753 E1.07862
G1 X102.191 Y110.000 E1.08357
G1 X101.731 Y109.753 E1.09096
G1 X101.484 Y110.000 E1.09590
G1 X101.024 Y109.753 E1.10329
G1 X100.777 Y110.000 E1.10823
G1 X100.317 Y109.753 E1.11562
G1 X100.070 Y110.000 E1.12057
G1 X99.610 Y109.753 E1.12795
G1 X99.363 Y110.000 E1.13290
G1 X98.903 Y109.753 E1.14029
G1 X98.656 Y110.000 E1.14523
G1 X98.196 Y109.753 E1.15262
G1 X97.949 Y110.000 E1.15757
G1 X97.489 Y109.753 E1.16495
G1 X97.241 Y110.000 E1.16990
G1 X96.782 Y109.753 E1.17729
G1 X96.534 Y110.000 E1.18223
G1 X96.074 Y109.753 E1.18962
G1 X95.827 Y110.000 E1.19457
G1 X95.367 Y109.753 E1.20195
G1 X95.120 Y110.000 E1.20690
G1 X94.660 Y109.753 E1.21429
G1 X94.413 Y110.000 E1.21923
G1 X93.953 Y109.753 E1.22662
G1 X93.706 Y110.000 E1.23156
G1 X93.246 Y109.753 E1.23895
G1 X92.999 Y110.000 E1.24390
G1 X109.319 Y109.557 F7800.000
G1 X108.807 Y110.069 F1770.657 E1.26043
G1 X107.646 Y110.069 E1.28693
G1 X109.319 Y108.396 E1.34095
G1 X109.319 Y107.235 E1.36746
G1 X107.580 Y108.974 E1.42362
G1 X107.580 Y107.813 E1.45012
G1 X109.319 Y106.074 E1.50629
G1 X109.319 Y104.914 E1.53279
G1 X107.580 Y106.653 E1.58895
G1 X107.580 Y105.492 E1.61546
G1 X109.319 Y103.753 E1.67162
G1 X109.319 Y102.592 E1.69813
G1 X107.580 Y104.331 E1.75429
G1 X107.580 Y103.170 E1.78080
G1 X109.319 Y101.431 E1.83696
G1 X109.319 Y100.271 E1.86347
G1 X107.580 Y102.010 E1.91963
G1 X107.580 Y100.849 E1.94614
G1 X109.319 Y99.110 E2.00230
G1 X109.319 Y97.949 E2.02880
G1 X107.580 Y99.688 E2.08497
G1 X107.580 Y98.527 E2.11147
G1 X109.319 Y96.788 E2.16763
G1 X109.319 Y95.628 E2.19414
G1 X107.580 Y97.367 E2.25030
G1 X107.580 Y96.206 E2.27681
G1 X109.319 Y94.467 E2.33297
G1 X109.319 Y93.306 E2.35948
G1 X107.580 Y95.045 E2.41564
G1 X107.580 Y93.884 E2.44215
G1 X108.533 Y92.931 E2.47292
G1 X109.751 Y91.834 F7800.000
G1 X109.584 Y92.000 F600.000 E2.47625
G1 X109.502 Y91.375 E2.48517
G1 X109.751 Y91.127 E2.49013
G1 X109.502 Y90.668 E2.49751
G1 X109.751 Y90.420 E2.50248
G1 X109.502 Y89.961 E2.50986
G1 X109.751 Y89.713 E2.51483
G1 F2160.000 E1.51483
G92 E0
G1 X90.497 Y91.996 F7800.000
G1 F2160.000 E1.00000
G1 X90.249 Y91.536 F600.000 E1.00739
G1 X90.497 Y91.289 E1.01233
G1 X90.249 Y90.829 E1.01972
G1 X90.497 Y90.581 E1.02467
G1 X90.249 Y90.121 E1.03205
G1 X90.497 Y89.874 E1.03700
G1 F2160.000 E0.03700
G92 E0
G1 Z0.700 F7800.000
G1 X95.499 Y106.803
G1 F2160.000 E1.00000
G1 X95.499 Y88.925 F1758.323 E1.40826
G1 X98.499 Y88.925 E1.47677
G1 X98.499 Y106.803 E1.88503
G1 X101.499 Y106.803 E1.95354
G1 X101.499 Y88.925 E2.36180
G1 X104.499 Y88.925 E2.43030
G1 X104.499 Y106.803 E2.83856
G1 F2160.000 E1.83856
G92 E0
G1 X107.348 Y109.253 F7800.000
G1 F2160.000 E1.00000
G1 X107.348 Y92.500 F1172.216 E1.23701
G1 X109.750 Y92.500 E1.27099
G1 X109.750 Y110.500 E1.52564
G1 X90.249 Y110.500 E1.80152
G1 X90.249 Y92.500 E2.05617
G1 X92.651 Y92.500 E2.09015
G1 X92.651 Y109.253 E2.32715
G1 X107.273 Y109.253 E2.53401
G1 X106.848 Y108.753 F7800.000
G1 X106.848 Y92.000 F600.000 E2.77102
G1 X109.002 Y92.000 E2.80149
G1 X109.002 Y89.000 E2.84394
G1 X110.250 Y89.000 E2.86159
G1 X110.250 Y111.000 E3.17283
G1 X89.749 Y111.000 E3.46286
G1 X89.749 Y89.000 E3.77409
G1 X90.996 Y89.000 E3.79173
G1 X90.996 Y92.000 E3.83418
G1 X93.151 Y92.000 E3.86466
G1 X93.151 Y108.753 E4.10167
G1 X106.773 Y108.753 E4.29438
G1 X107.348 Y108.753 F7800.000
G1 X91.766 Y110.069
G1 X90.681 Y108.983 F1758.323 E4.33004
G1 X90.681 Y107.822 E4.35699
G1 X92.220 Y109.361 E4.40753
G1 X92.220 Y108.200 E4.43449
G1 X90.681 Y106.662 E4.48503
G1 X90.681 Y105.501 E4.51199
G1 X92.220 Y107.040 E4.56253
G1 X92.220 Y105.879 E4.58949
G1 X90.681 Y104.340 E4.64003
G1 X90.681 Y103.179 E4.66699
G1 X92.220 Y104.718 E4.71753
G1 X92.220 Y103.557 E4.74449
G1 X90.681 Y102.019 E4.79503
G1 X90.681 Y100.858 E4.82199
G1 X92.220 Y102.397 E4.87253
G1 X92.220 Y101.236 E4.89949
G1 X90.681 Y99.697 E4.95003
G1 X90.681 Y98.536 E4.97699
G1 X92.220 Y100.075 E5.02753
G1 X92.220 Y98.914 E5.05449
G1 X90.681 Y97.376 E5.10503
G1 X90.681 Y96.215 E5.13199
G1 X92.220 Y97.754 E5.18253
G1 X92.220 Y96.593 E5.20949
G1 X90.681 Y95.054 E5.26003
G1 X90.681 Y93.893 E5.28699
G1 X92.220 Y95.432 E5.33753
G1 X92.220 Y94.271 E5.36449
G1 X90.880 Y92.931 E5.40849
G1 X92.041 Y92.931 E5.43545
G1 X92.220 Y93.111 E5.44134
