; generated by Slic3r 0.9.11-dev on 2013-08-06 at 21:04:07

; layer_height = 0.2
; perimeters = 2
; top_solid_layers = 3
; bottom_solid_layers = 3
; fill_density = .3
; perimeter_speed = 40
; infill_speed = 60
; travel_speed = 130
; nozzle_diameter = 0.5
; filament_diameter = 3
; extrusion_multiplier = 1
; perimeters extrusion width = 0.50mm
; infill extrusion width = 1.02mm
; solid infill extrusion width = 0.85mm
; top infill extrusion width = 0.85mm
; first layer extrusion width = 0.60mm

G21 ; set units to millimeters
M107
M190 S60 ; wait for bed temperature to be reached
M104 S180 ; set temperature
G28 ; home all axes
M109 S180 ; wait for temperature to be reached
G90 ; use absolute coordinates
G92 E0
M82 ; use absolute distances for extrusion
G1 F2160.000 E-1.00000
G92 E0
G1 Z0.300 F7800.000
G1 X84.849 Y84.100
G1 F2160.000 E1.00000
G1 X85.849 Y83.280 F720.000 E1.03175
G1 X86.979 Y82.670 E1.06328
G1 X88.219 Y82.300 E1.09506
G1 X89.499 Y82.170 E1.12665
G1 X110.499 Y82.170 E1.64228
G1 X111.779 Y82.300 E1.67387
G1 X113.019 Y82.670 E1.70565
G1 X114.149 Y83.280 E1.73718
G1 X115.149 Y84.100 E1.76893
G1 X115.969 Y85.100 E1.80068
G1 X116.579 Y86.230 E1.83221
G1 X116.949 Y87.470 E1.86399
G1 X117.079 Y88.750 E1.89558
G1 X117.079 Y111.250 E2.44804
G1 X116.949 Y112.530 E2.47963
G1 X116.579 Y113.770 E2.51141
G1 X115.969 Y114.900 E2.54294
G1 X115.149 Y115.900 E2.57469
G1 X114.149 Y116.720 E2.60645
G1 X113.019 Y117.330 E2.63798
G1 X111.779 Y117.700 E2.66975
G1 X110.499 Y117.830 E2.70134
G1 X89.499 Y117.830 E3.21697
G1 X88.219 Y117.700 E3.24857
G1 X86.979 Y117.330 E3.28034
G1 X85.849 Y116.720 E3.31187
G1 X84.849 Y115.900 E3.34362
G1 X84.029 Y114.900 E3.37538
G1 X83.419 Y113.770 E3.40691
G1 X83.049 Y112.530 E3.43868
G1 X82.919 Y111.250 E3.47027
G1 X82.919 Y88.750 E4.02274
G1 X83.049 Y87.470 E4.05433
G1 X83.419 Y86.230 E4.08610
G1 X84.029 Y85.100 E4.11763
G1 X84.794 Y84.167 E4.14725
G1 F2160.000 E3.14725
G92 E0
G1 X92.984 Y109.371 F7800.000
G1 F2160.000 E1.00000
G1 X107.016 Y109.371 F720.000 E1.34455
G1 X107.016 Y89.618 E1.82957
G1 X109.633 Y89.618 E1.89381
G1 X109.633 Y110.382 E2.40366
G1 X90.367 Y110.382 E2.87670
G1 X90.367 Y89.618 E3.38655
G1 X92.984 Y89.618 E3.45079
G1 X92.984 Y109.284 E3.93368
G1 X93.562 Y108.792 F7800.000
G1 X106.438 Y108.792 F288.000 E4.24982
G1 X106.438 Y89.039 E4.73484
G1 X110.211 Y89.039 E4.82749
G1 X110.211 Y110.961 E5.36575
G1 X89.789 Y110.961 E5.86720
G1 X89.789 Y89.039 E6.40546
G1 X93.562 Y89.039 E6.49811
G1 X93.562 Y108.705 E6.98100
G1 X93.562 Y109.371 F7800.000
G1 X107.602 Y109.963
G1 X107.436 Y109.797 F1080.000 E6.98678
G1 X107.436 Y108.976 E7.00698
G1 X108.422 Y109.963 E7.04132
G1 X109.213 Y109.934 E7.06081
G1 X107.436 Y108.156 E7.12270
G1 X107.436 Y107.336 E7.14289
G1 X109.213 Y109.114 E7.20478
G1 X109.213 Y108.293 E7.22497
G1 X107.436 Y106.516 E7.28686
G1 X107.436 Y105.695 E7.30705
G1 X109.213 Y107.473 E7.36894
G1 X109.213 Y106.653 E7.38913
G1 X107.436 Y104.875 E7.45102
G1 X107.436 Y104.055 E7.47121
G1 X109.213 Y105.833 E7.53310
G1 X109.213 Y105.012 E7.55329
G1 X107.436 Y103.235 E7.61518
G1 X107.436 Y102.414 E7.63537
G1 X109.213 Y104.192 E7.69726
G1 X109.213 Y103.372 E7.71745
G1 X107.436 Y101.594 E7.77934
G1 X107.436 Y100.774 E7.79953
G1 X109.213 Y102.552 E7.86142
G1 X109.213 Y101.731 E7.88162
G1 X107.436 Y99.954 E7.94350
G1 X107.436 Y99.133 E7.96370
G1 X109.213 Y100.911 E8.02558
G1 X109.213 Y100.091 E8.04578
G1 X107.436 Y98.313 E8.10767
G1 X107.436 Y97.493 E8.12786
G1 X109.213 Y99.270 E8.18975
G1 X109.213 Y98.450 E8.20994
G1 X107.436 Y96.672 E8.27183
G1 X107.436 Y95.852 E8.29202
G1 X109.213 Y97.630 E8.35391
G1 X109.213 Y96.810 E8.37410
G1 X107.436 Y95.032 E8.43599
G1 X107.436 Y94.212 E8.45618
G1 X109.213 Y95.989 E8.51807
G1 X109.213 Y95.169 E8.53826
G1 X107.436 Y93.391 E8.60015
G1 X107.436 Y92.571 E8.62034
G1 X109.213 Y94.349 E8.68223
G1 X109.213 Y93.529 E8.70242
G1 X107.436 Y91.751 E8.76431
G1 X107.436 Y90.931 E8.78450
G1 X109.213 Y92.708 E8.84639
G1 X109.213 Y91.888 E8.86658
G1 X107.436 Y90.110 E8.92847
G1 X108.183 Y90.037 E8.94695
G1 X109.213 Y91.068 E8.98283
G1 X109.213 Y90.248 E9.00302
G1 X109.003 Y90.037 E9.01035
G1 F2160.000 E8.01035
G92 E0
G1 X93.132 Y109.973 F7800.000
G1 F2160.000 E1.00000
G1 X92.939 Y109.780 F360.000 E1.00343
G1 X93.357 Y109.780 E1.00868
G1 X93.550 Y109.973 E1.01211
G1 X93.776 Y109.780 E1.01584
G1 X93.969 Y109.973 E1.01927
G1 X94.194 Y109.780 E1.02300
G1 X94.387 Y109.973 E1.02643
G1 X94.613 Y109.780 E1.03015
G1 X94.806 Y109.973 E1.03358
G1 X95.031 Y109.780 E1.03731
G1 X95.224 Y109.973 E1.04074
G1 X95.450 Y109.780 E1.04447
G1 X95.643 Y109.973 E1.04790
G1 X95.868 Y109.780 E1.05162
G1 X96.061 Y109.973 E1.05505
G1 X96.287 Y109.780 E1.05878
G1 X96.480 Y109.973 E1.06221
G1 X96.705 Y109.780 E1.06594
G1 X96.898 Y109.973 E1.06937
G1 X97.124 Y109.780 E1.07309
G1 X97.317 Y109.973 E1.07652
G1 X97.542 Y109.780 E1.08025
G1 X97.735 Y109.973 E1.08368
G1 X97.961 Y109.780 E1.08741
G1 X98.154 Y109.973 E1.09084
G1 X98.379 Y109.780 E1.09456
G1 X98.572 Y109.973 E1.09799
G1 X98.798 Y109.780 E1.10172
G1 X98.991 Y109.973 E1.10515
G1 X99.216 Y109.780 E1.10888
G1 X99.409 Y109.973 E1.11231
G1 X99.635 Y109.780 E1.11603
G1 X99.828 Y109.973 E1.11946
G1 X100.053 Y109.780 E1.12319
G1 X100.246 Y109.973 E1.12662
G1 X100.472 Y109.780 E1.13035
G1 X100.665 Y109.973 E1.13378
G1 X100.890 Y109.780 E1.13750
G1 X101.083 Y109.973 E1.14093
G1 X101.309 Y109.780 E1.14466
G1 X101.502 Y109.973 E1.14809
G1 X101.727 Y109.780 E1.15182
G1 X101.920 Y109.973 E1.15525
G1 X102.146 Y109.780 E1.15897
G1 X102.339 Y109.973 E1.16240
G1 X102.564 Y109.780 E1.16613
G1 X102.757 Y109.973 E1.16956
G1 X102.983 Y109.780 E1.17329
G1 X103.176 Y109.973 E1.17672
G1 X103.401 Y109.780 E1.18044
G1 X103.594 Y109.973 E1.18387
G1 X103.820 Y109.780 E1.18760
G1 X104.013 Y109.973 E1.19103
G1 X104.238 Y109.780 E1.19476
G1 X104.431 Y109.973 E1.19819
G1 X104.657 Y109.780 E1.20191
G1 X104.850 Y109.973 E1.20534
G1 X105.075 Y109.780 E1.20907
G1 X105.268 Y109.973 E1.21250
G1 X105.494 Y109.780 E1.21623
G1 X105.687 Y109.973 E1.21966
G1 X105.912 Y109.780 E1.22338
G1 X106.105 Y109.973 E1.22681
G1 X106.331 Y109.780 E1.23054
G1 X106.524 Y109.973 E1.23397
G1 X106.749 Y109.780 E1.23770
G1 X106.942 Y109.973 E1.24113
G1 X107.186 Y109.798 E1.24489
G1 X91.197 Y109.963 F7800.000
G1 X90.787 Y109.553 F1080.000 E1.25912
G1 X90.787 Y108.733 E1.27927
G1 X92.017 Y109.963 E1.32198
G1 X92.565 Y109.690 E1.33700
G1 X90.787 Y107.912 E1.39874
G1 X90.787 Y107.092 E1.41888
G1 X92.565 Y108.870 E1.48062
G1 X92.565 Y108.050 E1.50076
G1 X90.787 Y106.272 E1.56250
G1 X90.787 Y105.452 E1.58264
G1 X92.564 Y107.230 E1.64437
G1 X92.564 Y106.409 E1.66451
G1 X90.787 Y104.631 E1.72625
G1 X90.787 Y103.811 E1.74639
G1 X92.564 Y105.589 E1.80812
G1 X92.564 Y104.769 E1.82827
G1 X90.787 Y102.991 E1.89000
G1 X90.787 Y102.171 E1.91014
G1 X92.564 Y103.948 E1.97187
G1 X92.564 Y103.128 E1.99202
G1 X90.787 Y101.350 E2.05375
G1 X90.787 Y100.530 E2.07389
G1 X92.564 Y102.308 E2.13562
G1 X92.564 Y101.488 E2.15576
G1 X90.787 Y99.710 E2.21750
G1 X90.787 Y98.890 E2.23764
G1 X92.564 Y100.667 E2.29937
G1 X92.564 Y99.847 E2.31951
G1 X90.787 Y98.069 E2.38124
G1 X90.787 Y97.249 E2.40139
G1 X92.564 Y99.027 E2.46312
G1 X92.564 Y98.206 E2.48326
G1 X90.787 Y96.429 E2.54499
G1 X90.787 Y95.608 E2.56513
G1 X92.564 Y97.386 E2.62686
G1 X92.564 Y96.566 E2.64700
G1 X90.787 Y94.788 E2.70873
G1 X90.787 Y93.968 E2.72887
G1 X92.564 Y95.746 E2.79061
G1 X92.564 Y94.925 E2.81075
G1 X90.787 Y93.148 E2.87248
G1 X90.787 Y92.327 E2.89262
G1 X92.564 Y94.105 E2.95435
G1 X92.564 Y93.285 E2.97449
G1 X90.787 Y91.507 E3.03622
G1 X90.787 Y90.687 E3.05636
G1 X92.564 Y92.465 E3.11809
G1 X92.564 Y91.644 E3.13823
G1 X90.957 Y90.037 E3.19404
G1 X91.777 Y90.037 E3.21418
G1 X92.564 Y90.824 E3.24150
M106 S255
G1 F2160.000 E2.24150
G92 E0
G1 Z0.500 F7800.000
G1 X92.852 Y109.253
G1 F2160.000 E1.00000
G1 X107.148 Y109.253 F1099.513 E1.20226
G1 X107.148 Y89.500 E1.48171
G1 X109.750 Y89.500 E1.51852
G1 X109.750 Y110.500 E1.81561
G1 X90.249 Y110.500 E2.09149
G1 X90.249 Y89.500 E2.38858
G1 X92.851 Y89.500 E2.42539
G1 X92.852 Y109.178 E2.70378
G1 X93.351 Y108.753 F7800.000
G1 X106.648 Y108.753 F600.000 E2.89189
G1 X106.648 Y89.000 E3.17134
G1 X110.250 Y89.000 E3.22230
G1 X110.250 Y111.000 E3.53353
G1 X89.749 Y111.000 E3.82356
G1 X89.749 Y89.000 E4.13480
G1 X93.351 Y89.000 E4.18576
G1 X93.351 Y108.678 E4.46414
G1 X93.351 Y109.253 F7800.000
G1 X92.420 Y109.044
G1 X91.396 Y110.069 F1649.270 E4.49778
G1 X90.681 Y109.623 E4.51735
G1 X92.420 Y107.884 E4.57447
G1 X92.420 Y106.723 E4.60142
G1 X90.681 Y108.462 E4.65854
G1 X90.681 Y107.301 E4.68550
G1 X92.420 Y105.562 E4.74262
G1 X92.420 Y104.401 E4.76957
G1 X90.681 Y106.140 E4.82669
G1 X90.681 Y104.980 E4.85365
G1 X92.420 Y103.241 E4.91076
G1 X92.420 Y102.080 E4.93772
G1 X90.681 Y103.819 E4.99483
G1 X90.681 Y102.658 E5.02179
G1 X92.420 Y100.919 E5.07891
G1 X92.420 Y99.758 E5.10586
G1 X90.681 Y101.497 E5.16298
G1 X90.681 Y100.337 E5.18993
G1 X92.420 Y98.598 E5.24705
G1 X92.420 Y97.437 E5.27401
G1 X90.681 Y99.176 E5.33112
G1 X90.681 Y98.015 E5.35808
G1 X92.420 Y96.276 E5.41519
G1 X92.420 Y95.115 E5.44215
G1 X90.681 Y96.854 E5.49926
G1 X90.681 Y95.694 E5.52622
G1 X92.420 Y93.955 E5.58333
G1 X92.420 Y92.794 E5.61029
G1 X90.681 Y94.533 E5.66740
G1 X90.681 Y93.372 E5.69435
G1 X92.420 Y91.633 E5.75147
G1 X92.420 Y90.473 E5.77842
G1 X90.681 Y92.211 E5.83553
G1 X90.681 Y91.051 E5.86249
G1 X91.800 Y89.931 E5.89925
G1 F2160.000 E4.89925
G92 E0
G1 X107.149 Y109.993 F7800.000
G1 F2160.000 E1.00000
G1 X105.974 Y109.753 F600.000 E1.01696
G1 X105.727 Y110.000 E1.02190
G1 X105.267 Y109.753 E1.02929
G1 X105.020 Y110.000 E1.03424
G1 X104.560 Y109.753 E1.04162
G1 X104.313 Y110.000 E1.04657
G1 X103.853 Y109.753 E1.05396
G1 X103.606 Y110.000 E1.05890
G1 X103.146 Y109.753 E1.06629
G1 X102.898 Y110.000 E1.07124
G1 X102.439 Y109.753 E1.07862
G1 X102.191 Y110.000 E1.08357
G1 X101.731 Y109.753 E1.09096
G1 X101.484 Y110.000 E1.09590
G1 X101.024 Y109.753 E1.10329
G1 X100.777 Y110.000 E1.10823
G1 X100.317 Y109.753 E1.11562
G1 X100.070 Y110.000 E1.12057
G1 X99.610 Y109.753 E1.12795
G1 X99.363 Y110.000 E1.13290
G1 X98.903 Y109.753 E1.14029
G1 X98.656 Y110.000 E1.14523
G1 X98.196 Y109.753 E1.15262
G1 X97.949 Y110.000 E1.15757
G1 X97.489 Y109.753 E1.16495
G1 X97.241 Y110.000 E1.16990
G1 X96.782 Y109.753 E1.17729
G1 X96.534 Y110.000 E1.18223
G1 X96.074 Y109.753 E1.18962
G1 X95.827 Y110.000 E1.19457
G1 X95.367 Y109.753 E1.20195
G1 X95.120 Y110.000 E1.20690
G1 X94.660 Y109.753 E1.21429
G1 X94.413 Y110.000 E1.21923
G1 X93.953 Y109.753 E1.22662
G1 X93.706 Y110.000 E1.23156
G1 X93.246 Y109.753 E1.23895
G1 X92.999 Y110.000 E1.24390
G1 X109.319 Y109.557 F7800.000
G1 X108.807 Y110.069 F1649.270 E1.26043
G1 X107.646 Y110.069 E1.28693
G1 X109.319 Y108.396 E1.34095
G1 X109.319 Y107.235 E1.36746
G1 X107.580 Y108.974 E1.42362
G1 X107.580 Y107.813 E1.45012
G1 X109.319 Y106.074 E1.50629
G1 X109.319 Y104.914 E1.53279
G1 X107.580 Y106.653 E1.58895
G1 X107.580 Y105.492 E1.61546
G1 X109.319 Y103.753 E1.67162
G1 X109.319 Y102.592 E1.69813
G1 X107.580 Y104.331 E1.75429
G1 X107.580 Y103.170 E1.78080
G1 X109.319 Y101.431 E1.83696
G1 X109.319 Y100.271 E1.86347
G1 X107.580 Y102.010 E1.91963
G1 X107.580 Y100.849 E1.94614
G1 X109.319 Y99.110 E2.00230
G1 X109.319 Y97.949 E2.02880
G1 X107.580 Y99.688 E2.08497
G1 X107.580 Y98.527 E2.11147
G1 X109.319 Y96.788 E2.16763
G1 X109.319 Y95.628 E2.19414
G1 X107.580 Y97.367 E2.25030
G1 X107.580 Y96.206 E2.27681
G1 X109.319 Y94.467 E2.33297
G1 X109.319 Y93.306 E2.35948
G1 X107.580 Y95.045 E2.41564
G1 X107.580 Y93.884 E2.44215
G1 X109.319 Y92.145 E2.49831
G1 X109.319 Y90.985 E2.52481
G1 X107.580 Y92.724 E2.58098
G1 X107.580 Y91.563 E2.60748
G1 X109.211 Y89.931 E2.66017
G1 X108.051 Y89.931 E2.68668
G1 X107.580 Y90.402 E2.70188
G1 F2160.000 E1.70188
G92 E0
G1 Z0.700 F7800.000
G1 X107.348 Y109.253
G1 F2160.000 E1.00000
G1 X107.348 Y89.500 F1085.892 E1.27945
G1 X109.750 Y89.500 E1.31343
G1 X109.750 Y110.500 E1.61052
G1 X90.249 Y110.500 E1.88640
G1 X90.249 Y89.500 E2.18349
G1 X92.651 Y89.500 E2.21747
G1 X92.652 Y109.253 E2.49692
G1 X107.273 Y109.253 E2.70378
G1 X106.848 Y108.753 F7800.000
G1 X106.848 Y89.000 F600.000 E2.98322
G1 X110.250 Y89.000 E3.03135
G1 X110.250 Y111.000 E3.34259
G1 X89.749 Y111.000 E3.63262
G1 X89.749 Y89.000 E3.94386
G1 X93.151 Y89.000 E3.99198
G1 X93.151 Y108.753 E4.27143
G1 X106.773 Y108.753 E4.46414
G1 X107.348 Y108.753 F7800.000
G1 X91.766 Y110.069
G1 X90.681 Y108.983 F1628.838 E4.49979
G1 X90.681 Y107.822 E4.52675
G1 X92.220 Y109.361 E4.57730
G1 X92.220 Y108.201 E4.60426
G1 X90.681 Y106.662 E4.65481
G1 X90.681 Y105.501 E4.68176
G1 X92.220 Y107.040 E4.73231
G1 X92.220 Y105.879 E4.75927
G1 X90.681 Y104.340 E4.80982
G1 X90.681 Y103.179 E4.83678
G1 X92.220 Y104.718 E4.88733
G1 X92.220 Y103.558 E4.91428
G1 X90.681 Y102.019 E4.96483
G1 X90.681 Y100.858 E4.99179
G1 X92.220 Y102.397 E5.04234
G1 X92.220 Y101.236 E5.06929
G1 X90.681 Y99.697 E5.11984
G1 X90.681 Y98.536 E5.14680
G1 X92.220 Y100.075 E5.19734
G1 X92.220 Y98.915 E5.22430
G1 X90.681 Y97.376 E5.27485
G1 X90.681 Y96.215 E5.30180
G1 X92.220 Y97.754 E5.35235
G1 X92.220 Y96.593 E5.37931
G1 X90.681 Y95.054 E5.42985
G1 X90.681 Y93.893 E5.45681
G1 X92.220 Y95.432 E5.50735
G1 X92.220 Y94.272 E5.53431
G1 X90.681 Y92.733 E5.58485
G1 X90.681 Y91.572 E5.61181
G1 X92.220 Y93.111 E5.66236
G1 X92.220 Y91.950 E5.68931
G1 X90.681 Y90.411 E5.73986
G1 X91.362 Y89.931 E5.75920
G1 X92.220 Y90.789 E5.78737
G1 X93.072 Y110.000 F7800.000
G1 X92.825 Y109.753 F600.000 E5.79232
G1 X93.532 Y109.753 E5.80232
G1 X93.779 Y110.000 E5.80727
G1 X94.239 Y109.753 E5.81466
G1 X94.487 Y110.000 E5.81960
G1 X95.654 Y109.753 E5.83648
G1 X95.901 Y110.000 E5.84142
G1 X96.361 Y109.753 E5.84881
G1 X96.608 Y110.000 E5.85376
G1 X97.068 Y109.753 E5.86114
G1 X97.315 Y110.000 E5.86609
G1 X97.775 Y109.753 E5.87348
G1 X98.022 Y110.000 E5.87842
G1 X98.482 Y109.753 E5.88581
G1 X98.729 Y110.000 E5.89076
G1 X99.189 Y109.753 E5.89814
G1 X99.436 Y110.000 E5.90309
G1 X99.896 Y109.753 E5.91048
G1 X100.143 Y110.000 E5.91542
G1 X101.311 Y109.753 E5.93230
G1 X101.558 Y110.000 E5.93725
G1 X102.018 Y109.753 E5.94463
G1 X102.265 Y110.000 E5.94958
G1 X102.725 Y109.753 E5.95697
G1 X102.972 Y110.000 E5.96191
G1 X104.139 Y109.753 E5.97879
G1 X104.386 Y110.000 E5.98373
G1 X105.553 Y109.753 E6.00061
G1 X105.800 Y110.000 E6.00556
G1 X106.260 Y109.753 E6.01294
G1 X106.508 Y110.000 E6.01789
G1 X106.968 Y109.753 E6.02528
G1 X107.215 Y110.000 E6.03022
G1 X108.017 Y110.069 F7800.000
G1 X107.780 Y109.832 F1628.838 E6.03788
G1 X107.780 Y108.671 E6.06438
G1 X109.178 Y110.069 E6.10952
G1 X109.319 Y109.049 E6.13303
G1 X107.780 Y107.510 E6.18273
G1 X107.780 Y106.349 E6.20923
G1 X109.319 Y107.888 E6.25894
G1 X109.319 Y106.728 E6.28544
G1 X107.780 Y105.189 E6.33515
G1 X107.780 Y104.028 E6.36165
G1 X109.319 Y105.567 E6.41136
G1 X109.319 Y104.406 E6.43786
G1 X107.780 Y102.867 E6.48757
G1 X107.780 Y101.706 E6.51407
G1 X109.319 Y103.245 E6.56378
G1 X109.319 Y102.085 E6.59028
G1 X107.780 Y100.546 E6.63999
G1 X107.780 Y99.385 E6.66649
G1 X109.319 Y100.924 E6.71620
G1 X109.319 Y99.763 E6.74270
G1 X107.780 Y98.224 E6.79240
G1 X107.780 Y97.063 E6.81891
G1 X109.319 Y98.602 E6.86861
G1 X109.319 Y97.442 E6.89512
G1 X107.780 Y95.903 E6.94482
G1 X107.780 Y94.742 E6.97133
G1 X109.319 Y96.281 E7.02103
G1 X109.319 Y95.120 E7.04754
G1 X107.780 Y93.581 E7.09724
G1 X107.780 Y92.420 E7.12375
G1 X109.319 Y93.959 E7.17345
G1 X109.319 Y92.799 E7.19996
G1 X107.780 Y91.260 E7.24966
G1 X107.780 Y90.099 E7.27617
G1 X109.319 Y91.638 E7.32587
G1 X109.319 Y90.477 E7.35238
G1 X108.773 Y89.931 E7.37000
G1 F2160.000 E6.37000
G92 E0
G1 Z0.900 F7800.000
G1 X107.548 Y109.253
G1 F2160.000 E1.00000
G1 X107.548 Y89.500 F1077.340 E1.27945
G1 X109.750 Y89.500 E1.31060
G1 X109.750 Y110.500 E1.60769
G1 X90.249 Y110.500 E1.88357
G1 X90.249 Y89.500 E2.18066
G1 X92.451 Y89.500 E2.21181
G1 X92.452 Y109.253 E2.49126
G1 X107.473 Y109.253 E2.70378
G1 X107.048 Y108.753 F7800.000
G1 X107.048 Y89.000 F600.000 E2.98322
G1 X110.250 Y89.000 E3.02852
G1 X110.250 Y111.000 E3.33976
