; generated by Slic3r 0.9.11-dev on 2013-08-07 at 20:23:09

; layer_height = 0.3
; perimeters = 3
; top_solid_layers = 3
; bottom_solid_layers = 3
; fill_density = .4
; perimeter_speed = 30
; infill_speed = 60
; travel_speed = 130
; nozzle_diameter = 0.5
; filament_diameter = 3
; extrusion_multiplier = 1
; perimeters extrusion width = 0.50mm
; infill extrusion width = 0.70mm
; solid infill extrusion width = 0.70mm
; top infill extrusion width = 0.70mm
; first layer extrusion width = 0.60mm

G21 ; set units to millimeters
M107
M190 S60 ; wait for bed temperature to be reached
M104 S180 ; set temperature
G28 ; home all axes
M109 S180 ; wait for temperature to be reached
G90 ; use absolute coordinates
G92 E0
M82 ; use absolute distances for extrusion
G1 F2160.000 E-1.00000
G92 E0
G1 Z0.300 F7800.000
G1 X65.599 Y86.270
G1 F2160.000 E1.00000
G1 X66.729 Y85.660 F360.000 E1.03153
G1 X67.969 Y85.290 E1.06330
G1 X69.249 Y85.160 E1.09489
G1 X130.749 Y85.160 E2.60497
G1 X132.029 Y85.290 E2.63656
G1 X133.269 Y85.660 E2.66833
G1 X134.399 Y86.270 E2.69986
G1 X135.399 Y87.090 E2.73161
G1 X136.219 Y88.090 E2.76337
G1 X136.829 Y89.220 E2.79490
G1 X137.199 Y90.460 E2.82667
G1 X137.329 Y91.740 E2.85826
G1 X137.329 Y93.750 E2.90762
G1 X137.309 Y94.220 E2.91917
G1 X137.059 Y97.710 E3.00508
G1 X136.839 Y99.010 E3.03745
G1 X136.349 Y100.240 E3.06996
G1 X135.639 Y101.350 E3.10232
G1 X123.639 Y116.360 E3.57418
G1 X122.599 Y117.400 E3.61029
G1 X121.349 Y118.180 E3.64647
G1 X119.959 Y118.660 E3.68257
G1 X118.499 Y118.830 E3.71867
G1 X82.499 Y118.830 E4.60261
G1 X81.039 Y118.660 E4.63870
G1 X79.649 Y118.180 E4.67481
G1 X78.399 Y117.400 E4.71099
G1 X77.359 Y116.360 E4.74710
G1 X65.359 Y101.350 E5.21896
G1 X64.759 Y100.450 E5.24552
G1 X64.309 Y99.460 E5.27222
G1 X63.059 Y95.970 E5.36324
G1 X62.769 Y94.880 E5.39094
G1 X62.669 Y93.750 E5.41879
G1 X62.669 Y91.740 E5.46815
G1 X62.799 Y90.460 E5.49974
G1 X63.169 Y89.220 E5.53151
G1 X63.779 Y88.090 E5.56304
G1 X64.599 Y87.090 E5.59479
G1 X65.532 Y86.325 E5.62442
G1 F2160.000 E4.62442
G92 E0
G1 X85.051 Y108.950 F7800.000
G1 F2160.000 E1.00000
G1 X90.051 Y108.950 F360.000 E1.12277
G1 X90.051 Y110.804 E1.16830
G1 X83.196 Y110.804 E1.33662
G1 X73.508 Y98.696 E1.71737
G1 X85.051 Y98.696 E2.00079
G1 X85.051 Y108.863 E2.25043
G1 X85.629 Y108.371 F7800.000
G1 X90.629 Y108.371 F360.000 E2.37320
G1 X90.629 Y111.383 E2.44714
G1 X82.918 Y111.383 E2.63649
G1 X72.304 Y98.117 E3.05363
G1 X92.879 Y98.117 E3.55883
G1 X92.879 Y99.380 E3.58983
G1 X85.629 Y99.380 E3.76784
G1 X85.629 Y108.285 E3.98649
G1 F2160.000 E2.98649
G92 E0
G1 X115.449 Y108.950 F7800.000
G1 F2160.000 E1.00000
G1 X115.449 Y98.696 F360.000 E1.25178
G1 X127.492 Y98.696 E1.54747
G1 X117.804 Y110.804 E1.92822
G1 X109.949 Y110.804 E2.12109
G1 X109.949 Y108.950 E2.16662
G1 X115.363 Y108.950 E2.29954
G1 X114.871 Y108.371 F7800.000
G1 X114.871 Y99.380 F360.000 E2.52032
G1 X107.121 Y99.380 E2.71061
G1 X107.121 Y98.117 E2.74161
G1 X128.696 Y98.117 E3.27136
G1 X118.082 Y111.383 E3.68850
G1 X109.371 Y111.383 E3.90240
G1 X109.371 Y108.371 E3.97634
G1 X114.784 Y108.371 E4.10926
G1 X114.292 Y107.793 F7800.000
G1 X114.292 Y99.958 F252.000 E4.30163
G1 X106.542 Y99.958 E4.49192
G1 X106.542 Y98.208 E4.53489
G1 X93.458 Y98.208 E4.85617
G1 X93.458 Y99.958 E4.89914
G1 X86.208 Y99.958 E5.07716
G1 X86.208 Y107.793 E5.26953
G1 X91.208 Y107.793 E5.39230
G1 X91.208 Y111.961 E5.49465
G1 X82.640 Y111.961 E5.70503
G1 X71.100 Y97.539 E6.15855
G1 X129.900 Y97.539 E7.60230
G1 X118.360 Y111.961 E8.05583
G1 X108.792 Y111.961 E8.29076
G1 X108.792 Y107.793 E8.39312
G1 X114.205 Y107.793 E8.52603
G1 X114.871 Y107.793 F7800.000
G1 F2160.000 E7.52603
G92 E0
G1 X130.461 Y93.462 F7800.000
G1 F2160.000 E1.00000
G1 X69.538 Y93.462 F252.000 E2.49589
G1 X69.538 Y92.039 E2.53084
G1 X130.461 Y92.039 E4.02673
G1 X130.461 Y93.375 E4.05955
G1 X129.960 Y93.173 F7800.000
G1 F2160.000 E3.05955
G92 E0
G1 X126.567 Y99.181 F7800.000
G1 F2160.000 E1.00000
G1 X126.502 Y99.115 F720.000 E1.00228
G1 X125.680 Y99.115 E1.02255
G1 X126.202 Y99.637 E1.04075
G1 X125.837 Y100.094 E1.05517
G1 X124.858 Y99.115 E1.08930
G1 X124.036 Y99.115 E1.10957
G1 X125.471 Y100.550 E1.15962
G1 X125.106 Y101.007 E1.17404
G1 X123.214 Y99.115 E1.24001
G1 X122.393 Y99.115 E1.26028
G1 X124.741 Y101.463 E1.34218
G1 X124.375 Y101.920 E1.35660
G1 X121.571 Y99.115 E1.45442
G1 X120.749 Y99.115 E1.47469
G1 X124.010 Y102.376 E1.58843
G1 X123.645 Y102.833 E1.60285
G1 X119.927 Y99.115 E1.73252
G1 X119.105 Y99.115 E1.75279
G1 X123.280 Y103.289 E1.89838
G1 X122.914 Y103.746 E1.91280
G1 X118.284 Y99.115 E2.07431
G1 X117.462 Y99.115 E2.09458
G1 X122.549 Y104.202 E2.27202
G1 X122.184 Y104.659 E2.28644
G1 X116.640 Y99.115 E2.47980
G1 X115.869 Y99.166 E2.49886
G1 X121.819 Y105.116 E2.70639
G1 X121.453 Y105.572 E2.72081
G1 X115.869 Y99.987 E2.91559
G1 X115.869 Y100.809 E2.93586
G1 X121.088 Y106.029 E3.11790
G1 X120.723 Y106.485 E3.13232
G1 X115.869 Y101.631 E3.30163
G1 X115.869 Y102.453 E3.32190
G1 X120.358 Y106.942 E3.47846
G1 X119.992 Y107.398 E3.49288
G1 X115.869 Y103.275 E3.63671
G1 X115.869 Y104.096 E3.65698
G1 X119.627 Y107.855 E3.78806
G1 X119.262 Y108.311 E3.80248
G1 X115.869 Y104.918 E3.92083
G1 X115.869 Y105.740 E3.94109
G1 X118.896 Y108.768 E4.04670
G1 X118.531 Y109.224 E4.06112
G1 X115.869 Y106.562 E4.15399
G1 X115.869 Y107.384 E4.17425
G1 X118.166 Y109.681 E4.25438
G1 X117.801 Y110.137 E4.26880
G1 X115.869 Y108.205 E4.33619
G1 X115.869 Y109.027 E4.35645
G1 X117.226 Y110.385 E4.40380
G1 X116.404 Y110.385 E4.42407
G1 X115.389 Y109.369 E4.45950
G1 X114.567 Y109.369 E4.47976
G1 X115.583 Y110.385 E4.51519
G1 X114.761 Y110.385 E4.53546
G1 X113.745 Y109.369 E4.57088
G1 X112.923 Y109.369 E4.59115
G1 X113.939 Y110.385 E4.62657
G1 X113.117 Y110.385 E4.64684
G1 X112.102 Y109.369 E4.68227
G1 X111.280 Y109.369 E4.70253
G1 X112.295 Y110.385 E4.73796
G1 X111.474 Y110.385 E4.75823
G1 X110.458 Y109.369 E4.79365
G1 X110.369 Y110.102 E4.81185
G1 X110.652 Y110.385 E4.82173
G1 F2160.000 E3.82173
G92 E0
G1 X108.097 Y98.791 F7800.000
G1 F2160.000 E1.00000
G1 X114.672 Y98.791 F240.000 E1.16143
G1 F2160.000 E0.16143
G92 E0
G1 X85.909 Y98.791 F7800.000
G1 F2160.000 E1.00000
G1 X91.661 Y98.791 F240.000 E1.14188
G1 X84.590 Y99.115 F7800.000
G1 X84.631 Y99.157 F720.000 E1.14332
G1 X84.631 Y99.979 E1.16350
G1 X83.768 Y99.115 E1.19348
G1 X82.946 Y99.115 E1.21366
G1 X84.631 Y100.800 E1.27217
G1 X84.631 Y101.622 E1.29235
G1 X82.124 Y99.115 E1.37941
G1 X81.303 Y99.115 E1.39959
G1 X84.631 Y102.444 E1.51518
G1 X84.631 Y103.266 E1.53536
G1 X80.481 Y99.115 E1.67948
G1 X79.659 Y99.115 E1.69966
G1 X84.631 Y104.088 E1.87233
G1 X84.631 Y104.909 E1.89251
G1 X78.837 Y99.115 E2.09371
G1 X78.015 Y99.115 E2.11389
G1 X84.631 Y105.731 E2.34362
G1 X82.856 Y109.709 F7800.000
G1 X83.532 Y110.385 F720.000 E2.36710
G1 X84.354 Y110.385 F7800.000
G1 X79.567 Y105.598 F720.000 E2.53332
G1 X76.279 Y101.487 F7800.000
G1 X85.176 Y110.385 F720.000 E2.84227
G1 X85.998 Y110.385 E2.86245
G1 X84.982 Y109.369 E2.89772
G1 X85.804 Y109.369 E2.91790
G1 X86.820 Y110.385 E2.95317
G1 X87.641 Y110.385 E2.97335
G1 X86.626 Y109.369 E3.00861
G1 X87.448 Y109.369 E3.02879
G1 X88.463 Y110.385 E3.06406
G1 X89.285 Y110.385 E3.08424
G1 X88.269 Y109.369 E3.11951
G1 X89.091 Y109.369 E3.13969
G1 X89.631 Y109.909 E3.15844
G1 F2160.000 E2.15844
G92 E0
G1 X77.194 Y99.115 F7800.000
G1 F2160.000 E1.00000
G1 X84.631 Y106.553 F720.000 E1.25827
G1 X84.631 Y107.375 E1.27845
G1 X76.372 Y99.115 E1.56527
G1 X75.550 Y99.115 E1.58544
G1 X84.631 Y108.197 E1.90079
G1 X84.631 Y109.018 E1.92097
G1 X74.728 Y99.115 E2.26486
G1 F2160.000 E1.26486
G92 E0
G1 X70.130 Y92.873 F7800.000
G1 F2160.000 E1.00000
G1 X73.172 Y92.628 F240.000 E1.07494
G1 X73.417 Y92.873 E1.08345
G1 X73.993 Y92.628 E1.09884
G1 X74.239 Y92.873 E1.10735
G1 X74.815 Y92.628 E1.12273
G1 X75.060 Y92.873 E1.13124
G1 X75.637 Y92.628 E1.14663
G1 X75.882 Y92.873 E1.15514
G1 X76.459 Y92.628 E1.17053
G1 X76.704 Y92.873 E1.17904
G1 X77.281 Y92.628 E1.19443
G1 X77.526 Y92.873 E1.20294
G1 X78.103 Y92.628 E1.21832
G1 X78.348 Y92.873 E1.22684
G1 X78.924 Y92.628 E1.24222
G1 X79.169 Y92.873 E1.25073
G1 X79.746 Y92.628 E1.26612
G1 X79.991 Y92.873 E1.27463
G1 X80.568 Y92.628 E1.29002
G1 X80.813 Y92.873 E1.29853
G1 X81.390 Y92.628 E1.31391
G1 X81.635 Y92.873 E1.32243
G1 X82.212 Y92.628 E1.33781
G1 X82.457 Y92.873 E1.34632
G1 X83.033 Y92.628 E1.36171
G1 X83.278 Y92.873 E1.37022
G1 X83.855 Y92.628 E1.38561
G1 X84.100 Y92.873 E1.39412
G1 X84.677 Y92.628 E1.40951
G1 X84.922 Y92.873 E1.41802
G1 X85.499 Y92.628 E1.43340
G1 X85.744 Y92.873 E1.44191
G1 X86.321 Y92.628 E1.45730
G1 X86.566 Y92.873 E1.46581
G1 X87.142 Y92.628 E1.48120
G1 X87.387 Y92.873 E1.48971
G1 X87.964 Y92.628 E1.50510
G1 X88.209 Y92.873 E1.51361
G1 X88.786 Y92.628 E1.52899
G1 X89.031 Y92.873 E1.53751
G1 X89.608 Y92.628 E1.55289
G1 X89.853 Y92.873 E1.56140
G1 X90.430 Y92.628 E1.57679
G1 X90.675 Y92.873 E1.58530
G1 X91.251 Y92.628 E1.60069
G1 X91.496 Y92.873 E1.60920
G1 X92.073 Y92.628 E1.62458
G1 X92.318 Y92.873 E1.63310
G1 X92.895 Y92.628 E1.64848
G1 X93.140 Y92.873 E1.65699
G1 X93.717 Y92.628 E1.67238
G1 X93.962 Y92.873 E1.68089
G1 X94.539 Y92.628 E1.69628
G1 X94.784 Y92.873 E1.70479
G1 X95.360 Y92.628 E1.72018
G1 X95.605 Y92.873 E1.72869
G1 X96.182 Y92.628 E1.74407
G1 X96.427 Y92.873 E1.75259
G1 X97.004 Y92.628 E1.76797
G1 X97.249 Y92.873 E1.77648
G1 X97.826 Y92.628 E1.79187
G1 X98.071 Y92.873 E1.80038
G1 X98.648 Y92.628 E1.81577
G1 X98.893 Y92.873 E1.82428
G1 X99.469 Y92.628 E1.83966
G1 X99.715 Y92.873 E1.84818
G1 X100.291 Y92.628 E1.86356
G1 X100.536 Y92.873 E1.87207
G1 X101.113 Y92.628 E1.88746
G1 X101.358 Y92.873 E1.89597
G1 X101.935 Y92.628 E1.91136
G1 X102.180 Y92.873 E1.91987
G1 X102.757 Y92.628 E1.93525
G1 X103.002 Y92.873 E1.94377
G1 X103.578 Y92.628 E1.95915
G1 X103.824 Y92.873 E1.96766
G1 X104.400 Y92.628 E1.98305
G1 X104.645 Y92.873 E1.99156
G1 X105.222 Y92.628 E2.00695
G1 X105.467 Y92.873 E2.01546
G1 X106.044 Y92.628 E2.03085
G1 X106.289 Y92.873 E2.03936
G1 X106.866 Y92.628 E2.05474
G1 X107.111 Y92.873 E2.06326
G1 X107.687 Y92.628 E2.07864
G1 X107.933 Y92.873 E2.08715
G1 X108.509 Y92.628 E2.10254
G1 X108.754 Y92.873 E2.11105
G1 X109.331 Y92.628 E2.12644
G1 X109.576 Y92.873 E2.13495
G1 X110.153 Y92.628 E2.15033
G1 X110.398 Y92.873 E2.15885
G1 X110.975 Y92.628 E2.17423
G1 X111.220 Y92.873 E2.18274
G1 X111.796 Y92.628 E2.19813
G1 X112.042 Y92.873 E2.20664
G1 X112.618 Y92.628 E2.22203
G1 X112.863 Y92.873 E2.23054
G1 X113.440 Y92.628 E2.24593
G1 X113.685 Y92.873 E2.25444
G1 X114.262 Y92.628 E2.26982
G1 X114.507 Y92.873 E2.27833
G1 X115.084 Y92.628 E2.29372
G1 X115.329 Y92.873 E2.30223
G1 X115.905 Y92.628 E2.31762
G1 X116.151 Y92.873 E2.32613
G1 X116.727 Y92.628 E2.34152
G1 X116.972 Y92.873 E2.35003
G1 X117.549 Y92.628 E2.36541
G1 X117.794 Y92.873 E2.37393
G1 X118.371 Y92.628 E2.38931
G1 X118.616 Y92.873 E2.39782
G1 X119.193 Y92.628 E2.41321
G1 X119.438 Y92.873 E2.42172
G1 X120.014 Y92.628 E2.43711
G1 X120.260 Y92.873 E2.44562
G1 X120.836 Y92.628 E2.46100
G1 X121.081 Y92.873 E2.46952
G1 X121.658 Y92.628 E2.48490
G1 X121.903 Y92.873 E2.49341
G1 X122.480 Y92.628 E2.50880
G1 X122.725 Y92.873 E2.51731
G1 X123.302 Y92.628 E2.53270
G1 X123.547 Y92.873 E2.54121
G1 X124.123 Y92.628 E2.55660
G1 X124.369 Y92.873 E2.56511
G1 X124.945 Y92.628 E2.58049
G1 X125.190 Y92.873 E2.58901
G1 X125.767 Y92.628 E2.60439
G1 X126.012 Y92.873 E2.61290
G1 X126.589 Y92.628 E2.62829
G1 X126.834 Y92.873 E2.63680
G1 X127.411 Y92.628 E2.65219
G1 X127.656 Y92.873 E2.66070
G1 X128.232 Y92.628 E2.67608
G1 X128.478 Y92.873 E2.68460
G1 X129.054 Y92.628 E2.69998
G1 X129.299 Y92.873 E2.70849
M106 S234
G1 F2160.000 E1.70849
G92 E0
G1 Z0.600 F7800.000
G1 X85.247 Y108.754
G1 F2160.000 E1.00000
G1 X90.247 Y108.754 F1800.000 E1.10610
G1 X90.247 Y111.001 E1.15379
G1 X83.101 Y111.001 E1.30542
G1 X73.099 Y98.499 E1.64516
G1 X85.247 Y98.499 E1.90294
G1 X85.247 Y108.679 E2.11894
G1 X85.747 Y108.254 F7800.000
G1 X90.747 Y108.254 F1800.000 E2.22505
G1 X90.747 Y111.501 E2.29395
G1 X82.861 Y111.501 E2.46130
G1 X72.059 Y97.999 E2.82821
G1 X92.997 Y97.999 E3.27253
G1 X92.997 Y99.498 E3.30431
G1 X85.747 Y99.498 E3.45816
G1 X85.747 Y108.179 E3.64238
G1 F2160.000 E2.64238
G92 E0
G1 X115.253 Y108.754 F7800.000
G1 F2160.000 E1.00000
G1 X115.253 Y98.499 F1800.000 E1.21760
G1 X127.901 Y98.499 E1.48599
G1 X117.899 Y111.001 E1.82572
G1 X109.753 Y111.001 E1.99858
G1 X109.753 Y108.754 E2.04626
G1 X115.178 Y108.754 E2.16138
G1 X114.753 Y108.254 F7800.000
G1 X114.753 Y99.498 F1800.000 E2.34719
G1 X107.003 Y99.498 E2.51165
G1 X107.003 Y97.999 E2.54344
G1 X128.941 Y97.999 E3.00898
G1 X118.139 Y111.501 E3.37589
G1 X109.253 Y111.501 E3.56446
G1 X109.253 Y108.254 E3.63336
G1 X114.678 Y108.254 E3.74848
G1 X114.253 Y107.754 F7800.000
G1 X114.253 Y99.998 F1260.000 E3.91307
G1 X106.503 Y99.998 E4.07753
G1 X106.503 Y98.247 E4.11467
G1 X93.497 Y98.247 E4.39066
G1 X93.497 Y99.998 E4.42780
G1 X86.247 Y99.998 E4.58165
G1 X86.247 Y107.754 E4.74624
G1 X91.247 Y107.754 E4.85234
G1 X91.247 Y112.001 E4.94246
G1 X82.621 Y112.001 E5.12552
G1 X71.019 Y97.499 E5.51961
G1 X129.981 Y97.499 E6.77083
G1 X118.379 Y112.001 E7.16492
G1 X108.753 Y112.001 E7.36920
G1 X108.753 Y107.754 E7.45932
G1 X114.178 Y107.754 E7.57445
G1 X114.753 Y107.754 F7800.000
G1 F2160.000 E6.57445
G92 E0
G1 X130.000 Y93.002 F7800.000
G1 F2160.000 E1.00000
G1 X69.999 Y93.002 F1800.000 E2.27326
G1 X69.999 Y92.499 E2.28391
G1 X130.000 Y92.499 E3.55717
G1 X130.000 Y92.927 E3.56624
G1 X130.500 Y93.502 F7800.000
G1 X69.499 Y93.502 F1260.000 E4.86072
G1 X69.499 Y91.999 E4.89259
G1 X130.500 Y91.999 E6.18707
G1 X130.500 Y93.427 E6.21735
G1 X130.067 Y93.252 F7800.000
G1 F2160.000 E5.21735
G92 E0
G1 X89.850 Y109.857 F7800.000
G1 F2160.000 E1.00000
G1 X89.104 Y110.603 F3600.000 E1.02940
G1 X88.175 Y110.603 E1.05527
G1 X89.628 Y109.151 E1.11252
G1 X88.699 Y109.151 E1.13839
G1 X87.247 Y110.603 E1.19563
G1 X86.318 Y110.603 E1.22150
G1 X87.771 Y109.151 E1.27874
G1 X86.843 Y109.151 E1.30461
G1 X85.390 Y110.603 E1.36186
G1 X84.461 Y110.603 E1.38773
G1 X85.914 Y109.151 E1.44497
G1 X84.986 Y109.151 E1.47084
G1 X83.533 Y110.603 E1.52808
G1 X82.987 Y110.221 E1.54666
G1 X84.850 Y108.358 E1.62008
G1 X84.850 Y107.430 E1.64595
G1 X82.574 Y109.706 E1.73564
G1 X82.161 Y109.190 E1.75404
G1 X84.850 Y106.501 E1.85999
G1 X84.850 Y105.573 E1.88586
G1 X81.749 Y108.674 E2.00807
G1 X81.336 Y108.158 E2.02647
G1 X84.850 Y104.644 E2.16494
G1 X84.850 Y103.716 E2.19081
G1 X80.923 Y107.642 E2.34554
G1 X80.511 Y107.127 E2.36394
G1 X84.850 Y102.787 E2.53493
G1 X84.850 Y101.859 E2.56080
G1 X80.098 Y106.611 E2.74805
G1 X79.685 Y106.095 E2.76646
G1 X84.850 Y100.930 E2.96997
G1 X84.850 Y100.002 E2.99584
G1 X79.273 Y105.579 E3.21561
G1 X78.860 Y105.064 E3.23401
G1 X84.850 Y99.074 E3.47005
G1 X84.098 Y98.897 E3.49156
G1 X78.447 Y104.548 E3.71424
G1 X78.035 Y104.032 E3.73265
G1 X83.170 Y98.897 E3.93500
G1 X82.241 Y98.897 E3.96087
G1 X77.622 Y103.516 E4.14290
G1 X77.209 Y103.000 E4.16131
G1 X81.313 Y98.897 E4.32302
G1 X80.385 Y98.897 E4.34889
G1 X76.797 Y102.485 E4.49027
G1 X76.384 Y101.969 E4.50867
G1 X79.456 Y98.897 E4.62973
G1 X78.528 Y98.897 E4.65560
G1 X75.971 Y101.453 E4.75634
G1 X75.559 Y100.937 E4.77474
G1 X77.599 Y98.897 E4.85515
G1 X76.671 Y98.897 E4.88102
G1 X75.146 Y100.422 E4.94111
G1 X74.733 Y99.906 E4.95952
G1 X75.742 Y98.897 E4.99928
G1 X74.814 Y98.897 E5.02515
G1 X74.321 Y99.390 E5.04459
G1 X92.441 Y98.499 F7800.000
G1 X91.943 Y98.998 F1200.000 E5.05954
G1 X91.734 Y98.499 E5.07100
G1 X91.236 Y98.998 E5.08596
G1 X91.027 Y98.499 E5.09742
G1 X90.529 Y98.998 E5.11237
G1 X90.320 Y98.499 E5.12384
G1 X89.822 Y98.998 E5.13879
G1 X89.613 Y98.499 E5.15025
G1 X89.115 Y98.998 E5.16520
G1 X88.906 Y98.499 E5.17667
G1 X88.408 Y98.998 E5.19162
G1 X88.199 Y98.499 E5.20309
G1 X87.700 Y98.998 E5.21804
G1 X87.491 Y98.499 E5.22950
G1 X86.993 Y98.998 E5.24445
G1 X86.784 Y98.499 E5.25592
G1 X86.286 Y98.998 E5.27087
G1 X86.077 Y98.499 E5.28233
G1 X85.747 Y98.830 E5.29225
G1 X106.653 Y97.873 F7800.000
G1 X93.530 Y97.898 F1200.000 E5.43963
G1 X114.753 Y98.816 F7800.000
