; generated by Slic3r 0.9.11-dev on 2013-08-07 at 21:41:28

; layer_height = 0.3
; perimeters = 3
; top_solid_layers = 3
; bottom_solid_layers = 3
; fill_density = .4
; perimeter_speed = 30
; infill_speed = 60
; travel_speed = 130
; nozzle_diameter = 0.5
; filament_diameter = 3
; extrusion_multiplier = 1
; perimeters extrusion width = 0.50mm
; infill extrusion width = 0.70mm
; solid infill extrusion width = 0.70mm
; top infill extrusion width = 0.70mm
; first layer extrusion width = 0.60mm

G21 ; set units to millimeters
M107
M190 S60 ; wait for bed temperature to be reached
M104 S180 ; set temperature
G28 ; home all axes
M109 S180 ; wait for temperature to be reached
G90 ; use absolute coordinates
G92 E0
M82 ; use absolute distances for extrusion
G1 F2160.000 E-1.00000
G92 E0
G1 Z0.300 F7800.000
G1 X32.748 Y101.019
G1 F2160.000 E1.00000
G1 X100.248 Y70.009 F360.000 E2.82393
G1 X101.588 Y69.559 E2.85864
G1 X102.998 Y69.409 E2.89345
G1 X164.498 Y69.409 E4.40352
G1 X165.778 Y69.539 E4.43511
G1 X167.018 Y69.909 E4.46689
G1 X168.148 Y70.519 E4.49842
G1 X169.148 Y71.339 E4.53017
G1 X169.968 Y72.339 E4.56193
G1 X170.578 Y73.469 E4.59346
G1 X170.948 Y74.709 E4.62523
G1 X171.078 Y75.989 E4.65682
G1 X171.078 Y108.999 E5.46735
G1 X171.068 Y109.409 E5.47742
G1 X170.818 Y113.409 E5.57583
G1 X170.598 Y114.729 E5.60868
G1 X170.108 Y115.979 E5.64165
G1 X169.388 Y117.109 E5.67455
G1 X157.388 Y132.109 E6.14622
G1 X156.348 Y133.149 E6.18233
G1 X155.098 Y133.929 E6.21851
G1 X153.708 Y134.409 E6.25462
G1 X152.248 Y134.579 E6.29071
G1 X48.748 Y134.579 E8.83204
G1 X47.288 Y134.409 E8.86814
G1 X45.898 Y133.929 E8.90424
G1 X44.648 Y133.149 E8.94042
G1 X43.608 Y132.109 E8.97653
G1 X31.608 Y117.109 E9.44820
G1 X30.938 Y116.089 E9.47817
G1 X30.468 Y114.959 E9.50822
G1 X29.218 Y110.959 E9.61112
G1 X28.998 Y109.989 E9.63554
G1 X28.918 Y108.999 E9.65993
G1 X28.918 Y106.999 E9.70903
G1 X29.088 Y105.509 E9.74586
G1 X29.588 Y104.099 E9.78259
G1 X30.398 Y102.839 E9.81937
G1 X31.468 Y101.799 E9.85601
G1 X32.674 Y101.064 E9.89068
G1 F2160.000 E8.89068
G92 E0
G1 X51.300 Y124.700 F7800.000
G1 F2160.000 E1.00000
G1 X56.300 Y124.700 F360.000 E1.12277
G1 X56.300 Y126.555 E1.16830
G1 X49.445 Y126.555 E1.33662
G1 X39.757 Y114.446 E1.71737
G1 X51.300 Y114.446 E2.00079
G1 X51.300 Y124.614 E2.25043
G1 X51.878 Y124.122 F7800.000
G1 X56.878 Y124.122 F360.000 E2.37320
G1 X56.878 Y127.133 E2.44714
G1 X49.167 Y127.133 E2.63649
G1 X38.553 Y113.868 E3.05363
G1 X59.128 Y113.868 E3.55883
G1 X59.128 Y115.130 E3.58983
G1 X51.878 Y115.130 E3.76784
G1 X51.878 Y124.035 E3.98649
G1 F2160.000 E2.98649
G92 E0
G1 X81.698 Y124.700 F7800.000
G1 F2160.000 E1.00000
G1 X81.698 Y114.446 F360.000 E1.25178
G1 X93.741 Y114.446 E1.54747
G1 X84.053 Y126.555 E1.92822
G1 X76.198 Y126.555 E2.12109
G1 X76.198 Y124.700 E2.16662
G1 X81.612 Y124.700 E2.29954
G1 X81.120 Y124.122 F7800.000
G1 X81.120 Y115.130 F360.000 E2.52032
G1 X73.370 Y115.130 E2.71061
G1 X73.370 Y113.868 E2.74161
G1 X94.945 Y113.868 E3.27136
G1 X84.331 Y127.133 E3.68850
G1 X75.620 Y127.133 E3.90240
G1 X75.620 Y124.122 E3.97634
G1 X81.033 Y124.122 E4.10926
G1 X80.541 Y123.543 F7800.000
G1 X80.541 Y115.709 F252.000 E4.30163
G1 X72.791 Y115.709 E4.49192
G1 X72.791 Y113.959 E4.53489
G1 X59.707 Y113.959 E4.85617
G1 X59.707 Y115.709 E4.89914
G1 X52.457 Y115.709 E5.07716
G1 X52.457 Y123.543 E5.26953
G1 X57.457 Y123.543 E5.39230
G1 X57.457 Y127.712 E5.49465
G1 X48.889 Y127.712 E5.70503
G1 X37.349 Y113.289 E6.15855
G1 X96.149 Y113.289 E7.60230
G1 X84.609 Y127.712 E8.05583
G1 X75.041 Y127.712 E8.29076
G1 X75.041 Y123.543 E8.39312
G1 X80.454 Y123.543 E8.52603
G1 X81.120 Y123.543 F7800.000
G1 F2160.000 E7.52603
G92 E0
G1 X96.710 Y108.713 F7800.000
G1 F2160.000 E1.00000
G1 X35.787 Y108.713 F252.000 E2.49589
G1 X35.787 Y107.289 E2.53084
G1 X96.710 Y107.289 E4.02673
G1 X96.710 Y108.626 E4.05955
G1 X96.209 Y108.423 F7800.000
G1 F2160.000 E3.05955
G92 E0
G1 X92.690 Y115.088 F7800.000
G1 F2160.000 E1.00000
G1 X92.468 Y114.866 F720.000 E1.00775
G1 X91.647 Y114.866 E1.02798
G1 X92.326 Y115.544 E1.05162
G1 X91.961 Y116.000 E1.06601
G1 X90.826 Y114.866 E1.10555
G1 X90.005 Y114.866 E1.12578
G1 X91.596 Y116.456 E1.18121
G1 X91.231 Y116.912 E1.19560
G1 X89.184 Y114.866 E1.26692
G1 X88.363 Y114.866 E1.28715
G1 X90.866 Y117.369 E1.37437
G1 X90.501 Y117.825 E1.38876
G1 X87.542 Y114.866 E1.49187
G1 X86.721 Y114.866 E1.51210
G1 X90.136 Y118.281 E1.63110
G1 X89.771 Y118.737 E1.64550
G1 X85.900 Y114.866 E1.78039
G1 X85.079 Y114.866 E1.80062
G1 X89.406 Y119.193 E1.95141
G1 X89.041 Y119.649 E1.96580
G1 X84.258 Y114.866 E2.13249
G1 X83.437 Y114.866 E2.15272
G1 X88.676 Y120.105 E2.33529
G1 X88.311 Y120.561 E2.34969
G1 X82.616 Y114.866 E2.54816
G1 X82.118 Y115.189 E2.56278
G1 X87.946 Y121.017 E2.76589
G1 X87.582 Y121.474 E2.78029
G1 X82.118 Y116.010 E2.97068
G1 X82.118 Y116.831 E2.99091
G1 X87.217 Y121.930 E3.16859
G1 X86.852 Y122.386 E3.18298
G1 X82.118 Y117.652 E3.34794
G1 X82.118 Y118.473 E3.36817
G1 X86.487 Y122.842 E3.52042
G1 X86.122 Y123.298 E3.53481
G1 X82.118 Y119.294 E3.67434
G1 X82.118 Y120.115 E3.69457
G1 X85.757 Y123.754 E3.82138
G1 X85.392 Y124.210 E3.83577
G1 X82.118 Y120.936 E3.94987
G1 X82.118 Y121.757 E3.97010
G1 X85.027 Y124.666 E4.07148
G1 X84.662 Y125.122 E4.08587
G1 X82.118 Y122.578 E4.17454
G1 X82.118 Y123.399 E4.19477
G1 X84.297 Y125.579 E4.27072
G1 X83.932 Y126.035 E4.28511
G1 X82.118 Y124.220 E4.34834
G1 X82.118 Y125.041 E4.36857
G1 X83.212 Y126.135 E4.40671
G1 X82.391 Y126.135 E4.42694
G1 X81.375 Y125.120 E4.46233
G1 X80.554 Y125.120 E4.48256
G1 X81.570 Y126.135 E4.51795
G1 X80.749 Y126.135 E4.53818
G1 X79.733 Y125.120 E4.57357
G1 X78.912 Y125.120 E4.59380
G1 X79.928 Y126.135 E4.62919
G1 X79.107 Y126.135 E4.64942
G1 X78.091 Y125.120 E4.68481
G1 X77.270 Y125.120 E4.70504
G1 X78.286 Y126.135 E4.74043
G1 X77.465 Y126.135 E4.76066
G1 X76.618 Y125.288 E4.79018
G1 X76.618 Y126.109 E4.81041
G1 X76.644 Y126.135 E4.81132
G1 F2160.000 E3.81132
G92 E0
G1 X74.081 Y114.541 F7800.000
G1 F2160.000 E1.00000
G1 X80.649 Y114.541 F240.000 E1.16128
G1 F2160.000 E0.16128
G92 E0
G1 X51.913 Y114.541 F7800.000
G1 F2160.000 E1.00000
G1 X58.481 Y114.541 F240.000 E1.16184
G1 X50.880 Y115.151 F7800.000
G1 X50.595 Y114.866 F720.000 E1.17173
G1 X49.774 Y114.866 E1.19189
G1 X50.880 Y115.972 E1.23029
G1 X50.880 Y116.793 E1.25045
G1 X48.953 Y114.866 E1.31737
G1 X48.132 Y114.866 E1.33752
G1 X50.880 Y117.614 E1.43295
G1 X50.880 Y118.435 E1.45311
G1 X47.311 Y114.866 E1.57704
G1 X46.490 Y114.866 E1.59720
G1 X50.880 Y119.256 E1.74964
G1 X50.880 Y120.077 E1.76980
G1 X45.669 Y114.866 E1.95075
G1 X44.848 Y114.866 E1.97091
G1 X50.880 Y120.898 E2.18037
G1 X50.880 Y121.719 E2.20053
G1 X44.027 Y114.866 E2.43851
G1 X43.206 Y114.866 E2.45867
G1 X50.880 Y122.540 E2.72515
G1 X51.818 Y125.120 F7800.000
G1 X52.834 Y126.135 F720.000 E2.76042
G1 X53.655 Y126.135 E2.78058
G1 X52.639 Y125.120 E2.81584
G1 X53.460 Y125.120 E2.83600
G1 X54.476 Y126.135 E2.87127
G1 X55.297 Y126.135 E2.89143
G1 X54.281 Y125.120 E2.92670
G1 X55.102 Y125.120 E2.94686
G1 X55.880 Y125.898 E2.97388
G1 X50.371 Y126.135 F7800.000
G1 X46.747 Y122.512 F720.000 E3.09971
G1 X43.461 Y118.405 F7800.000
G1 X51.192 Y126.135 F720.000 E3.36815
G1 X52.013 Y126.135 E3.38831
G1 X40.743 Y114.866 E3.77964
G1 X41.564 Y114.866 E3.79980
G1 X50.880 Y124.182 E4.12331
G1 X50.880 Y123.361 E4.14347
G1 X42.385 Y114.866 E4.43846
G1 F2160.000 E3.43846
G92 E0
G1 X36.464 Y108.124 F7800.000
G1 F2160.000 E1.00000
G1 X37.040 Y107.878 F240.000 E1.01537
G1 X37.285 Y108.124 E1.02388
G1 X37.861 Y107.878 E1.03925
G1 X38.106 Y108.124 E1.04776
G1 X38.682 Y107.878 E1.06313
G1 X38.927 Y108.124 E1.07164
G1 X39.503 Y107.878 E1.08701
G1 X39.748 Y108.124 E1.09552
G1 X40.324 Y107.878 E1.11089
G1 X40.569 Y108.124 E1.11940
G1 X41.145 Y107.878 E1.13477
G1 X41.390 Y108.124 E1.14328
G1 X41.966 Y107.878 E1.15865
G1 X42.211 Y108.124 E1.16716
G1 X42.787 Y107.878 E1.18253
G1 X43.032 Y108.124 E1.19104
G1 X43.608 Y107.878 E1.20641
G1 X43.853 Y108.124 E1.21492
G1 X44.429 Y107.878 E1.23029
G1 X44.674 Y108.124 E1.23880
G1 X45.250 Y107.878 E1.25417
G1 X45.495 Y108.124 E1.26268
G1 X46.071 Y107.878 E1.27805
G1 X46.316 Y108.124 E1.28656
G1 X46.892 Y107.878 E1.30193
G1 X47.137 Y108.124 E1.31044
G1 X47.713 Y107.878 E1.32581
G1 X47.959 Y108.124 E1.33432
G1 X48.534 Y107.878 E1.34969
G1 X48.780 Y108.124 E1.35820
G1 X49.355 Y107.878 E1.37357
G1 X49.601 Y108.124 E1.38208
G1 X50.176 Y107.878 E1.39745
G1 X50.422 Y108.124 E1.40597
G1 X50.998 Y107.878 E1.42133
G1 X51.243 Y108.124 E1.42985
G1 X51.819 Y107.878 E1.44521
G1 X52.064 Y108.124 E1.45373
G1 X52.640 Y107.878 E1.46909
G1 X52.885 Y108.124 E1.47761
G1 X53.461 Y107.878 E1.49297
G1 X53.706 Y108.124 E1.50149
G1 X54.282 Y107.878 E1.51686
G1 X54.527 Y108.124 E1.52537
G1 X55.103 Y107.878 E1.54074
G1 X55.348 Y108.124 E1.54925
G1 X55.924 Y107.878 E1.56462
G1 X56.169 Y108.124 E1.57313
G1 X56.745 Y107.878 E1.58850
G1 X56.990 Y108.124 E1.59701
G1 X57.566 Y107.878 E1.61238
G1 X57.811 Y108.124 E1.62089
G1 X58.387 Y107.878 E1.63626
G1 X58.632 Y108.124 E1.64477
G1 X59.208 Y107.878 E1.66014
G1 X59.453 Y108.124 E1.66865
G1 X60.029 Y107.878 E1.68402
G1 X60.274 Y108.124 E1.69253
G1 X60.850 Y107.878 E1.70790
G1 X61.095 Y108.124 E1.71641
G1 X61.671 Y107.878 E1.73178
G1 X61.916 Y108.124 E1.74029
G1 X62.492 Y107.878 E1.75566
G1 X62.737 Y108.124 E1.76417
G1 X63.313 Y107.878 E1.77954
G1 X63.558 Y108.124 E1.78805
G1 X64.134 Y107.878 E1.80342
G1 X64.379 Y108.124 E1.81193
G1 X64.955 Y107.878 E1.82730
G1 X65.200 Y108.124 E1.83581
G1 X65.776 Y107.878 E1.85118
G1 X66.021 Y108.124 E1.85969
G1 X66.597 Y107.878 E1.87506
G1 X66.842 Y108.124 E1.88357
G1 X67.418 Y107.878 E1.89894
G1 X67.663 Y108.124 E1.90745
G1 X68.239 Y107.878 E1.92282
G1 X68.484 Y108.124 E1.93133
G1 X69.060 Y107.878 E1.94670
G1 X69.305 Y108.124 E1.95521
G1 X69.881 Y107.878 E1.97058
G1 X70.126 Y108.124 E1.97909
G1 X70.702 Y107.878 E1.99446
G1 X70.947 Y108.124 E2.00297
G1 X71.523 Y107.878 E2.01834
G1 X71.768 Y108.124 E2.02685
G1 X72.344 Y107.878 E2.04222
G1 X72.589 Y108.124 E2.05073
G1 X73.165 Y107.878 E2.06610
G1 X73.411 Y108.124 E2.07461
G1 X73.986 Y107.878 E2.08998
G1 X74.232 Y108.124 E2.09849
G1 X74.807 Y107.878 E2.11386
G1 X75.053 Y108.124 E2.12237
G1 X75.629 Y107.878 E2.13774
G1 X75.874 Y108.124 E2.14625
G1 X76.450 Y107.878 E2.16162
G1 X76.695 Y108.124 E2.17014
G1 X77.271 Y107.878 E2.18550
G1 X77.516 Y108.124 E2.19402
G1 X78.092 Y107.878 E2.20938
G1 X78.337 Y108.124 E2.21790
G1 X78.913 Y107.878 E2.23326
G1 X79.158 Y108.124 E2.24178
G1 X79.734 Y107.878 E2.25714
G1 X79.979 Y108.124 E2.26566
G1 X80.555 Y107.878 E2.28102
G1 X80.800 Y108.124 E2.28954
G1 X81.376 Y107.878 E2.30491
G1 X81.621 Y108.124 E2.31342
G1 X82.197 Y107.878 E2.32879
G1 X82.442 Y108.124 E2.33730
G1 X83.018 Y107.878 E2.35267
G1 X83.263 Y108.124 E2.36118
G1 X83.839 Y107.878 E2.37655
G1 X84.084 Y108.124 E2.38506
G1 X84.660 Y107.878 E2.40043
G1 X84.905 Y108.124 E2.40894
G1 X85.481 Y107.878 E2.42431
G1 X85.726 Y108.124 E2.43282
G1 X86.302 Y107.878 E2.44819
G1 X86.547 Y108.124 E2.45670
G1 X87.123 Y107.878 E2.47207
G1 X87.368 Y108.124 E2.48058
G1 X87.944 Y107.878 E2.49595
G1 X88.189 Y108.124 E2.50446
G1 X88.765 Y107.878 E2.51983
G1 X89.010 Y108.124 E2.52834
G1 X89.586 Y107.878 E2.54371
G1 X89.831 Y108.124 E2.55222
G1 X90.407 Y107.878 E2.56759
G1 X90.652 Y108.124 E2.57610
G1 X91.228 Y107.878 E2.59147
G1 X91.473 Y108.124 E2.59998
G1 X92.049 Y107.878 E2.61535
G1 X92.294 Y108.124 E2.62386
G1 X92.870 Y107.878 E2.63923
G1 X93.115 Y108.124 E2.64774
G1 X93.691 Y107.878 E2.66311
G1 X93.936 Y108.124 E2.67162
G1 X94.512 Y107.878 E2.68699
G1 X95.578 Y108.124 E2.71385
G1 F2160.000 E1.71385
G92 E0
G1 X118.802 Y124.700 F7800.000
G1 F2160.000 E1.00000
G1 X123.802 Y124.700 F360.000 E1.12277
G1 X123.802 Y126.555 E1.16830
G1 X116.947 Y126.555 E1.33662
G1 X107.259 Y114.446 E1.71737
G1 X118.802 Y114.446 E2.00079
G1 X118.802 Y124.614 E2.25043
G1 X119.380 Y124.122 F7800.000
G1 X124.380 Y124.122 F360.000 E2.37320
G1 X124.380 Y127.133 E2.44714
G1 X116.669 Y127.133 E2.63649
G1 X106.055 Y113.868 E3.05363
G1 X126.630 Y113.868 E3.55883
G1 X126.630 Y115.130 E3.58983
G1 X119.380 Y115.130 E3.76784
G1 X119.380 Y124.035 E3.98649
G1 F2160.000 E2.98649
G92 E0
G1 X149.200 Y124.700 F7800.000
G1 F2160.000 E1.00000
G1 X149.200 Y114.446 F360.000 E1.25178
G1 X161.243 Y114.446 E1.54747
G1 X151.555 Y126.555 E1.92822
G1 X143.700 Y126.555 E2.12109
G1 X143.700 Y124.700 E2.16662
G1 X149.114 Y124.700 E2.29954
G1 X148.622 Y124.122 F7800.000
G1 X148.622 Y115.130 F360.000 E2.52032
G1 X140.872 Y115.130 E2.71061
G1 X140.872 Y113.868 E2.74161
G1 X162.447 Y113.868 E3.27136
G1 X151.833 Y127.133 E3.68850
G1 X143.122 Y127.133 E3.90240
G1 X143.122 Y124.122 E3.97634
G1 X148.535 Y124.122 E4.10926
G1 X148.043 Y123.543 F7800.000
G1 X148.043 Y115.709 F252.000 E4.30163
G1 X140.293 Y115.709 E4.49192
G1 X140.293 Y113.959 E4.53489
G1 X127.209 Y113.959 E4.85617
G1 X127.209 Y115.709 E4.89914
G1 X119.959 Y115.709 E5.07716
G1 X119.959 Y123.543 E5.26953
G1 X124.959 Y123.543 E5.39230
G1 X124.959 Y127.712 E5.49465
G1 X116.391 Y127.712 E5.70503
G1 X104.851 Y113.289 E6.15855
G1 X163.651 Y113.289 E7.60230
G1 X152.111 Y127.712 E8.05583
G1 X142.543 Y127.712 E8.29076
G1 X142.543 Y123.543 E8.39312
G1 X147.956 Y123.543 E8.52603
G1 X148.622 Y123.543 F7800.000
G1 F2160.000 E7.52603
G92 E0
G1 X164.212 Y108.713 F7800.000
G1 F2160.000 E1.00000
G1 X103.289 Y108.713 F252.000 E2.49589
G1 X103.289 Y107.289 E2.53084
G1 X164.212 Y107.289 E4.02673
G1 X164.212 Y108.626 E4.05955
G1 X163.711 Y108.423 F7800.000
G1 F2160.000 E3.05955
G92 E0
G1 X160.192 Y115.088 F7800.000
G1 F2160.000 E1.00000
G1 X159.970 Y114.866 F720.000 E1.00775
G1 X159.149 Y114.866 E1.02798
G1 X159.828 Y115.544 E1.05162
G1 X159.463 Y116.000 E1.06601
G1 X158.328 Y114.866 E1.10555
G1 X157.507 Y114.866 E1.12578
G1 X159.098 Y116.456 E1.18121
G1 X158.733 Y116.912 E1.19560
G1 X156.686 Y114.866 E1.26692
G1 X155.865 Y114.866 E1.28715
G1 X158.368 Y117.369 E1.37437
G1 X158.003 Y117.825 E1.38876
G1 X155.044 Y114.866 E1.49187
G1 X154.223 Y114.866 E1.51210
G1 X157.638 Y118.281 E1.63110
G1 X157.273 Y118.737 E1.64550
G1 X153.402 Y114.866 E1.78039
G1 X152.581 Y114.866 E1.80062
G1 X156.908 Y119.193 E1.95141
G1 X156.543 Y119.649 E1.96580
G1 X151.760 Y114.866 E2.13249
G1 X150.939 Y114.866 E2.15272
G1 X156.178 Y120.105 E2.33529
G1 X155.813 Y120.561 E2.34969
G1 X150.118 Y114.866 E2.54816
G1 X149.620 Y115.189 E2.56278
G1 X155.448 Y121.017 E2.76589
G1 X155.084 Y121.474 E2.78029
G1 X149.620 Y116.010 E2.97068
G1 X149.620 Y116.831 E2.99091
G1 X154.719 Y121.930 E3.16859
G1 X154.354 Y122.386 E3.18298
G1 X149.620 Y117.652 E3.34794
G1 X149.620 Y118.473 E3.36817
G1 X153.989 Y122.842 E3.52042
G1 X153.624 Y123.298 E3.53481
G1 X149.620 Y119.294 E3.67434
G1 X149.620 Y120.115 E3.69457
G1 X153.259 Y123.754 E3.82138
G1 X152.894 Y124.210 E3.83577
G1 X149.620 Y120.936 E3.94987
G1 X149.620 Y121.757 E3.97010
G1 X152.529 Y124.666 E4.07148
G1 X152.164 Y125.122 E4.08587
G1 X149.620 Y122.578 E4.17454
G1 X149.620 Y123.399 E4.19477
G1 X151.799 Y125.579 E4.27072
G1 X151.434 Y126.035 E4.28511
G1 X149.620 Y124.220 E4.34834
G1 X149.620 Y125.041 E4.36857
G1 X150.714 Y126.135 E4.40671
G1 X149.893 Y126.135 E4.42694
G1 X148.877 Y125.120 E4.46233
G1 X148.056 Y125.120 E4.48256
G1 X149.072 Y126.135 E4.51795
G1 X148.251 Y126.135 E4.53818
G1 X147.235 Y125.120 E4.57357
G1 X146.414 Y125.120 E4.59380
G1 X147.430 Y126.135 E4.62919
G1 X146.609 Y126.135 E4.64942
G1 X145.593 Y125.120 E4.68481
G1 X144.772 Y125.120 E4.70504
G1 X145.788 Y126.135 E4.74043
G1 X144.967 Y126.135 E4.76066
G1 X144.120 Y125.288 E4.79018
G1 X144.120 Y126.109 E4.81041
G1 X144.146 Y126.135 E4.81132
G1 F2160.000 E3.81132
G92 E0
G1 X141.583 Y114.541 F7800.000
G1 F2160.000 E1.00000
G1 X148.151 Y114.541 F240.000 E1.16128
G1 F2160.000 E0.16128
G92 E0
G1 X119.415 Y114.541 F7800.000
G1 F2160.000 E1.00000
G1 X125.983 Y114.541 F240.000 E1.16184
G1 X118.382 Y115.151 F7800.000
G1 X118.097 Y114.866 F720.000 E1.17173
G1 X117.276 Y114.866 E1.19189
G1 X118.382 Y115.972 E1.23029
G1 X118.382 Y116.793 E1.25045
G1 X116.455 Y114.866 E1.31737
