; generated by Slic3r 0.9.11-dev on 2013-08-07 at 18:21:03

; layer_height = 0.2
; perimeters = 2
; top_solid_layers = 3
; bottom_solid_layers = 3
; fill_density = .3
; perimeter_speed = 30
; infill_speed = 60
; travel_speed = 130
; nozzle_diameter = 0.5
; filament_diameter = 3
; extrusion_multiplier = 1
; perimeters extrusion width = 0.50mm
; infill extrusion width = 1.02mm
; solid infill extrusion width = 0.85mm
; top infill extrusion width = 0.85mm
; first layer extrusion width = 0.60mm

G21 ; set units to millimeters
M107
M190 S60 ; wait for bed temperature to be reached
M104 S180 ; set temperature
G28 ; home all axes
M109 S180 ; wait for temperature to be reached
G90 ; use absolute coordinates
G92 E0
M82 ; use absolute distances for extrusion
G1 F2160.000 E-1.00000
G92 E0
G1 Z0.300 F7800.000
G1 X65.599 Y86.520
G1 F2160.000 E1.00000
G1 X66.729 Y85.910 F360.000 E1.03153
G1 X67.969 Y85.540 E1.06330
G1 X69.249 Y85.410 E1.09489
G1 X130.749 Y85.410 E2.60497
G1 X132.029 Y85.540 E2.63656
G1 X133.269 Y85.910 E2.66833
G1 X134.399 Y86.520 E2.69986
G1 X135.399 Y87.340 E2.73161
G1 X136.219 Y88.340 E2.76337
G1 X136.829 Y89.470 E2.79490
G1 X137.199 Y90.710 E2.82667
G1 X137.329 Y91.990 E2.85826
G1 X137.329 Y94.000 E2.90762
G1 X137.309 Y94.550 E2.92113
G1 X137.059 Y97.540 E2.99480
G1 X136.749 Y99.040 E3.03241
G1 X136.099 Y100.440 E3.07031
G1 X135.149 Y101.640 E3.10789
G1 X120.149 Y116.650 E3.62893
G1 X119.159 Y117.470 E3.66050
G1 X118.019 Y118.080 E3.69225
G1 X116.779 Y118.450 E3.72402
G1 X115.499 Y118.580 E3.75561
G1 X85.499 Y118.580 E4.49223
G1 X84.219 Y118.450 E4.52382
G1 X82.979 Y118.080 E4.55559
G1 X81.839 Y117.470 E4.58734
G1 X80.849 Y116.650 E4.61890
G1 X65.849 Y101.640 E5.13995
G1 X65.039 Y100.650 E5.17135
G1 X64.429 Y99.530 E5.20267
G1 X63.179 Y96.540 E5.28224
G1 X62.799 Y95.290 E5.31432
G1 X62.669 Y94.000 E5.34616
G1 X62.669 Y91.990 E5.39551
G1 X62.799 Y90.710 E5.42710
G1 X63.169 Y89.470 E5.45888
G1 X63.779 Y88.340 E5.49041
G1 X64.599 Y87.340 E5.52216
G1 X65.532 Y86.575 E5.55178
G1 F2160.000 E4.55178
G92 E0
G1 X85.629 Y99.130 F7800.000
G1 F2160.000 E1.00000
G1 X85.629 Y108.121 F360.000 E1.22078
G1 X90.629 Y108.121 E1.34355
G1 X90.629 Y111.133 E1.41749
G1 X85.859 Y111.133 E1.53461
G1 X72.594 Y97.867 E1.99524
G1 X92.879 Y97.867 E2.49333
G1 X92.879 Y99.130 E2.52432
G1 X85.716 Y99.130 E2.70021
G1 F2160.000 E1.70021
G92 E0
G1 X114.871 Y99.130 F7800.000
G1 F2160.000 E1.00000
G1 X107.121 Y99.130 F360.000 E1.19029
G1 X107.121 Y97.867 E1.22129
G1 X128.406 Y97.867 E1.74393
G1 X115.141 Y111.133 E2.20456
G1 X109.371 Y111.133 E2.34623
G1 X109.371 Y108.121 E2.42017
G1 X114.871 Y108.121 E2.55522
G1 X114.871 Y99.216 E2.77387
G1 X114.292 Y99.708 F7800.000
G1 X106.542 Y99.708 F252.000 E2.96416
G1 X106.542 Y97.958 E3.00713
G1 X93.458 Y97.958 E3.32841
G1 X93.458 Y99.708 E3.37138
G1 X86.208 Y99.708 E3.54940
G1 X86.208 Y107.543 E3.74176
G1 X91.208 Y107.543 E3.86453
G1 X91.208 Y111.711 E3.96689
G1 X85.620 Y111.711 E4.10409
G1 X71.197 Y97.289 E4.60491
G1 X129.803 Y97.289 E6.04390
G1 X115.380 Y111.711 E6.54472
G1 X108.792 Y111.711 E6.70648
G1 X108.792 Y107.543 E6.80883
G1 X114.292 Y107.543 E6.94388
G1 X114.292 Y99.795 E7.13412
G1 X114.292 Y99.130 F7800.000
G1 F2160.000 E6.13412
G92 E0
G1 X130.461 Y93.712 F7800.000
G1 F2160.000 E1.00000
G1 X69.538 Y93.712 F252.000 E2.49589
G1 X69.538 Y92.289 E2.53084
G1 X130.461 Y92.289 E4.02673
G1 X130.461 Y93.625 E4.05955
G1 X129.960 Y93.423 F7800.000
G1 F2160.000 E3.05955
G92 E0
G1 X127.029 Y98.287 F7800.000
G1 F2160.000 E1.00000
G1 X127.211 Y98.469 F720.000 E1.00636
G1 X126.800 Y98.880 E1.02072
G1 X126.207 Y98.287 E1.04144
G1 X125.384 Y98.287 E1.06174
G1 X126.389 Y99.291 E1.09682
G1 X125.978 Y99.703 E1.11118
G1 X124.562 Y98.287 E1.16062
G1 X123.739 Y98.287 E1.18092
G1 X125.566 Y100.114 E1.24472
G1 X125.155 Y100.525 E1.25908
G1 X122.916 Y98.287 E1.33723
G1 X122.094 Y98.287 E1.35754
G1 X124.744 Y100.937 E1.45005
G1 X124.332 Y101.348 E1.46441
G1 X121.271 Y98.287 E1.57128
G1 X120.449 Y98.287 E1.59159
G1 X123.921 Y101.759 E1.71282
G1 X123.510 Y102.170 E1.72718
G1 X119.626 Y98.287 E1.86277
G1 X118.803 Y98.287 E1.88307
G1 X123.099 Y102.582 E2.03302
G1 X122.687 Y102.993 E2.04738
G1 X117.981 Y98.287 E2.21169
G1 X117.158 Y98.287 E2.23199
G1 X122.276 Y103.404 E2.41066
G1 X121.865 Y103.816 E2.42502
G1 X116.336 Y98.287 E2.61804
G1 X115.513 Y98.287 E2.63835
G1 X121.453 Y104.227 E2.84573
G1 X121.042 Y104.638 E2.86009
G1 X115.290 Y98.886 E3.06090
G1 X115.290 Y99.709 E3.08120
G1 X120.631 Y105.049 E3.26766
G1 X120.220 Y105.461 E3.28201
G1 X115.290 Y100.531 E3.45411
G1 X115.290 Y101.354 E3.47441
G1 X119.808 Y105.872 E3.63215
G1 X119.397 Y106.283 E3.64650
G1 X115.290 Y102.177 E3.78988
G1 X115.290 Y102.999 E3.81019
G1 X118.986 Y106.695 E3.93920
G1 X118.574 Y107.106 E3.95356
G1 X115.290 Y103.822 E4.06822
G1 X115.290 Y104.644 E4.08852
G1 X118.163 Y107.517 E4.18882
G1 X117.752 Y107.929 E4.20318
G1 X115.290 Y105.467 E4.28912
G1 X115.290 Y106.289 E4.30943
G1 X117.340 Y108.340 E4.38101
G1 X116.929 Y108.751 E4.39537
G1 X115.290 Y107.112 E4.45259
G1 X115.290 Y107.935 E4.47289
G1 X116.518 Y109.162 E4.51576
G1 X116.107 Y109.574 E4.53011
G1 X115.074 Y108.541 E4.56618
G1 X114.251 Y108.541 E4.58649
G1 X115.695 Y109.985 E4.63691
G1 X115.284 Y110.396 E4.65127
G1 X113.428 Y108.541 E4.71605
G1 X112.606 Y108.541 E4.73636
G1 X114.779 Y110.713 E4.81221
G1 X113.956 Y110.713 E4.83252
G1 X111.783 Y108.541 E4.90837
G1 X110.961 Y108.541 E4.92868
G1 X113.133 Y110.713 E5.00453
G1 X112.311 Y110.713 E5.02484
G1 X110.138 Y108.541 E5.10069
G1 X109.790 Y109.015 E5.11522
G1 X111.488 Y110.713 E5.17450
G1 X110.666 Y110.713 E5.19481
G1 X109.790 Y109.838 E5.22537
G1 X109.790 Y110.660 E5.24568
G1 X109.843 Y110.713 E5.24753
G1 F2160.000 E4.24753
G92 E0
G1 X108.364 Y98.541 F7800.000
G1 F2160.000 E1.00000
G1 X114.122 Y98.541 F240.000 E1.14138
G1 F2160.000 E0.14138
G92 E0
G1 X86.154 Y98.541 F7800.000
G1 F2160.000 E1.00000
G1 X91.912 Y98.541 F240.000 E1.14214
G1 X85.210 Y98.419 F7800.000
G1 X85.078 Y98.287 F720.000 E1.14674
G1 X84.255 Y98.287 E1.16694
G1 X85.210 Y99.242 E1.20009
G1 X85.210 Y100.064 E1.22029
G1 X83.432 Y98.287 E1.28201
G1 X82.610 Y98.287 E1.30221
G1 X85.210 Y100.887 E1.39250
G1 X85.210 Y101.709 E1.41270
G1 X81.787 Y98.287 E1.53155
G1 X80.965 Y98.287 E1.55174
G1 X85.210 Y102.532 E1.69916
G1 X85.210 Y103.354 E1.71935
G1 X80.142 Y98.287 E1.89533
G1 X79.319 Y98.287 E1.91553
G1 X85.210 Y104.177 E2.12007
G1 X85.210 Y105.000 E2.14027
G1 X78.497 Y98.287 E2.37337
G1 X77.674 Y98.287 E2.39357
G1 X85.210 Y105.822 E2.65524
G1 X85.210 Y106.645 E2.67544
G1 X76.852 Y98.287 E2.96567
G1 X76.029 Y98.287 E2.98587
G1 X85.210 Y107.467 E3.30466
G1 X86.811 Y110.713 F7800.000
G1 X74.384 Y98.287 F720.000 E3.73618
G1 X75.207 Y98.287 E3.75638
G1 X87.633 Y110.713 E4.18789
G1 X88.456 Y110.713 E4.20809
G1 X86.283 Y108.541 E4.28353
G1 X87.106 Y108.541 E4.30373
G1 X89.278 Y110.713 E4.37918
G1 X90.101 Y110.713 E4.39938
G1 X87.928 Y108.541 E4.47482
G1 X88.751 Y108.541 E4.49502
G1 X90.210 Y110.000 E4.54568
G1 X90.210 Y109.177 E4.56588
G1 X89.573 Y108.541 E4.58798
G1 F2160.000 E3.58798
G92 E0
G1 X70.866 Y93.123 F7800.000
G1 F2160.000 E1.00000
G1 X70.620 Y92.878 F240.000 E1.00851
G1 X71.688 Y93.123 E1.03541
G1 X72.266 Y92.878 E1.05081
G1 X72.511 Y93.123 E1.05933
G1 X73.088 Y92.878 E1.07473
G1 X73.333 Y93.123 E1.08324
G1 X73.911 Y92.878 E1.09864
G1 X74.156 Y93.123 E1.10716
G1 X74.733 Y92.878 E1.12256
G1 X74.978 Y93.123 E1.13107
G1 X75.556 Y92.878 E1.14648
G1 X75.801 Y93.123 E1.15499
G1 X76.379 Y92.878 E1.17039
G1 X76.624 Y93.123 E1.17890
G1 X77.201 Y92.878 E1.19431
G1 X77.446 Y93.123 E1.20282
G1 X78.024 Y92.878 E1.21822
G1 X78.269 Y93.123 E1.22673
G1 X78.846 Y92.878 E1.24214
G1 X79.091 Y93.123 E1.25065
G1 X79.669 Y92.878 E1.26605
G1 X79.914 Y93.123 E1.27456
G1 X80.491 Y92.878 E1.28997
G1 X80.737 Y93.123 E1.29848
G1 X81.314 Y92.878 E1.31388
G1 X81.559 Y93.123 E1.32239
G1 X82.137 Y92.878 E1.33780
G1 X82.382 Y93.123 E1.34631
G1 X82.959 Y92.878 E1.36171
G1 X83.204 Y93.123 E1.37022
G1 X83.782 Y92.878 E1.38563
G1 X84.027 Y93.123 E1.39414
G1 X84.604 Y92.878 E1.40954
G1 X84.849 Y93.123 E1.41806
G1 X85.427 Y92.878 E1.43346
G1 X85.672 Y93.123 E1.44197
G1 X86.250 Y92.878 E1.45737
G1 X86.495 Y93.123 E1.46589
G1 X87.072 Y92.878 E1.48129
G1 X87.317 Y93.123 E1.48980
G1 X87.895 Y92.878 E1.50521
G1 X88.140 Y93.123 E1.51372
G1 X88.717 Y92.878 E1.52912
G1 X88.962 Y93.123 E1.53763
G1 X89.540 Y92.878 E1.55304
G1 X89.785 Y93.123 E1.56155
G1 X90.362 Y92.878 E1.57695
G1 X90.608 Y93.123 E1.58546
G1 X91.185 Y92.878 E1.60087
G1 X91.430 Y93.123 E1.60938
G1 X92.008 Y92.878 E1.62478
G1 X92.253 Y93.123 E1.63329
G1 X92.830 Y92.878 E1.64870
G1 X93.075 Y93.123 E1.65721
G1 X93.653 Y92.878 E1.67261
G1 X93.898 Y93.123 E1.68112
G1 X94.475 Y92.878 E1.69653
G1 X94.720 Y93.123 E1.70504
G1 X95.298 Y92.878 E1.72044
G1 X95.543 Y93.123 E1.72895
G1 X96.121 Y92.878 E1.74436
G1 X96.366 Y93.123 E1.75287
G1 X96.943 Y92.878 E1.76827
G1 X97.188 Y93.123 E1.77679
G1 X97.766 Y92.878 E1.79219
G1 X98.011 Y93.123 E1.80070
G1 X98.588 Y92.878 E1.81610
G1 X98.833 Y93.123 E1.82462
G1 X99.411 Y92.878 E1.84002
G1 X99.656 Y93.123 E1.84853
G1 X100.233 Y92.878 E1.86394
G1 X100.479 Y93.123 E1.87245
G1 X101.056 Y92.878 E1.88785
G1 X101.301 Y93.123 E1.89636
G1 X101.879 Y92.878 E1.91177
G1 X102.124 Y93.123 E1.92028
G1 X102.701 Y92.878 E1.93568
G1 X102.946 Y93.123 E1.94419
G1 X103.524 Y92.878 E1.95960
G1 X103.769 Y93.123 E1.96811
G1 X104.346 Y92.878 E1.98351
G1 X104.591 Y93.123 E1.99202
G1 X105.169 Y92.878 E2.00743
G1 X105.414 Y93.123 E2.01594
G1 X105.992 Y92.878 E2.03134
G1 X106.237 Y93.123 E2.03985
G1 X106.814 Y92.878 E2.05526
G1 X107.059 Y93.123 E2.06377
G1 X107.637 Y92.878 E2.07917
G1 X107.882 Y93.123 E2.08769
G1 X108.459 Y92.878 E2.10309
G1 X108.704 Y93.123 E2.11160
G1 X109.282 Y92.878 E2.12700
G1 X109.527 Y93.123 E2.13552
G1 X110.104 Y92.878 E2.15092
G1 X110.350 Y93.123 E2.15943
G1 X110.927 Y92.878 E2.17483
G1 X111.172 Y93.123 E2.18335
G1 X111.750 Y92.878 E2.19875
G1 X111.995 Y93.123 E2.20726
G1 X112.572 Y92.878 E2.22267
G1 X112.817 Y93.123 E2.23118
G1 X113.395 Y92.878 E2.24658
G1 X113.640 Y93.123 E2.25509
G1 X114.217 Y92.878 E2.27050
G1 X114.462 Y93.123 E2.27901
G1 X115.040 Y92.878 E2.29441
G1 X115.285 Y93.123 E2.30292
G1 X115.863 Y92.878 E2.31833
G1 X116.108 Y93.123 E2.32684
G1 X116.685 Y92.878 E2.34224
G1 X116.930 Y93.123 E2.35075
G1 X117.508 Y92.878 E2.36616
G1 X117.753 Y93.123 E2.37467
G1 X118.330 Y92.878 E2.39007
G1 X118.575 Y93.123 E2.39858
G1 X119.153 Y92.878 E2.41399
G1 X119.398 Y93.123 E2.42250
G1 X119.975 Y92.878 E2.43790
G1 X120.221 Y93.123 E2.44641
G1 X120.798 Y92.878 E2.46182
G1 X121.043 Y93.123 E2.47033
G1 X121.621 Y92.878 E2.48573
G1 X121.866 Y93.123 E2.49425
G1 X122.443 Y92.878 E2.50965
G1 X122.688 Y93.123 E2.51816
G1 X123.266 Y92.878 E2.53356
G1 X123.511 Y93.123 E2.54208
G1 X124.088 Y92.878 E2.55748
G1 X124.333 Y93.123 E2.56599
G1 X124.911 Y92.878 E2.58139
G1 X125.156 Y93.123 E2.58991
G1 X125.734 Y92.878 E2.60531
G1 X125.979 Y93.123 E2.61382
G1 X126.556 Y92.878 E2.62923
G1 X126.801 Y93.123 E2.63774
G1 X127.379 Y92.878 E2.65314
G1 X127.624 Y93.123 E2.66165
G1 X129.872 Y92.903 E2.71711
M106 S255
G1 F2160.000 E1.71711
G92 E0
G1 Z0.500 F7800.000
G1 X85.747 Y99.248
G1 F2160.000 E1.00000
G1 X85.747 Y108.004 F1760.293 E1.12387
G1 X90.747 Y108.004 E1.19461
G1 X90.747 Y111.251 E1.24054
G1 X85.811 Y111.251 E1.31038
G1 X72.310 Y97.749 E1.58049
G1 X92.997 Y97.749 E1.87316
G1 X92.997 Y99.248 E1.89435
G1 X85.822 Y99.248 E1.99586
G1 F2160.000 E0.99586
G92 E0
G1 X114.753 Y99.248 F7800.000
G1 F2160.000 E1.00000
G1 X107.003 Y99.248 F1760.293 E1.10964
G1 X107.003 Y97.749 E1.13083
G1 X128.690 Y97.749 E1.43765
G1 X115.189 Y111.251 E1.70776
G1 X109.253 Y111.251 E1.79175
G1 X109.253 Y108.004 E1.83768
G1 X114.753 Y108.004 E1.91549
G1 X114.753 Y99.323 E2.03830
G1 X114.253 Y99.748 F7800.000
G1 X106.503 Y99.748 F1232.205 E2.14794
G1 X106.503 Y97.997 E2.17270
G1 X93.497 Y97.997 E2.35670
G1 X93.497 Y99.748 E2.38145
G1 X86.247 Y99.748 E2.48402
G1 X86.247 Y107.504 E2.59375
G1 X91.247 Y107.504 E2.66448
G1 X91.247 Y111.751 E2.72456
G1 X85.604 Y111.751 E2.80440
G1 X71.102 Y97.249 E3.09453
G1 X129.898 Y97.249 E3.92631
G1 X115.396 Y111.751 E4.21643
G1 X108.753 Y111.751 E4.31042
G1 X108.753 Y107.504 E4.37050
G1 X114.253 Y107.504 E4.44831
G1 X114.253 Y99.823 E4.55697
G1 X114.253 Y99.248 F7800.000
G1 F2160.000 E3.55697
G92 E0
G1 X130.000 Y93.252 F7800.000
G1 F2160.000 E1.00000
G1 X69.999 Y93.252 F1760.293 E1.84884
G1 X69.999 Y92.749 E1.85594
G1 X130.000 Y92.749 E2.70478
G1 X130.000 Y93.177 E2.71082
G1 X130.500 Y93.752 F7800.000
G1 X69.499 Y93.752 F1232.205 E3.57381
G1 X69.499 Y92.249 E3.59506
G1 X130.500 Y92.249 E4.45805
G1 X130.500 Y93.677 E4.47824
G1 X130.067 Y93.502 F7800.000
G1 F2160.000 E3.47824
G92 E0
G1 X90.316 Y110.694 F7800.000
G1 F2160.000 E1.00000
G1 X90.191 Y110.819 F3520.585 E1.00407
G1 X89.039 Y110.819 E1.03060
G1 X90.316 Y109.543 E1.07219
G1 X90.272 Y108.435 E1.09773
G1 X87.888 Y110.819 E1.17541
G1 X86.736 Y110.819 E1.20195
G1 X89.120 Y108.435 E1.27963
G1 X87.968 Y108.435 E1.30616
G1 X85.787 Y110.617 E1.37725
G1 X85.211 Y110.041 E1.39601
G1 X86.817 Y108.435 E1.44833
G1 X85.665 Y108.435 E1.47486
G1 X84.635 Y109.465 E1.50843
G1 X84.059 Y108.889 E1.52719
G1 X85.316 Y107.633 E1.56812
G1 X85.316 Y106.481 E1.59465
G1 X83.484 Y108.313 E1.65435
G1 X82.908 Y107.738 E1.67311
G1 X85.316 Y105.330 E1.75156
G1 X85.316 Y104.178 E1.77810
G1 X82.332 Y107.162 E1.87532
G1 X81.756 Y106.586 E1.89408
G1 X85.316 Y103.026 E2.01006
G1 X85.316 Y101.875 E2.03659
G1 X81.180 Y106.010 E2.17133
G1 X80.605 Y105.434 E2.19010
G1 X85.316 Y100.723 E2.34360
G1 X85.316 Y99.572 E2.37013
G1 X80.029 Y104.858 E2.54240
G1 X79.453 Y104.283 E2.56116
G1 X85.316 Y98.420 E2.75219
G1 X84.403 Y98.181 E2.77392
G1 X78.877 Y103.707 E2.95398
G1 X78.301 Y103.131 E2.97274
G1 X83.251 Y98.181 E3.13404
G1 X82.100 Y98.181 E3.16057
G1 X77.725 Y102.555 E3.30310
G1 X77.150 Y101.979 E3.32186
G1 X80.948 Y98.181 E3.44563
G1 X79.797 Y98.181 E3.47217
G1 X76.574 Y101.404 E3.57717
G1 X75.998 Y100.828 E3.59594
G1 X78.645 Y98.181 E3.68218
G1 X77.493 Y98.181 E3.70871
G1 X75.422 Y100.252 E3.77620
G1 X74.846 Y99.676 E3.79496
G1 X76.342 Y98.181 E3.84368
G1 X75.190 Y98.181 E3.87021
G1 X74.271 Y99.100 E3.90017
G1 X73.695 Y98.525 E3.91893
G1 X74.038 Y98.181 E3.93013
G1 X92.497 Y98.694 F7800.000
G1 X92.234 Y98.249 F1173.528 E3.93743
G1 X91.736 Y98.748 E3.94740
G1 X91.527 Y98.249 E3.95505
G1 X91.029 Y98.748 E3.96501
G1 X90.820 Y98.249 E3.97266
G1 X90.322 Y98.748 E3.98262
G1 X90.113 Y98.249 E3.99027
G1 X89.615 Y98.748 E4.00024
G1 X89.406 Y98.249 E4.00788
G1 X88.908 Y98.748 E4.01785
G1 X88.699 Y98.249 E4.02549
G1 X88.200 Y98.748 E4.03546
G1 X87.991 Y98.249 E4.04310
G1 X87.493 Y98.748 E4.05307
G1 X87.284 Y98.249 E4.06071
G1 X86.786 Y98.748 E4.07068
G1 X86.577 Y98.249 E4.07832
G1 X86.079 Y98.748 E4.08829
G1 X85.870 Y98.249 E4.09593
G1 X106.444 Y97.599 F7800.000
G1 X93.668 Y97.648 F1173.528 E4.19163
G1 X114.753 Y98.359 F7800.000
G1 X114.364 Y98.748 F1173.528 E4.19941
G1 X114.155 Y98.249 E4.20705
G1 X113.657 Y98.748 E4.21702
G1 X113.448 Y98.249 E4.22466
G1 X112.950 Y98.748 E4.23463
G1 X112.741 Y98.249 E4.24227
G1 X112.243 Y98.748 E4.25224
G1 X112.034 Y98.249 E4.25988
G1 X111.536 Y98.748 E4.26985
G1 X111.327 Y98.249 E4.27749
G1 X110.829 Y98.748 E4.28746
G1 X110.620 Y98.249 E4.29510
G1 X110.122 Y98.748 E4.30507
G1 X109.913 Y98.249 E4.31271
G1 X109.414 Y98.748 E4.32268
G1 X109.205 Y98.249 E4.33032
G1 X108.707 Y98.748 E4.34029
G1 X108.498 Y98.249 E4.34793
G1 X108.000 Y98.748 E4.35790
G1 X107.503 Y98.538 E4.36554
G1 X107.791 Y98.249 E4.37131
G1 X115.184 Y98.493 F7800.000
G1 X115.497 Y98.181 F3520.585 E4.38138
G1 X116.648 Y98.181 E4.40768
G1 X115.184 Y99.645 E4.45495
G1 X115.184 Y100.796 E4.48125
G1 X117.800 Y98.181 E4.56571
G1 X118.951 Y98.181 E4.59201
G1 X115.184 Y101.948 E4.71366
G1 X115.184 Y103.100 E4.73996
G1 X120.103 Y98.181 E4.89880
G1 X121.255 Y98.181 E4.92510
G1 X115.184 Y104.251 E5.12113
G1 X115.184 Y105.403 E5.14743
G1 X122.406 Y98.181 E5.38066
G1 X123.558 Y98.181 E5.40695
G1 X115.184 Y106.554 E5.67737
