; generated by Slic3r 0.9.11-dev on 2013-07-19 at 23:20:37

; layer_height = 0.2
; perimeters = 1
; top_solid_layers = 3
; bottom_solid_layers = 3
; fill_density = .5
; perimeter_speed = 25
; infill_speed = 50
; travel_speed = 160
; nozzle_diameter = 0.5
; filament_diameter = 3
; extrusion_multiplier = 1
; perimeters extrusion width = 0.50mm
; infill extrusion width = 1.02mm
; solid infill extrusion width = 0.85mm
; top infill extrusion width = 0.85mm
; first layer extrusion width = 1.00mm

G21 ; set units to millimeters
M107
M104 S200 ; set temperature
G28 ; home all axes
M109 S200 ; wait for temperature to be reached
G90 ; use absolute coordinates
G92 E0
M82 ; use absolute distances for extrusion
G1 F2160.000 E-1.00000
G92 E0
G1 Z0.500 F9600.000
G1 X60.002 Y57.728
G1 F2160.000 E1.00000
G1 X109.452 Y61.878 F300.000 E4.13352
G1 X149.592 Y65.428 E6.67808
G1 X150.462 Y65.528 E6.73338
G1 X153.292 Y66.048 E6.91507
G1 X153.872 Y66.178 E6.95260
G1 X154.552 Y66.368 E6.99719
G1 X155.192 Y66.578 E7.03972
G1 X157.412 Y67.438 E7.19006
G1 X158.592 Y67.998 E7.27253
G1 X159.132 Y68.288 E7.31124
G1 X161.172 Y69.528 E7.46198
G1 X161.682 Y69.868 E7.50069
G1 X162.252 Y70.288 E7.54540
G1 X162.742 Y70.688 E7.58534
G1 X164.522 Y72.268 E7.73563
G1 X165.002 Y72.738 E7.77805
G1 X165.482 Y73.258 E7.82274
G1 X165.842 Y73.678 E7.85767
G1 X167.312 Y75.548 E8.00787
G1 X167.712 Y76.118 E8.05184
G1 X168.362 Y77.178 E8.13035
G1 X169.482 Y79.288 E8.28120
G1 X169.762 Y79.878 E8.32244
G1 X170.032 Y80.528 E8.36688
G1 X170.232 Y81.088 E8.40443
G1 X170.952 Y83.358 E8.55481
G1 X171.122 Y83.978 E8.59540
G1 X171.272 Y84.668 E8.63999
G1 X171.372 Y85.258 E8.67778
G1 X171.672 Y87.618 E8.82800
G1 X171.722 Y88.298 E8.87106
G1 X171.742 Y89.008 E8.91591
G1 X171.732 Y89.548 E8.95001
G1 X171.602 Y92.128 E9.11313
G1 X168.852 Y126.558 E11.29416
G1 X168.772 Y127.208 E11.33551
G1 X168.662 Y127.828 E11.37528
G1 X168.372 Y128.908 E11.44589
G1 X167.512 Y131.358 E11.60985
G1 X167.062 Y132.378 E11.68025
G1 X166.762 Y132.928 E11.71981
G1 X166.122 Y133.898 E11.79319
G1 X164.512 Y135.938 E11.95729
G1 X163.752 Y136.758 E12.02789
G1 X163.282 Y137.188 E12.06812
G1 X162.372 Y137.888 E12.14061
G1 X160.192 Y139.298 E12.30455
G1 X159.652 Y139.608 E12.34387
G1 X159.092 Y139.878 E12.38313
G1 X158.512 Y140.118 E12.42276
G1 X157.542 Y140.438 E12.48726
G1 X155.022 Y141.068 E12.65129
G1 X154.412 Y141.188 E12.69054
G1 X153.792 Y141.258 E12.72994
G1 X152.962 Y141.308 E12.78245
G1 X120.692 Y142.418 E14.82136
G1 X84.112 Y142.328 E17.13123
G1 X83.612 Y142.308 E17.16283
G1 X52.642 Y140.038 E19.12369
G1 X51.792 Y139.928 E19.17781
G1 X49.192 Y139.408 E19.34524
G1 X48.542 Y139.248 E19.38751
G1 X47.902 Y139.018 E19.43046
G1 X47.322 Y138.778 E19.47009
G1 X46.702 Y138.478 E19.51359
G1 X46.112 Y138.128 E19.55690
G1 X43.912 Y136.648 E19.72433
G1 X43.412 Y136.278 E19.76361
G1 X42.942 Y135.858 E19.80341
G1 X42.492 Y135.418 E19.84315
G1 X42.012 Y134.888 E19.88831
G1 X41.582 Y134.318 E19.93339
G1 X40.112 Y132.118 E20.10047
G1 X39.762 Y131.538 E20.14325
G1 X39.472 Y130.928 E20.18590
G1 X39.232 Y130.348 E20.22553
G1 X38.952 Y129.518 E20.28085
G1 X29.242 Y93.908 E22.61156
G1 X28.952 Y92.678 E22.69135
G1 X28.522 Y90.378 E22.83911
G1 X28.442 Y89.788 E22.87670
G1 X28.342 Y88.658 E22.94834
G1 X28.252 Y86.318 E23.09621
G1 X28.272 Y85.148 E23.17010
G1 X28.302 Y84.658 E23.20110
G1 X28.532 Y82.338 E23.34831
G1 X28.712 Y81.158 E23.42368
G1 X28.812 Y80.678 E23.45465
G1 X29.362 Y78.418 E23.60152
G1 X29.522 Y77.868 E23.63769
G1 X29.872 Y76.858 E23.70519
G1 X30.722 Y74.678 E23.85294
G1 X30.962 Y74.138 E23.89025
G1 X31.462 Y73.128 E23.96142
G1 X32.612 Y71.098 E24.10874
G1 X32.922 Y70.608 E24.14536
G1 X33.562 Y69.688 E24.21612
G1 X34.982 Y67.848 E24.36289
G1 X35.292 Y67.468 E24.39386
G1 X35.782 Y66.918 E24.44037
G1 X37.802 Y64.938 E24.61898
G1 X38.672 Y64.178 E24.69193
G1 X39.042 Y63.888 E24.72161
G1 X40.922 Y62.498 E24.86925
G1 X41.422 Y62.158 E24.90743
G1 X42.042 Y61.778 E24.95335
G1 X44.392 Y60.498 E25.12233
G1 X44.942 Y60.218 E25.16130
G1 X45.612 Y59.928 E25.20740
G1 X48.102 Y58.988 E25.37546
G1 X48.702 Y58.788 E25.41540
G1 X49.392 Y58.598 E25.46059
G1 X52.022 Y58.018 E25.63065
G1 X52.542 Y57.918 E25.66409
G1 X53.252 Y57.818 E25.70937
G1 X56.012 Y57.598 E25.88420
G1 X56.542 Y57.578 E25.91769
G1 X57.672 Y57.588 E25.98905
G1 X59.869 Y57.719 E26.12799
G1 F2160.000 E25.12799
G92 E0
G1 X57.863 Y82.649 F9600.000
G1 F2160.000 E1.00000
G1 X58.299 Y82.770 F300.000 E1.02861
G1 X58.780 Y82.978 E1.06169
G1 X59.231 Y83.252 E1.09503
G1 X59.642 Y83.588 E1.12852
G1 X60.000 Y83.978 E1.16196
G1 X60.302 Y84.413 E1.19540
G1 X60.539 Y84.887 E1.22883
G1 X60.709 Y85.387 E1.26220
G1 X60.808 Y85.912 E1.29594
G1 X60.831 Y86.444 E1.32954
G1 X60.782 Y86.966 E1.36268
G1 X60.661 Y87.478 E1.39589
G1 X60.469 Y87.971 E1.42928
G1 X60.209 Y88.434 E1.46284
G1 X59.887 Y88.856 E1.49635
G1 X59.510 Y89.229 E1.52985
G1 X59.084 Y89.546 E1.56335
G1 X58.618 Y89.800 E1.59686
G1 X58.121 Y89.987 E1.63037
G1 X57.604 Y90.103 E1.66388
G1 X57.000 Y90.140 E1.70203
G1 X56.549 Y90.114 E1.73058
G1 X56.031 Y90.010 E1.76394
G1 X55.527 Y89.832 E1.79771
G1 X55.053 Y89.586 E1.83145
G1 X54.623 Y89.279 E1.86480
G1 X54.239 Y88.915 E1.89823
G1 X53.909 Y88.500 E1.93167
G1 X53.640 Y88.044 E1.96511
G1 X53.437 Y87.555 E1.99855
G1 X53.305 Y87.042 E2.03199
G1 X53.244 Y86.516 E2.06543
G1 X53.258 Y85.986 E2.09887
G1 X53.346 Y85.463 E2.13236
G1 X53.504 Y84.961 E2.16564
G1 X53.730 Y84.485 E2.19893
G1 X54.023 Y84.042 E2.23241
G1 X54.373 Y83.645 E2.26585
G1 X54.775 Y83.301 E2.29930
G1 X55.222 Y83.015 E2.33279
G1 X55.702 Y82.796 E2.36606
G1 X56.207 Y82.645 E2.39936
G1 X56.731 Y82.566 E2.43284
G1 X57.260 Y82.560 E2.46623
G1 X57.732 Y82.621 E2.49630
G1 F2160.000 E1.49630
G92 E0
G1 X53.853 Y122.746 F9600.000
G1 F2160.000 E1.00000
G1 X54.607 Y123.051 F300.000 E1.05136
G1 X55.186 Y123.622 E1.10272
G1 X55.503 Y124.371 E1.15408
G1 X55.509 Y125.185 E1.20544
G1 X55.203 Y125.938 E1.25680
G1 X54.632 Y126.518 E1.30817
G1 X53.883 Y126.835 E1.35953
G1 X53.070 Y126.841 E1.41089
G1 X52.316 Y126.535 E1.46225
G1 X51.737 Y125.964 E1.51361
G1 X51.420 Y125.215 E1.56497
G1 X51.414 Y124.402 E1.61633
G1 X51.719 Y123.648 E1.66769
G1 X52.290 Y123.068 E1.71905
G1 X53.040 Y122.752 E1.77041
G1 X53.719 Y122.747 E1.81332
G1 F2160.000 E0.81332
G92 E0
G1 X79.770 Y124.366 F9600.000
G1 F2160.000 E1.00000
G1 X79.903 Y126.253 F300.000 E1.11944
G1 X77.546 Y126.749 E1.27153
G1 X77.364 Y124.155 E1.43571
G1 X77.957 Y121.610 E1.60070
G1 X80.197 Y122.533 E1.75367
G1 X79.801 Y124.235 E1.86404
G1 F2160.000 E0.86404
G92 E0
G1 X82.080 Y124.537 F9600.000
G1 F2160.000 E1.00000
G1 X82.249 Y123.812 F300.000 E1.04703
G1 X82.624 Y123.168 E1.09406
G1 X83.172 Y122.664 E1.14109
G1 X83.844 Y122.344 E1.18812
G1 X84.581 Y122.236 E1.23515
G1 X85.317 Y122.350 E1.28218
G1 X85.987 Y122.676 E1.32921
G1 X86.531 Y123.185 E1.37624
G1 X86.900 Y123.832 E1.42326
G1 X87.063 Y124.559 E1.47030
G1 X87.004 Y125.301 E1.51732
G1 X86.729 Y125.993 E1.56435
G1 X86.262 Y126.574 E1.61138
G1 X85.645 Y126.990 E1.65841
G1 X84.932 Y127.207 E1.70544
G1 X84.187 Y127.204 E1.75247
G1 X83.477 Y126.981 E1.79950
G1 X82.863 Y126.559 E1.84653
G1 X82.401 Y125.975 E1.89356
G1 X82.132 Y125.280 E1.94059
G1 X82.089 Y124.671 E1.97916
G1 F2160.000 E0.97916
G92 E0
G1 X89.375 Y124.418 F9600.000
G1 F2160.000 E1.00000
G1 X88.962 Y122.571 F300.000 E1.11951
G1 X91.214 Y121.673 E1.27259
G1 X91.783 Y124.223 E1.43752
G1 X91.576 Y126.815 E1.60174
G1 X89.223 Y126.294 E1.75396
G1 X89.361 Y124.549 E1.86447
G1 F2160.000 E0.86447
G92 E0
G1 X102.600 Y89.379 F9600.000
G1 F2160.000 E1.00000
G1 X102.137 Y89.197 F300.000 E1.03141
G1 X101.706 Y88.948 E1.06282
G1 X101.317 Y88.638 E1.09424
G1 X100.979 Y88.273 E1.12566
G1 X100.699 Y87.862 E1.15707
G1 X100.483 Y87.414 E1.18848
G1 X100.336 Y86.938 E1.21989
G1 X100.262 Y86.447 E1.25131
G1 X100.262 Y86.321 E1.25923
G1 X100.262 Y85.949 E1.28272
G1 X100.337 Y85.457 E1.31414
G1 X100.483 Y84.982 E1.34555
G1 X100.699 Y84.534 E1.37697
G1 X100.980 Y84.123 E1.40838
G1 X101.318 Y83.758 E1.43979
G1 X101.707 Y83.448 E1.47120
G1 X102.138 Y83.199 E1.50262
G1 X102.601 Y83.018 E1.53403
G1 X103.086 Y82.907 E1.56545
G1 X103.582 Y82.870 E1.59686
G1 X104.078 Y82.907 E1.62828
G1 X104.563 Y83.018 E1.65969
G1 X105.026 Y83.200 E1.69110
G1 X105.457 Y83.449 E1.72251
G1 X105.846 Y83.759 E1.75393
G1 X106.184 Y84.124 E1.78534
G1 X106.465 Y84.535 E1.81675
G1 X106.680 Y84.983 E1.84817
G1 X106.827 Y85.458 E1.87958
G1 X106.846 Y85.582 E1.88750
G1 X106.901 Y85.950 E1.91100
G1 X106.901 Y86.448 E1.94241
G1 X106.827 Y86.940 E1.97382
G1 X106.680 Y87.415 E2.00524
G1 X106.464 Y87.863 E2.03665
G1 X106.184 Y88.274 E2.06807
G1 X105.845 Y88.639 E2.09948
G1 X105.456 Y88.949 E2.13089
G1 X105.025 Y89.198 E2.16231
G1 X104.909 Y89.243 E2.17023
G1 X104.562 Y89.379 E2.19372
G1 X104.077 Y89.490 E2.22513
G1 X103.581 Y89.527 E2.25655
G1 X103.085 Y89.490 E2.28796
G1 X102.730 Y89.409 E2.31092
G1 F2160.000 E1.31092
G92 E0
G1 X146.074 Y88.103 F9600.000
G1 F2160.000 E1.00000
G1 X146.286 Y87.885 F300.000 E1.01919
G1 X146.590 Y87.669 E1.04271
G1 X146.927 Y87.511 E1.06623
G1 X147.287 Y87.416 E1.08975
G1 X147.658 Y87.386 E1.11326
G1 X148.028 Y87.423 E1.13678
G1 X148.387 Y87.525 E1.16031
G1 X148.721 Y87.690 E1.18382
G1 X149.020 Y87.912 E1.20734
G1 X149.312 Y88.241 E1.23512
G1 X149.477 Y88.497 E1.25432
G1 X149.620 Y88.840 E1.27783
G1 X149.699 Y89.204 E1.30135
G1 X149.712 Y89.577 E1.32487
G1 X149.658 Y89.945 E1.34839
G1 X149.540 Y90.298 E1.37191
G1 X149.360 Y90.625 E1.39543
G1 X149.125 Y90.913 E1.41895
G1 X148.842 Y91.156 E1.44246
G1 X148.521 Y91.344 E1.46599
G1 X148.171 Y91.471 E1.48950
G1 X147.804 Y91.534 E1.51302
G1 X147.431 Y91.530 E1.53653
G1 X147.065 Y91.460 E1.56005
G1 X146.718 Y91.326 E1.58357
G1 X146.400 Y91.132 E1.60708
G1 X146.122 Y90.884 E1.63061
G1 X145.893 Y90.591 E1.65412
G1 X145.719 Y90.261 E1.67764
G1 X145.608 Y89.906 E1.70116
G1 X145.561 Y89.536 E1.72468
G1 X145.582 Y89.164 E1.74820
G1 X145.668 Y88.802 E1.77171
G1 X145.818 Y88.461 E1.79524
G1 X145.990 Y88.206 E1.81462
G1 F2160.000 E0.81462
G92 E0
G1 X152.154 Y122.573 F9600.000
G1 F2160.000 E1.00000
G1 X152.838 Y122.635 F300.000 E1.04335
G1 X153.465 Y122.915 E1.08669
G1 X153.966 Y123.383 E1.13004
G1 X154.289 Y123.989 E1.17338
G1 X154.397 Y124.667 E1.21674
G1 X154.279 Y125.343 E1.26008
G1 X153.948 Y125.945 E1.30342
G1 X153.440 Y126.406 E1.34677
G1 X152.809 Y126.678 E1.39012
G1 X152.125 Y126.729 E1.43347
G1 X151.461 Y126.556 E1.47681
G1 X150.889 Y126.177 E1.52016
G1 X150.471 Y125.632 E1.56351
G1 X150.252 Y124.981 E1.60685
G1 X150.257 Y124.295 E1.65020
G1 X150.485 Y123.647 E1.69355
G1 X150.910 Y123.108 E1.73689
G1 X151.488 Y122.737 E1.78024
G1 X152.024 Y122.605 E1.81513
G1 F2160.000 E0.81513
G92 E0
G1 X125.849 Y121.100 F9600.000
G1 F2160.000 E1.00000
G1 X126.824 Y122.837 F300.000 E1.12580
G1 X125.027 Y123.515 E1.24711
G1 X124.101 Y121.872 E1.36622
G1 X123.253 Y121.068 E1.43996
G1 X123.059 Y120.884 E1.45686
G1 X121.364 Y120.046 E1.57626
G1 X121.965 Y118.217 E1.69781
G1 X124.165 Y119.309 E1.85289
G1 X125.620 Y120.692 E1.97964
G1 X125.783 Y120.983 E2.00069
G1 F2160.000 E1.00069
G92 E0
G1 X117.876 Y120.713 F9600.000
G1 F2160.000 E1.00000
G1 X117.633 Y120.827 F300.000 E1.01690
G1 X116.571 Y121.792 E1.10755
G1 X115.606 Y123.424 E1.22728
G1 X113.839 Y122.676 E1.34841
G1 X115.091 Y120.566 E1.50328
G1 X116.579 Y119.219 E1.63003
G1 X118.811 Y118.177 E1.78558
G1 X119.336 Y120.029 E1.90716
G1 X117.997 Y120.656 E2.00054
G1 F2160.000 E1.00054
G92 E0
G1 X118.904 Y122.741 F9600.000
G1 F2160.000 E1.00000
G1 X119.582 Y122.421 F300.000 E1.04732
G1 X120.323 Y122.314 E1.09463
G1 X120.519 Y122.345 E1.10717
G1 X121.063 Y122.431 E1.14195
G1 X121.736 Y122.761 E1.18927
G1 X122.282 Y123.275 E1.23658
G1 X122.652 Y123.927 E1.28390
G1 X122.813 Y124.658 E1.33122
G1 X122.797 Y124.856 E1.34376
G1 X122.752 Y125.405 E1.37854
G1 X122.473 Y126.101 E1.42585
G1 X122.002 Y126.683 E1.47317
G1 X121.380 Y127.101 E1.52049
G1 X120.662 Y127.316 E1.56781
G1 X119.913 Y127.311 E1.61512
G1 X119.198 Y127.085 E1.66244
G1 X118.582 Y126.659 E1.70976
G1 X118.119 Y126.069 E1.75708
G1 X117.850 Y125.370 E1.80439
G1 X117.800 Y124.622 E1.85171
G1 X117.972 Y123.893 E1.89903
G1 X118.351 Y123.247 E1.94634
G1 X118.805 Y122.831 E1.98521
G1 F2160.000 E0.98521
G92 E0
G1 X119.281 Y129.507 F9600.000
G1 F2160.000 E1.00000
G1 X119.536 Y129.589 F300.000 E1.01690
G1 X120.972 Y129.604 E1.10755
G1 X122.782 Y129.066 E1.22683
G1 X123.586 Y130.802 E1.34761
G1 X121.229 Y131.498 E1.50276
G1 X119.222 Y131.474 E1.62951
G1 X116.878 Y130.720 E1.78503
G1 X117.745 Y129.015 E1.90580
G1 X119.154 Y129.466 E1.99921
G1 F2160.000 E0.99921
G92 E0
G1 X118.724 Y132.856 F9600.000
G1 F2160.000 E1.00000
G1 X118.475 Y132.911 F150.000 E1.01608
G1 X118.256 Y133.020 E1.03154
G1 X118.032 Y133.236 E1.05120
G1 X117.874 Y133.505 E1.07092
G1 X117.789 Y133.754 E1.08751
G1 X117.581 Y134.111 E1.11363
G1 X117.068 Y134.759 E1.16579
G1 X117.038 Y133.939 E1.21764
G1 X117.077 Y133.529 E1.24361
G1 X117.158 Y133.280 E1.26019
G1 X117.188 Y132.970 E1.27982
G1 X117.144 Y132.687 E1.29794
G1 X117.055 Y132.470 E1.31274
G1 X116.886 Y132.271 E1.32921
G1 X116.682 Y132.140 E1.34455
G1 X116.428 Y132.033 E1.36194
G1 X116.174 Y132.012 E1.37802
G1 X115.933 Y132.052 E1.39348
G1 X115.655 Y132.192 E1.41314
G1 X115.425 Y132.403 E1.43286
G1 X115.270 Y132.616 E1.44945
G1 X114.965 Y132.896 E1.47557
G1 X114.285 Y133.364 E1.52773
G1 X114.434 Y132.810 E1.56393
G1 X114.399 Y132.810 E1.56615
G1 X114.656 Y132.191 E1.60847
G1 X114.807 Y131.977 E1.62506
G1 X114.926 Y131.690 E1.64469
G1 X114.968 Y131.406 E1.66280
G1 X114.947 Y131.172 E1.67761
G1 X114.844 Y130.932 E1.69408
G1 X114.688 Y130.747 E1.70941
G1 X114.476 Y130.570 E1.72681
G1 X114.240 Y130.475 E1.74288
G1 X113.998 Y130.442 E1.75834
G1 X113.691 Y130.494 E1.77800
G1 X113.409 Y130.628 E1.79772
G1 X113.198 Y130.786 E1.81431
G1 X112.825 Y130.963 E1.84044
G1 X112.036 Y131.210 E1.89260
G1 X112.474 Y130.515 E1.94444
G1 X112.736 Y130.199 E1.97041
G1 X112.944 Y130.038 E1.98699
G1 X113.143 Y129.799 E2.00662
G1 X113.266 Y129.540 E2.02474
G1 X113.315 Y129.311 E2.03954
G1 X113.288 Y129.052 E2.05601
G1 X113.193 Y128.828 E2.07135
G1 X113.043 Y128.597 E2.08874
G1 X112.845 Y128.437 E2.10482
G1 X112.623 Y128.333 E2.12027
G1 X112.314 Y128.293 E2.13994
G1 X112.005 Y128.338 E2.15966
G1 X111.758 Y128.426 E2.17625
G1 X111.349 Y128.486 E2.20237
G1 X110.523 Y128.489 E2.25453
G1 X111.145 Y127.954 E2.30637
G1 X111.490 Y127.729 E2.33234
G1 X111.736 Y127.637 E2.34892
G1 X111.996 Y127.467 E2.36855
G1 X112.190 Y127.256 E2.38667
G1 X112.304 Y127.051 E2.40147
G1 X112.355 Y126.795 E2.41794
G1 X112.330 Y126.554 E2.43328
G1 X112.255 Y126.289 E2.45067
G1 X112.113 Y126.078 E2.46675
G1 X111.931 Y125.913 E2.48220
G1 X111.648 Y125.784 E2.50187
G1 X111.340 Y125.735 E2.52159
G1 X111.077 Y125.747 E2.53818
G1 X110.668 Y125.683 E2.56430
G1 X109.878 Y125.443 E2.61646
G1 X110.631 Y125.116 E2.66831
G1 X111.026 Y125.002 E2.69427
G1 X111.288 Y124.987 E2.71086
G1 X111.587 Y124.901 E2.73049
G1 X111.835 Y124.756 E2.74861
G1 X112.004 Y124.594 E2.76341
G1 X112.128 Y124.365 E2.77988
G1 X112.175 Y124.126 E2.79521
G1 X112.182 Y123.851 E2.81261
G1 X112.108 Y123.607 E2.82869
G1 X111.983 Y123.397 E2.84414
G1 X111.751 Y123.190 E2.86380
G1 X111.470 Y123.052 E2.88352
G1 X111.216 Y122.986 E2.90011
G1 X110.844 Y122.805 E2.92624
G1 X110.160 Y122.342 E2.97840
G1 X110.976 Y122.251 E3.03026
G1 X111.387 Y122.259 E3.05622
G1 X111.642 Y122.322 E3.07281
G1 X111.953 Y122.328 E3.09244
G1 X112.232 Y122.263 E3.11056
G1 X112.442 Y122.158 E3.12536
G1 X112.628 Y121.975 E3.14183
G1 X112.743 Y121.761 E3.15716
G1 X112.831 Y121.500 E3.17455
G1 X112.832 Y121.245 E3.19063
G1 X112.775 Y121.007 E3.20609
G1 X112.614 Y120.741 E3.22575
G1 X112.386 Y120.527 E3.24547
G1 X112.163 Y120.389 E3.26206
G1 X111.861 Y120.106 E3.28819
G1 X111.343 Y119.462 E3.34035
G1 X112.150 Y119.616 E3.39220
G1 X112.540 Y119.745 E3.41816
G1 X112.766 Y119.880 E3.43475
G1 X113.061 Y119.977 E3.45438
G1 X113.347 Y119.997 E3.47250
G1 X113.578 Y119.959 E3.48730
G1 X113.810 Y119.839 E3.50377
G1 X113.983 Y119.669 E3.51910
G1 X114.144 Y119.445 E3.53650
