; generated by Slic3r 0.9.11-dev on 2013-07-18 at 21:40:18

; layer_height = 0.3
; perimeters = 3
; top_solid_layers = 3
; bottom_solid_layers = 3
; fill_density = .3
; perimeter_speed = 40
; infill_speed = 60
; travel_speed = 130
; nozzle_diameter = 0.5
; filament_diameter = 3
; extrusion_multiplier = 1
; perimeters extrusion width = 0.50mm
; infill extrusion width = 0.70mm
; solid infill extrusion width = 0.70mm
; top infill extrusion width = 0.70mm
; first layer extrusion width = 1.00mm

G21 ; set units to millimeters
M107
M104 S200 ; set temperature
G28 ; home all axes
M109 S200 ; wait for temperature to be reached
G90 ; use absolute coordinates
G92 E0
M82 ; use absolute distances for extrusion
G1 F2160.000 E-1.00000
G92 E0
G1 Z0.500 F7800.000
G1 X48.230 Y67.687
G1 F2160.000 E1.00000
G1 X49.810 Y67.077 F720.000 E1.10695
G1 X51.490 Y66.877 E1.21378
G1 X57.230 Y66.877 E1.57624
G1 X149.940 Y67.537 E7.43061
G1 X151.280 Y67.677 E7.51568
G1 X152.560 Y68.077 E7.60036
G1 X153.740 Y68.717 E7.68513
G1 X154.780 Y69.567 E7.76995
G1 X155.630 Y70.617 E7.85525
G1 X156.260 Y71.797 E7.93972
G1 X156.650 Y73.087 E8.02482
G1 X156.780 Y74.427 E8.10983
G1 X156.780 Y91.627 E9.19593
G1 X156.690 Y92.727 E9.26562
G1 X156.430 Y93.797 E9.33516
G1 X144.930 Y128.397 E11.63751
G1 X144.340 Y129.707 E11.72823
G1 X143.490 Y130.867 E11.81904
G1 X142.420 Y131.817 E11.90939
G1 X141.180 Y132.527 E11.99962
G1 X139.820 Y132.967 E12.08988
G1 X138.390 Y133.117 E12.18068
G1 X126.790 Y133.117 E12.91316
G1 X125.730 Y133.037 E12.98029
G1 X124.700 Y132.797 E13.04707
G1 X49.400 Y108.837 E18.03684
G1 X48.030 Y108.227 E18.13153
G1 X46.830 Y107.347 E18.22550
G1 X45.730 Y106.337 E18.31980
G1 X44.780 Y105.267 E18.41015
G1 X44.080 Y104.027 E18.50007
G1 X43.640 Y102.677 E18.58973
G1 X43.500 Y101.257 E18.67983
G1 X43.500 Y74.767 E20.35255
G1 X43.650 Y73.337 E20.44335
G1 X44.090 Y71.977 E20.53361
G1 X44.800 Y70.737 E20.62384
G1 X45.750 Y69.667 E20.71419
G1 X46.850 Y68.667 E20.80806
G1 X48.121 Y67.764 E20.90648
G1 F2160.000 E19.90648
G92 E0
G1 X76.932 Y76.665 F7800.000
G1 F2160.000 E1.00000
G1 X95.468 Y76.665 F720.000 E2.17050
G1 X95.468 Y95.202 E3.34100
G1 X76.932 Y95.202 E4.51149
G1 X76.932 Y76.799 E5.67353
G1 X76.039 Y75.772 F7800.000
G1 X96.361 Y75.772 F720.000 E6.95677
G1 X96.361 Y96.094 E8.24001
G1 X76.039 Y96.094 E9.52325
G1 X76.039 Y75.906 E10.79803
G1 X75.146 Y74.880 F7800.000
G1 X97.254 Y74.880 F360.000 E12.19401
G1 X97.254 Y96.987 E13.58998
G1 X75.146 Y96.987 E14.98596
G1 X75.146 Y75.014 E16.37348
G1 X75.919 Y75.326 F7800.000
G1 X94.821 Y77.334
G1 X94.799 Y77.312 F1080.000 E16.37549
G1 X93.523 Y77.312 E16.45687
G1 X94.821 Y78.610 E16.57396
G1 X94.821 Y79.885 E16.65534
G1 X92.248 Y77.312 E16.88753
G1 X90.972 Y77.312 E16.96891
G1 X94.821 Y81.161 E17.31619
G1 X94.821 Y82.437 E17.39757
G1 X89.697 Y77.312 E17.85994
G1 X88.421 Y77.312 E17.94132
G1 X94.821 Y83.712 E18.51878
G1 X94.821 Y84.988 E18.60016
G1 X87.146 Y77.312 E19.29271
G1 X85.870 Y77.312 E19.37409
G1 X94.821 Y86.263 E20.18174
G1 X94.821 Y87.539 E20.26312
G1 X84.594 Y77.312 E21.18585
G1 X83.319 Y77.312 E21.26724
G1 X94.821 Y88.814 E22.30506
G1 X94.821 Y90.090 E22.38644
G1 X82.043 Y77.312 E23.53936
G1 X80.768 Y77.312 E23.62074
G1 X94.821 Y91.366 E24.88875
G1 X94.821 Y92.641 E24.97013
G1 X79.492 Y77.312 E26.35323
G1 X78.217 Y77.312 E26.43461
G1 X94.821 Y93.917 E27.93280
G1 X94.183 Y94.554 E27.99035
G1 X77.579 Y77.950 E29.48854
G1 X77.579 Y79.226 E29.56992
G1 X92.908 Y94.554 E30.95302
G1 X91.632 Y94.554 E31.03441
G1 X77.579 Y80.501 E32.30241
G1 X77.579 Y81.777 E32.38380
G1 X90.357 Y94.554 E33.53671
G1 X89.081 Y94.554 E33.61810
G1 X77.579 Y83.052 E34.65592
G1 X77.579 Y84.328 E34.73730
G1 X87.806 Y94.554 E35.66004
G1 X86.530 Y94.554 E35.74142
G1 X77.579 Y85.603 E36.54906
G1 X77.579 Y86.879 E36.63045
G1 X85.254 Y94.554 E37.32300
G1 X83.979 Y94.554 E37.40438
G1 X77.579 Y88.154 E37.98184
G1 X77.579 Y89.430 E38.06322
G1 X82.703 Y94.554 E38.52559
G1 X81.428 Y94.554 E38.60697
G1 X77.579 Y90.706 E38.95425
G1 X77.579 Y91.981 E39.03563
G1 X80.152 Y94.554 E39.26782
G1 X78.877 Y94.554 E39.34920
G1 X77.579 Y93.257 E39.46629
G1 X77.579 Y94.532 E39.54768
G1 X77.601 Y94.554 E39.54968
G1 F2160.000 E38.54968
G92 E0
G1 X57.565 Y101.331 F7800.000
G1 F2160.000 E1.00000
G1 X56.989 Y101.856 F540.000 E1.04924
G1 X56.091 Y98.713 E1.25567
G1 X57.843 Y98.713 E1.36634
G1 X57.844 Y101.072 E1.51529
G1 X57.663 Y101.240 E1.53087
G1 X56.821 Y101.097 F7800.000
G1 F2160.000 E0.53087
G92 E0
G1 X51.118 Y101.331 F7800.000
G1 F2160.000 E1.00000
G1 X50.840 Y101.072 F540.000 E1.02397
G1 X50.840 Y98.713 E1.17293
G1 X52.593 Y98.713 E1.28360
G1 X51.695 Y101.856 E1.49002
G1 X51.216 Y101.422 E1.53086
G1 X51.201 Y100.960 F7800.000
G1 F2160.000 E0.53086
G92 E0
G1 X53.729 Y89.033 F7800.000
G1 F2160.000 E1.00000
G1 X53.238 Y88.879 F540.000 E1.03250
G1 X53.238 Y87.171 E1.14032
G1 X53.729 Y87.035 E1.17250
G1 X53.729 Y86.356 E1.21542
G1 X54.955 Y86.356 E1.29281
G1 X54.955 Y87.001 E1.33356
G1 X55.446 Y87.155 E1.36606
G1 X55.446 Y88.862 E1.47387
G1 X54.955 Y88.998 E1.50605
G1 X54.955 Y89.678 E1.54897
G1 X53.729 Y89.678 E1.62636
G1 X53.729 Y89.166 E1.65864
G1 X52.836 Y89.689 F7800.000
G1 X52.345 Y89.535 F540.000 E1.69114
G1 X52.345 Y86.492 E1.88327
G1 X52.836 Y86.356 E1.91546
G1 X52.837 Y84.906 E2.00706
G1 X53.318 Y85.273 E2.04531
G1 X53.670 Y85.419 E2.06938
G1 X54.013 Y85.463 E2.09121
G1 X54.670 Y85.463 E2.13272
G1 X55.013 Y85.419 E2.15455
G1 X55.365 Y85.273 E2.17861
G1 X55.847 Y84.905 E2.21687
G1 X55.847 Y86.345 E2.30776
G1 X56.338 Y86.498 E2.34026
G1 X56.338 Y89.541 E2.53240
G1 X55.847 Y89.677 E2.56458
G1 X55.847 Y91.128 E2.65619
G1 X55.365 Y90.761 E2.69445
G1 X55.013 Y90.615 E2.71851
G1 X54.670 Y90.570 E2.74034
G1 X54.013 Y90.570 E2.78185
G1 X53.670 Y90.615 E2.80368
G1 X53.318 Y90.761 E2.82774
G1 X52.836 Y91.128 E2.86600
G1 X52.836 Y89.823 E2.94843
G1 X52.940 Y89.184 F7800.000
G1 F2160.000 E1.94843
G92 E0
G1 X57.566 Y74.703 F7800.000
G1 F2160.000 E1.00000
G1 X57.844 Y74.961 F540.000 E1.02397
G1 X57.843 Y77.320 E1.17293
G1 X56.091 Y77.320 E1.28360
G1 X56.989 Y74.177 E1.49002
G1 X57.468 Y74.611 E1.53086
G1 X57.482 Y75.073 F7800.000
G1 F2160.000 E0.53086
G92 E0
G1 X51.118 Y74.702 F7800.000
G1 F2160.000 E1.00000
G1 X51.695 Y74.177 F540.000 E1.04924
G1 X52.593 Y77.320 E1.25567
G1 X50.840 Y77.320 E1.36634
G1 X50.840 Y74.961 E1.51529
G1 X51.020 Y74.793 E1.53087
G1 X51.862 Y74.936 F7800.000
G1 F2160.000 E0.53087
G92 E0
G1 X55.959 Y93.699 F7800.000
G1 F2160.000 E1.00000
G1 X55.988 Y91.858 F360.000 E1.11631
G1 X55.700 Y91.430 E1.14887
G1 X55.959 Y93.699 F7800.000
G1 X55.924 Y96.103 F360.000 E1.30068
G1 X55.934 Y97.065 E1.36140
G1 X55.960 Y97.921 E1.41549
G1 F2160.000 E0.41549
G92 E0
G1 X52.719 Y97.917 F7800.000
G1 F2160.000 E1.00000
G1 X52.709 Y97.089 F360.000 E1.05230
G1 X52.702 Y96.147 E1.11180
G1 X52.689 Y93.791 E1.26054
G1 X52.705 Y92.014 E1.37276
G1 X52.984 Y91.432 E1.41355
G1 X52.981 Y84.597 F7800.000
G1 X52.695 Y84.176 F360.000 E1.44571
G1 X52.682 Y80.613 E1.67069
G1 X52.682 Y79.748 E1.72528
G1 X52.694 Y78.868 E1.78090
G1 X52.723 Y78.112 E1.82862
G1 F2160.000 E0.82862
G92 E0
G1 X55.965 Y78.116 F7800.000
G1 F2160.000 E1.00000
G1 X55.943 Y80.901 F360.000 E1.17583
G1 X55.931 Y83.311 E1.32805
G1 X55.946 Y84.212 E1.38493
G1 X55.715 Y84.451 E1.40593
G1 X55.700 Y84.602 E1.41547
G1 X54.500 Y87.855 F7800.000
G1 X54.492 Y87.848 F360.000 E1.41611
G1 F2160.000 E0.41611
G92 E0
G1 X129.032 Y91.665 F7800.000
G1 F2160.000 E1.00000
G1 X136.168 Y91.665 F720.000 E1.45064
G1 X136.168 Y124.002 E3.49254
G1 X129.032 Y124.002 E3.94318
G1 X129.032 Y91.799 E5.97663
G1 X128.139 Y90.772 F7800.000
G1 X137.061 Y90.772 F720.000 E6.54001
G1 X137.061 Y124.894 E8.69466
G1 X128.139 Y124.894 E9.25804
G1 X128.139 Y90.906 E11.40423
G1 X140.632 Y89.402 F7800.000
G1 X140.632 Y76.665 F540.000 E12.20848
G1 X147.668 Y76.665 E12.65280
G1 X147.668 Y89.402 E13.45706
G1 X140.766 Y89.402 E13.89293
G1 X139.739 Y90.294 F7800.000
G1 X139.739 Y75.772 F720.000 E14.80992
G1 X148.561 Y75.772 E15.36698
G1 X148.561 Y90.294 E16.28398
G1 X139.873 Y90.294 E16.83258
G1 X124.568 Y89.402 F7800.000
G1 X117.532 Y89.402 F540.000 E17.27691
G1 X117.532 Y76.665 E18.08116
G1 X124.568 Y76.665 E18.52548
G1 X124.568 Y89.268 E19.32128
G1 X125.461 Y90.294 F7800.000
G1 X116.639 Y90.294 F720.000 E19.87835
G1 X116.639 Y75.772 E20.79534
G1 X125.461 Y75.772 E21.35240
G1 X125.461 Y90.160 E22.26094
G1 X126.354 Y89.880 F7800.000
G1 X138.846 Y89.880 F360.000 E23.04980
G1 X138.846 Y74.880 E23.99698
G1 X149.454 Y74.880 E24.66679
G1 X149.454 Y91.187 E25.69652
G1 X137.954 Y91.187 E26.42269
G1 X137.954 Y125.787 E28.60753
G1 X127.246 Y125.787 E29.28365
G1 X127.246 Y91.187 E31.46848
G1 X115.746 Y91.187 E32.19466
G1 X115.746 Y74.880 E33.22439
G1 X126.354 Y74.880 E33.89419
G1 X126.354 Y89.746 E34.83292
G1 X126.354 Y90.772 F7800.000
G1 X135.017 Y92.312
G1 X135.521 Y92.816 F1080.000 E34.87828
G1 X135.521 Y94.089 E34.95931
G1 X133.745 Y92.312 E35.11927
G1 X132.472 Y92.312 E35.20029
G1 X135.521 Y95.362 E35.47484
G1 X135.521 Y96.634 E35.55587
G1 X131.199 Y92.312 E35.94500
G1 X129.926 Y92.312 E36.02603
G1 X135.521 Y97.907 E36.52976
G1 X135.521 Y99.180 E36.61079
G1 X129.679 Y93.338 E37.13678
G1 X129.679 Y94.610 E37.21781
G1 X135.521 Y100.453 E37.74381
G1 X135.521 Y101.726 E37.82484
G1 X129.679 Y95.883 E38.35083
G1 X129.679 Y97.156 E38.43186
G1 X135.521 Y102.998 E38.95785
G1 X135.521 Y104.271 E39.03888
G1 X129.679 Y98.429 E39.56488
G1 X129.679 Y99.702 E39.64590
G1 X135.521 Y105.544 E40.17190
G1 X135.521 Y106.817 E40.25293
G1 X129.679 Y100.974 E40.77892
G1 X129.679 Y102.247 E40.85995
G1 X135.521 Y108.090 E41.38594
G1 X135.521 Y109.362 E41.46697
G1 X129.679 Y103.520 E41.99297
G1 X129.679 Y104.793 E42.07400
G1 X135.521 Y110.635 E42.59999
G1 X135.521 Y111.908 E42.68102
G1 X129.679 Y106.066 E43.20701
G1 X129.679 Y107.338 E43.28804
G1 X135.521 Y113.181 E43.81404
G1 X135.521 Y114.453 E43.89506
G1 X129.679 Y108.611 E44.42106
G1 X129.679 Y109.884 E44.50209
G1 X135.521 Y115.726 E45.02808
G1 X135.521 Y116.999 E45.10911
G1 X129.679 Y111.157 E45.63511
G1 X129.679 Y112.430 E45.71613
G1 X135.521 Y118.272 E46.24213
G1 X135.521 Y119.545 E46.32316
G1 X129.679 Y113.702 E46.84915
G1 X129.679 Y114.975 E46.93018
G1 X135.521 Y120.817 E47.45617
G1 X135.521 Y122.090 E47.53720
G1 X129.679 Y116.248 E48.06320
G1 X129.679 Y117.521 E48.14423
G1 X135.513 Y123.354 E48.66945
G1 X134.240 Y123.354 E48.75048
G1 X129.679 Y118.793 E49.16112
G1 X129.679 Y120.066 E49.24214
G1 X132.967 Y123.354 E49.53819
G1 X131.694 Y123.354 E49.61922
G1 X129.679 Y121.339 E49.80067
G1 X129.679 Y122.612 E49.88170
G1 X130.421 Y123.354 E49.94856
G1 F2160.000 E48.94856
G92 E0
G1 X141.642 Y88.754 F7800.000
G1 F2160.000 E1.00000
G1 X141.279 Y88.391 F1080.000 E1.03243
G1 X141.279 Y87.119 E1.11280
G1 X142.915 Y88.754 E1.25889
G1 X144.188 Y88.754 E1.33926
G1 X141.279 Y85.846 E1.59902
G1 X141.279 Y84.573 E1.67939
G1 X145.460 Y88.754 E2.05281
G1 X146.733 Y88.754 E2.13318
G1 X141.279 Y83.300 E2.62025
G1 X141.279 Y82.027 E2.70063
G1 X147.021 Y87.770 E3.21342
G1 X147.021 Y86.497 E3.29379
G1 X141.279 Y80.755 E3.80659
G1 X141.279 Y79.482 E3.88696
G1 X147.021 Y85.224 E4.39976
G1 X147.021 Y83.951 E4.48013
G1 X141.279 Y78.209 E4.99293
G1 X141.655 Y77.312 E5.05433
G1 X147.021 Y82.679 E5.53356
G1 X147.021 Y81.406 E5.61393
G1 X142.928 Y77.312 E5.97949
G1 X144.200 Y77.312 E6.05986
G1 X147.021 Y80.133 E6.31176
G1 X147.021 Y78.860 E6.39213
G1 X145.473 Y77.312 E6.53037
G1 X146.746 Y77.312 E6.61074
G1 X147.021 Y77.587 E6.63532
G1 F2160.000 E5.63532
G92 E0
G1 X123.921 Y77.398 F7800.000
G1 F2160.000 E1.00000
G1 X123.836 Y77.312 F1080.000 E1.00763
G1 X122.563 Y77.312 E1.08800
G1 X123.921 Y78.670 E1.20930
G1 X123.921 Y79.943 E1.28967
G1 X121.290 Y77.312 E1.52463
G1 X120.017 Y77.312 E1.60500
G1 X123.921 Y81.216 E1.95361
G1 X123.921 Y82.489 E2.03399
G1 X118.745 Y77.312 E2.49627
G1 X118.179 Y78.019 E2.55345
G1 X123.921 Y83.762 E3.06624
G1 X123.921 Y85.034 E3.14662
G1 X118.179 Y79.292 E3.65941
G1 X118.179 Y80.565 E3.73978
G1 X123.921 Y86.307 E4.25258
G1 X123.921 Y87.580 E4.33295
G1 X118.179 Y81.838 E4.84575
G1 X118.179 Y83.110 E4.92612
G1 X123.823 Y88.754 E5.43014
G1 X122.550 Y88.754 E5.51051
G1 X118.179 Y84.383 E5.90087
G1 X118.179 Y85.656 E5.98124
G1 X121.277 Y88.754 E6.25794
G1 X120.005 Y88.754 E6.33831
G1 X118.179 Y86.929 E6.50135
G1 X118.179 Y88.202 E6.58172
G1 X118.732 Y88.754 E6.63109
G1 F2160.000 E5.63109
G92 E0
G1 Z0.800 F7800.000
G1 X96.450 Y96.183
G1 F2160.000 E1.00000
G1 X75.950 Y96.183 F2400.000 E1.43502
G1 X75.950 Y75.683 E1.87005
G1 X96.450 Y75.683 E2.30507
G1 X96.450 Y96.108 E2.73850
G1 X96.950 Y96.683 F7800.000
G1 X75.450 Y96.683 F2400.000 E3.19475
G1 X75.450 Y75.183 E3.65099
G1 X96.950 Y75.183 E4.10724
G1 X96.950 Y96.608 E4.56189
G1 X97.450 Y97.183 F7800.000
G1 X74.950 Y97.183 F1200.000 E5.03935
G1 X74.950 Y74.683 E5.51682
G1 X97.450 Y74.683 E5.99428
G1 X97.450 Y97.108 E6.47016
G1 X97.017 Y96.933 F7800.000
G1 X96.053 Y94.901
G1 X95.167 Y95.786 F3600.000 E6.50508
G1 X94.238 Y95.786 E6.53100
G1 X96.053 Y93.971 E6.60258
G1 X96.053 Y93.042 E6.62850
G1 X93.309 Y95.786 E6.73673
G1 X92.379 Y95.786 E6.76265
G1 X96.053 Y92.113 E6.90754
G1 X96.053 Y91.183 E6.93346
G1 X91.450 Y95.786 E7.11500
G1 X90.521 Y95.786 E7.14092
G1 X96.053 Y90.254 E7.35912
G1 X96.053 Y89.325 E7.38504
G1 X89.591 Y95.786 E7.63990
G1 X88.662 Y95.786 E7.66582
G1 X96.053 Y88.395 E7.95733
G1 X96.053 Y87.466 E7.98325
G1 X87.733 Y95.786 E8.31142
G1 X86.803 Y95.786 E8.33733
G1 X96.053 Y86.537 E8.70216
G1 X96.053 Y85.607 E8.72808
G1 X85.874 Y95.786 E9.12955
G1 X84.945 Y95.786 E9.15547
G1 X96.053 Y84.678 E9.59361
G1 X96.053 Y83.749 E9.61953
G1 X84.015 Y95.786 E10.09432
G1 X83.086 Y95.786 E10.12023
G1 X96.053 Y82.819 E10.63168
G1 X96.053 Y81.890 E10.65760
G1 X82.157 Y95.786 E11.20570
G1 X81.227 Y95.786 E11.23162
G1 X96.053 Y80.961 E11.81637
G1 X96.053 Y80.031 E11.84229
G1 X80.298 Y95.786 E12.46370
G1 X79.369 Y95.786 E12.48962
G1 X96.053 Y79.102 E13.14769
G1 X96.053 Y78.173 E13.17361
G1 X78.439 Y95.786 E13.86833
G1 X77.510 Y95.786 E13.89425
G1 X96.053 Y77.243 E14.62563
G1 X96.053 Y76.314 E14.65155
G1 X76.581 Y95.786 E15.41958
G1 X76.347 Y95.090 E15.44005
G1 X95.357 Y76.080 E16.18985
G1 X94.428 Y76.080 E16.21577
G1 X76.347 Y94.161 E16.92890
G1 X76.347 Y93.232 E16.95482
G1 X93.498 Y76.080 E17.63131
G1 X92.569 Y76.080 E17.65723
G1 X76.347 Y92.302 E18.29706
G1 X76.347 Y91.373 E18.32298
G1 X91.640 Y76.080 E18.92615
G1 X90.710 Y76.080 E18.95207
G1 X76.347 Y90.444 E19.51859
G1 X76.347 Y89.514 E19.54451
G1 X89.781 Y76.080 E20.07437
G1 X88.852 Y76.080 E20.10029
G1 X76.347 Y88.585 E20.59349
G1 X76.347 Y87.656 E20.61941
G1 X87.922 Y76.080 E21.07597
G1 X86.993 Y76.080 E21.10188
G1 X76.347 Y86.726 E21.52178
G1 X76.347 Y85.797 E21.54770
G1 X86.064 Y76.080 E21.93094
G1 X85.134 Y76.080 E21.95686
G1 X76.347 Y84.868 E22.30344
G1 X76.347 Y83.938 E22.32936
G1 X84.205 Y76.080 E22.63929
G1 X83.276 Y76.080 E22.66521
G1 X76.347 Y83.009 E22.93849
G1 X76.347 Y82.080 E22.96441
G1 X82.346 Y76.080 E23.20102
G1 X81.417 Y76.080 E23.22694
G1 X76.347 Y81.150 E23.42691
G1 X76.347 Y80.221 E23.45283
G1 X80.488 Y76.080 E23.61613
G1 X79.558 Y76.080 E23.64205
G1 X76.347 Y79.292 E23.76870
G1 X76.347 Y78.362 E23.79462
G1 X78.629 Y76.080 E23.88462
G1 X77.700 Y76.080 E23.91054
G1 X76.347 Y77.433 E23.96388
G1 X76.347 Y76.504 E23.98980
G1 X76.770 Y76.080 E24.00649
G1 F2160.000 E23.00649
G92 E0
G1 X57.676 Y99.017 F7800.000
G1 F2160.000 E1.00000
G1 X57.676 Y100.948 F1800.000 E1.04097
G1 X57.184 Y101.433 E1.05564
G1 X56.493 Y99.017 E1.10897
G1 X57.601 Y99.017 E1.13247
G1 F2160.000 E0.13247
G92 E0
G1 X52.190 Y99.017 F7800.000
G1 F2160.000 E1.00000
G1 X51.501 Y101.430 F1800.000 E1.05327
G1 X51.008 Y100.950 E1.06788
G1 X51.008 Y99.017 E1.10890
G1 X52.115 Y99.017 E1.13240
G1 F2160.000 E0.13240
G92 E0
G1 X53.961 Y89.767 F7800.000
G1 F2160.000 E1.00000
G1 X53.379 Y89.842 F1800.000 E1.01247
G1 X53.379 Y89.119 E1.02780
G1 X52.936 Y88.970 E1.03772
G1 X52.936 Y87.062 E1.07820
G1 X53.379 Y86.912 E1.08812
G1 X53.379 Y86.191 E1.10341
G1 X53.961 Y86.267 E1.11588
G1 X54.722 Y86.267 E1.13202
G1 X55.305 Y86.191 E1.14449
