; generated by Slic3r 0.9.11-dev on 2013-07-19 at 23:35:46

; layer_height = 0.2
; perimeters = 1
; top_solid_layers = 0
; bottom_solid_layers = 3
; fill_density = 0
; perimeter_speed = 40
; infill_speed = 60
; travel_speed = 130
; nozzle_diameter = 0.5
; filament_diameter = 3
; extrusion_multiplier = 1
; perimeters extrusion width = 0.50mm
; infill extrusion width = 1.02mm
; solid infill extrusion width = 0.85mm
; top infill extrusion width = 0.85mm
; first layer extrusion width = 1.00mm

G21 ; set units to millimeters
M107
M104 S200 ; set temperature
G28 ; home all axes
M109 S200 ; wait for temperature to be reached
G90 ; use absolute coordinates
G92 E0
M82 ; use absolute distances for extrusion
G1 Z0.500 F7800.000
G1 F2160.000 E-1.00000
G92 E0
G1 X68.643 Y76.371 F7800.000
G1 F2160.000 E1.00000
G1 X69.223 Y75.281 F720.000 E1.07797
G1 X69.483 Y74.831 E1.11078
G1 X70.013 Y74.001 E1.17297
G1 X70.563 Y73.241 E1.23221
G1 X71.363 Y72.261 E1.31209
G1 X72.013 Y71.571 E1.37195
G1 X72.473 Y71.131 E1.41215
G1 X73.153 Y70.531 E1.46941
G1 X73.663 Y70.131 E1.51034
G1 X74.433 Y69.571 E1.57046
G1 X74.853 Y69.281 E1.60269
G1 X75.433 Y68.921 E1.64579
G1 X75.823 Y68.691 E1.67438
G1 X76.613 Y68.271 E1.73088
G1 X78.623 Y67.341 E1.87073
G1 X80.603 Y66.511 E2.00630
G1 X81.733 Y66.091 E2.08242
G1 X83.493 Y65.501 E2.19964
G1 X84.653 Y65.151 E2.27615
G1 X86.543 Y64.661 E2.39944
G1 X87.673 Y64.401 E2.47266
G1 X88.663 Y64.201 E2.53643
G1 X90.603 Y63.871 E2.66070
G1 X92.503 Y63.631 E2.78163
G1 X93.893 Y63.501 E2.86978
G1 X95.313 Y63.411 E2.95963
G1 X97.043 Y63.361 E3.06892
G1 X99.263 Y63.391 E3.20911
G1 X100.983 Y63.481 E3.31787
G1 X102.393 Y63.601 E3.40723
G1 X103.833 Y63.771 E3.49879
G1 X105.253 Y63.991 E3.58952
G1 X106.233 Y64.171 E3.65244
G1 X108.073 Y64.551 E3.77108
G1 X109.033 Y64.791 E3.83357
G1 X110.313 Y65.131 E3.91720
G1 X111.893 Y65.611 E4.02147
G1 X113.273 Y66.071 E4.11332
G1 X115.653 Y67.001 E4.27468
G1 X116.973 Y67.571 E4.36547
G1 X118.283 Y68.191 E4.45699
G1 X119.563 Y68.851 E4.54792
G1 X121.473 Y69.931 E4.68648
G1 X123.103 Y70.941 E4.80756
G1 X124.073 Y71.591 E4.88129
G1 X125.093 Y72.311 E4.96013
G1 X126.013 Y73.001 E5.03275
G1 X127.183 Y73.921 E5.12673
G1 X128.923 Y75.421 E5.27180
G1 X130.143 Y76.551 E5.37681
G1 X131.873 Y78.321 E5.53309
G1 X133.343 Y79.981 E5.67311
G1 X134.183 Y81.011 E5.75703
G1 X135.143 Y82.311 E5.85908
G1 X135.443 Y82.761 E5.89323
G1 X136.033 Y83.721 E5.96438
G1 X136.753 Y85.031 E6.05877
G1 X136.953 Y85.421 E6.08645
G1 X137.353 Y86.291 E6.14692
G1 X137.613 Y86.911 E6.18937
G1 X138.203 Y88.551 E6.29943
G1 X138.653 Y90.161 E6.40499
G1 X138.893 Y91.281 E6.47731
G1 X139.073 Y92.331 E6.54458
G1 X139.253 Y93.961 E6.64814
G1 X139.323 Y95.381 E6.73791
G1 X139.303 Y96.941 E6.83643
G1 X139.203 Y98.281 E6.92128
G1 X139.013 Y99.671 E7.00987
G1 X138.743 Y101.061 E7.09928
G1 X138.493 Y102.051 E7.16376
G1 X138.023 Y103.611 E7.26664
G1 X137.663 Y104.591 E7.33256
G1 X137.273 Y105.521 E7.39624
G1 X136.693 Y106.721 E7.48040
G1 X135.993 Y108.001 E7.57253
G1 X135.463 Y108.851 E7.63578
G1 X134.883 Y109.701 E7.70076
G1 X134.093 Y110.741 E7.78323
G1 X133.393 Y111.571 E7.85179
G1 X132.533 Y112.501 E7.93178
G1 X111.983 Y132.431 E9.73945
G1 X111.113 Y133.231 E9.81408
G1 X110.043 Y134.121 E9.90196
G1 X108.913 Y134.961 E9.99087
G1 X108.073 Y135.511 E10.05427
G1 X106.933 Y136.191 E10.13809
G1 X106.043 Y136.661 E10.20165
G1 X104.843 Y137.211 E10.28500
G1 X103.493 Y137.751 E10.37681
G1 X102.273 Y138.161 E10.45809
G1 X101.623 Y138.351 E10.50085
G1 X100.313 Y138.671 E10.58600
G1 X98.963 Y138.911 E10.67258
G1 X97.583 Y139.081 E10.76038
G1 X96.673 Y139.151 E10.81802
G1 X95.683 Y139.191 E10.88058
G1 X95.193 Y139.191 E10.91152
G1 X94.313 Y139.161 E10.96712
G1 X93.333 Y139.101 E11.02912
G1 X91.963 Y138.951 E11.11615
G1 X90.513 Y138.701 E11.20906
G1 X89.753 Y138.531 E11.25824
G1 X88.433 Y138.171 E11.34463
G1 X87.793 Y137.971 E11.38697
G1 X86.643 Y137.551 E11.46428
G1 X86.023 Y137.301 E11.50649
G1 X84.533 Y136.611 E11.61018
G1 X83.913 Y136.281 E11.65453
G1 X82.933 Y135.721 E11.72580
G1 X81.793 Y134.991 E11.81128
G1 X80.893 Y134.341 E11.88139
G1 X79.533 Y133.221 E11.99264
G1 X77.983 Y131.811 E12.12495
G1 X76.313 Y130.131 E12.27453
G1 X74.903 Y128.581 E12.40685
G1 X74.163 Y127.701 E12.47945
G1 X72.933 Y126.151 E12.60440
G1 X71.863 Y124.681 E12.71921
G1 X71.213 Y123.731 E12.79189
G1 X70.283 Y122.261 E12.90173
G1 X69.053 Y120.121 E13.05760
G1 X68.393 Y118.861 E13.14741
G1 X67.333 Y116.581 E13.30618
G1 X66.773 Y115.261 E13.39673
G1 X65.973 Y113.071 E13.54395
G1 X65.363 Y111.191 E13.66876
G1 X64.923 Y109.611 E13.77233
G1 X64.633 Y108.441 E13.84844
G1 X64.423 Y107.471 E13.91111
G1 X64.093 Y105.691 E14.02543
G1 X63.893 Y104.441 E14.10536
G1 X63.753 Y103.331 E14.17601
G1 X63.603 Y101.891 E14.26743
G1 X63.483 Y100.201 E14.37442
G1 X63.433 Y97.621 E14.53736
G1 X63.473 Y95.971 E14.64158
G1 X63.533 Y94.811 E14.71493
G1 X63.643 Y93.391 E14.80487
G1 X63.913 Y91.141 E14.94796
G1 X64.223 Y89.241 E15.06953
G1 X64.673 Y87.121 E15.20638
G1 X65.013 Y85.751 E15.29551
G1 X65.423 Y84.321 E15.38945
G1 X65.783 Y83.181 E15.46494
G1 X66.233 Y81.881 E15.55180
G1 X66.893 Y80.161 E15.66814
G1 X67.613 Y78.471 E15.78413
G1 X68.578 Y76.489 E15.92339
G1 F2160.000 E14.92339
G92 E0
G1 X75.267 Y79.559 F7800.000
G1 F2160.000 E1.00000
G1 X75.696 Y78.755 F720.000 E1.05753
G1 X76.054 Y78.177 E1.10049
G1 X76.597 Y77.444 E1.15806
G1 X77.027 Y76.952 E1.19932
G1 X77.497 Y76.484 E1.24121
G1 X77.998 Y76.050 E1.28307
G1 X78.358 Y75.774 E1.31170
G1 X78.902 Y75.404 E1.35327
G1 X79.692 Y74.957 E1.41055
G1 X80.746 Y74.439 E1.48475
G1 X81.691 Y74.012 E1.55023
G1 X83.178 Y73.397 E1.65182
G1 X84.942 Y72.759 E1.77031
G1 X86.751 Y72.201 E1.88979
G1 X88.172 Y71.823 E1.98265
G1 X89.135 Y71.602 E2.04505
G1 X90.108 Y71.404 E2.10778
G1 X91.099 Y71.229 E2.17130
G1 X92.470 Y71.025 E2.25882
G1 X93.417 Y70.916 E2.31903
G1 X94.819 Y70.792 E2.40792
G1 X95.780 Y70.739 E2.46868
G1 X97.199 Y70.699 E2.55830
G1 X98.168 Y70.704 E2.61950
G1 X100.120 Y70.788 E2.74287
G1 X101.540 Y70.903 E2.83283
G1 X102.966 Y71.072 E2.92352
G1 X103.934 Y71.220 E2.98534
G1 X104.898 Y71.392 E3.04720
G1 X106.308 Y71.683 E3.13808
G1 X107.260 Y71.914 E3.19995
G1 X108.648 Y72.291 E3.29076
G1 X110.516 Y72.891 E3.41467
G1 X111.854 Y73.381 E3.50465
G1 X112.756 Y73.746 E3.56609
G1 X114.062 Y74.316 E3.65604
G1 X115.801 Y75.171 E3.77844
G1 X117.035 Y75.839 E3.86701
G1 X117.860 Y76.321 E3.92738
G1 X119.046 Y77.058 E4.01555
G1 X119.879 Y77.614 E4.07880
G1 X120.693 Y78.188 E4.14171
G1 X121.489 Y78.780 E4.20430
G1 X122.647 Y79.691 E4.29737
G1 X123.394 Y80.322 E4.35907
G1 X124.795 Y81.595 E4.47863
G1 X125.779 Y82.559 E4.56563
G1 X126.402 Y83.210 E4.62252
G1 X127.672 Y84.635 E4.74304
G1 X128.499 Y85.644 E4.82542
G1 X129.208 Y86.628 E4.90203
G1 X129.783 Y87.554 E4.97083
G1 X130.297 Y88.512 E5.03951
G1 X130.711 Y89.426 E5.10285
G1 X130.955 Y90.044 E5.14480
G1 X131.169 Y90.656 E5.18573
G1 X131.359 Y91.279 E5.22684
G1 X131.551 Y92.017 E5.27504
G1 X131.710 Y92.766 E5.32337
G1 X131.834 Y93.525 E5.37196
G1 X131.910 Y94.163 E5.41252
G1 X131.978 Y95.106 E5.47223
G1 X131.993 Y96.055 E5.53213
G1 X131.952 Y97.014 E5.59276
G1 X131.891 Y97.670 E5.63435
G1 X131.756 Y98.625 E5.69528
G1 X131.564 Y99.574 E5.75637
G1 X131.401 Y100.216 E5.79823
G1 X131.208 Y100.860 E5.84066
G1 X130.889 Y101.769 E5.90148
G1 X130.514 Y102.665 E5.96286
G1 X130.223 Y103.271 E6.00528
G1 X129.758 Y104.131 E6.06702
G1 X129.242 Y104.961 E6.12874
G1 X128.867 Y105.503 E6.17037
G1 X128.273 Y106.278 E6.23202
G1 X127.847 Y106.780 E6.27357
G1 X127.394 Y107.269 E6.31570
G1 X126.464 Y108.170 E6.39745
G1 X125.972 Y108.592 E6.43840
G1 X125.204 Y109.189 E6.49979
G1 X124.675 Y109.559 E6.54054
G1 X123.858 Y110.075 E6.60158
G1 X123.299 Y110.389 E6.64206
G1 X122.719 Y110.685 E6.68320
G1 X121.724 Y111.135 E6.75218
G1 X121.008 Y111.410 E6.80061
G1 X120.283 Y111.650 E6.84884
G1 X119.059 Y111.972 E6.92875
G1 X118.063 Y112.165 E6.99281
G1 X117.441 Y112.252 E7.03243
G1 X116.257 Y112.352 E7.10746
G1 X115.317 Y112.374 E7.16684
G1 X114.722 Y112.359 E7.20444
G1 X114.215 Y112.329 E7.23652
G1 X113.412 Y112.247 E7.28748
G1 X113.222 Y112.236 E7.29947
G1 X113.072 Y112.250 E7.30901
G1 X112.726 Y112.338 E7.33155
G1 X112.525 Y112.438 E7.34573
G1 X112.207 Y112.692 E7.37145
G1 X112.046 Y112.893 E7.38770
G1 X111.945 Y113.084 E7.40135
G1 X111.833 Y113.440 E7.42491
G1 X111.817 Y113.718 E7.44250
G1 X111.882 Y114.821 E7.51224
G1 X111.882 Y115.840 E7.57663
G1 X111.803 Y117.001 E7.65011
G1 X111.636 Y118.182 E7.72539
G1 X111.436 Y119.157 E7.78827
G1 X111.281 Y119.753 E7.82716
G1 X111.095 Y120.369 E7.86775
G1 X110.844 Y121.090 E7.91598
G1 X110.560 Y121.801 E7.96434
G1 X110.097 Y122.797 E8.03369
G1 X109.487 Y123.891 E8.11280
G1 X108.968 Y124.695 E8.17322
G1 X108.395 Y125.477 E8.23442
G1 X107.987 Y125.978 E8.27524
G1 X107.551 Y126.472 E8.31683
G1 X106.880 Y127.166 E8.37777
G1 X106.167 Y127.822 E8.43894
G1 X105.411 Y128.438 E8.50051
G1 X104.881 Y128.828 E8.54210
G1 X104.067 Y129.368 E8.60379
G1 X103.499 Y129.703 E8.64543
G1 X102.908 Y130.020 E8.68775
G1 X102.036 Y130.439 E8.74883
G1 X101.140 Y130.806 E8.80996
G1 X100.221 Y131.120 E8.87132
G1 X99.582 Y131.302 E8.91327
G1 X98.638 Y131.524 E8.97448
G1 X97.981 Y131.643 E9.01669
G1 X97.328 Y131.733 E9.05830
G1 X96.365 Y131.823 E9.11938
G1 X95.412 Y131.856 E9.17961
G1 X94.454 Y131.833 E9.24010
G1 X93.801 Y131.784 E9.28144
G1 X93.150 Y131.710 E9.32284
G1 X92.108 Y131.539 E9.38947
G1 X91.360 Y131.372 E9.43789
G1 X90.623 Y131.171 E9.48610
G1 X90.003 Y130.973 E9.52723
G1 X89.392 Y130.751 E9.56827
G1 X88.789 Y130.503 E9.60945
G1 X87.921 Y130.102 E9.66982
G1 X87.501 Y129.886 E9.69965
G1 X86.589 Y129.356 E9.76624
G1 X86.092 Y129.034 E9.80363
G1 X85.464 Y128.588 E9.85227
G1 X85.075 Y128.290 E9.88323
G1 X84.234 Y127.588 E9.95240
G1 X83.453 Y126.882 E10.01889
G1 X82.360 Y125.832 E10.11459
G1 X81.111 Y124.525 E10.22875
G1 X79.909 Y123.143 E10.34441
G1 X78.695 Y121.602 E10.46828
G1 X77.831 Y120.412 E10.56114
G1 X77.276 Y119.588 E10.62386
G1 X76.503 Y118.370 E10.71496
G1 X75.559 Y116.718 E10.83512
G1 X74.907 Y115.470 E10.92401
G1 X74.092 Y113.715 E11.04620
G1 X73.545 Y112.410 E11.13557
G1 X73.200 Y111.502 E11.19692
G1 X72.729 Y110.151 E11.28728
G1 X72.169 Y108.271 E11.41113
G1 X71.815 Y106.885 E11.50141
G1 X71.605 Y105.929 E11.56327
G1 X71.335 Y104.515 E11.65415
G1 X71.056 Y102.568 E11.77836
G1 X70.908 Y101.147 E11.86859
G1 X70.813 Y99.715 E11.95916
G1 X70.773 Y97.768 E12.08215
G1 X70.799 Y96.344 E12.17210
G1 X70.850 Y95.378 E12.23317
G1 X70.962 Y93.968 E12.32249
G1 X71.199 Y92.067 E12.44344
G1 X71.426 Y90.689 E12.53162
G1 X71.621 Y89.707 E12.59486
G1 X71.840 Y88.735 E12.65777
G1 X72.082 Y87.774 E12.72037
G1 X72.481 Y86.355 E12.81343
G1 X73.095 Y84.506 E12.93645
G1 X73.753 Y82.801 E13.05185
G1 X74.265 Y81.604 E13.13408
G1 X74.666 Y80.742 E13.19410
G1 X75.203 Y79.677 E13.26945
G1 X77.950 Y77.226 F7800.000
G1 X78.529 Y76.713 F1080.000 E13.31840
G1 X79.211 Y76.215 E13.37180
G1 X79.706 Y75.912 E13.40856
G1 X80.430 Y75.532 E13.46027
G1 X82.032 Y74.789 E13.57198
G1 X83.486 Y74.187 E13.67157
G1 X84.365 Y73.857 E13.73097
G1 X86.069 Y73.287 E13.84461
G1 X86.980 Y73.018 E13.90470
G1 X88.371 Y72.647 E13.99578
G1 X90.268 Y72.237 E14.11859
G1 X91.656 Y71.995 E14.20773
G1 X93.506 Y71.759 E14.32569
G1 X94.453 Y71.674 E14.38585
G1 X95.817 Y71.586 E14.47238
G1 X97.203 Y71.547 E14.56004
G1 X99.105 Y71.581 E14.68039
G1 X100.503 Y71.660 E14.76899
G1 X101.451 Y71.747 E14.82926
G1 X102.847 Y71.912 E14.91819
G1 X104.740 Y72.226 E15.03959
G1 X106.117 Y72.510 E15.12854
G1 X107.992 Y72.989 E15.25096
G1 X109.324 Y73.386 E15.33890
G1 X110.652 Y73.836 E15.42759
G1 X112.430 Y74.529 E15.54832
G1 X113.707 Y75.086 E15.63652
G1 X114.560 Y75.492 E15.69624
G1 X115.792 Y76.122 E15.78381
G1 X117.424 Y77.049 E15.90255
G1 X118.585 Y77.770 E15.98900
G1 X119.397 Y78.312 E16.05076
G1 X120.975 Y79.455 E16.17406
G1 X122.107 Y80.346 E16.26518
G1 X123.550 Y81.595 E16.38595
G1 X124.544 Y82.525 E16.47208
G1 X125.782 Y83.789 E16.58402
G1 X127.026 Y85.185 E16.70232
G1 X127.826 Y86.161 E16.78216
G1 X128.503 Y87.100 E16.85540
G1 X129.048 Y87.977 E16.92070
G1 X129.535 Y88.886 E16.98593
G1 X129.818 Y89.499 E17.02865
G1 X130.050 Y90.061 E17.06714
G1 X130.363 Y90.921 E17.12503
G1 X130.542 Y91.509 E17.16389
G1 X130.725 Y92.212 E17.20986
G1 X130.876 Y92.922 E17.25580
G1 X130.994 Y93.643 E17.30204
G1 X131.090 Y94.482 E17.35546
G1 X131.142 Y95.421 E17.41498
G1 X131.145 Y96.040 E17.45409
G1 X131.122 Y96.678 E17.49450
G1 X131.048 Y97.573 E17.55130
G1 X130.920 Y98.480 E17.60924
G1 X130.738 Y99.381 E17.66745
G1 X130.584 Y99.987 E17.70697
G1 X130.313 Y100.871 E17.76548
G1 X130.099 Y101.460 E17.80511
G1 X129.742 Y102.314 E17.86369
G1 X129.467 Y102.884 E17.90375
G1 X129.025 Y103.703 E17.96261
G1 X128.535 Y104.493 E18.02142
G1 X128.182 Y105.004 E18.06070
G1 X127.616 Y105.742 E18.11958
G1 X127.214 Y106.214 E18.15879
G1 X126.582 Y106.891 E18.21737
G1 X125.899 Y107.538 E18.27689
G1 X125.436 Y107.935 E18.31551
G1 X124.704 Y108.504 E18.37414
G1 X124.206 Y108.852 E18.41257
G1 X123.427 Y109.344 E18.47089
G1 X122.902 Y109.640 E18.50902
G1 X122.073 Y110.057 E18.56770
G1 X121.402 Y110.350 E18.61404
G1 X120.723 Y110.611 E18.66008
G1 X120.038 Y110.838 E18.70571
G1 X118.874 Y111.144 E18.78186
G1 X118.261 Y111.267 E18.82144
G1 X117.338 Y111.410 E18.88050
G1 X116.785 Y111.467 E18.91570
G1 X115.876 Y111.520 E18.97329
G1 X115.328 Y111.526 E19.00798
G1 X114.274 Y111.483 E19.07469
G1 X113.216 Y111.384 E19.14191
G1 X112.966 Y111.409 E19.15784
G1 X112.790 Y111.436 E19.16907
G1 X112.406 Y111.549 E19.19440
G1 X112.118 Y111.693 E19.21480
G1 X111.952 Y111.795 E19.22709
G1 X111.583 Y112.115 E19.25803
G1 X111.330 Y112.432 E19.28369
G1 X111.189 Y112.699 E19.30275
G1 X111.106 Y112.881 E19.31546
G1 X110.993 Y113.295 E19.34260
G1 X110.969 Y113.728 E19.37001
G1 X111.034 Y114.844 E19.44074
G1 X111.034 Y115.811 E19.50191
G1 X110.959 Y116.915 E19.57194
G1 X110.891 Y117.466 E19.60705
G1 X110.740 Y118.374 E19.66532
G1 X110.612 Y118.954 E19.70289
G1 X110.287 Y120.108 E19.77875
G1 X110.050 Y120.792 E19.82451
G1 X109.781 Y121.465 E19.87038
G1 X109.340 Y122.415 E19.93661
G1 X109.070 Y122.922 E19.97301
G1 X108.606 Y123.705 E20.03057
G1 X108.272 Y124.210 E20.06885
G1 X107.726 Y124.955 E20.12731
G1 X107.341 Y125.428 E20.16588
G1 X106.922 Y125.903 E20.20599
G1 X106.290 Y126.556 E20.26347
G1 X105.614 Y127.179 E20.32162
G1 X104.895 Y127.765 E20.38028
G1 X104.395 Y128.132 E20.41952
G1 X103.620 Y128.647 E20.47843
G1 X103.085 Y128.963 E20.51773
G1 X102.262 Y129.399 E20.57668
G1 X101.697 Y129.661 E20.61605
G1 X100.845 Y130.010 E20.67432
G1 X99.971 Y130.309 E20.73277
G1 X99.369 Y130.481 E20.77237
G1 X98.470 Y130.693 E20.83082
G1 X97.843 Y130.806 E20.87108
G1 X96.943 Y130.926 E20.92852
G1 X96.309 Y130.977 E20.96876
G1 X95.409 Y131.008 E21.02578
G1 X94.774 Y130.996 E21.06595
G1 X93.879 Y130.940 E21.12267
G1 X93.258 Y130.869 E21.16224
G1 X92.272 Y130.706 E21.22545
G1 X91.564 Y130.548 E21.27135
G1 X90.864 Y130.358 E21.31722
G1 X90.278 Y130.171 E21.35615
G1 X89.127 Y129.725 E21.43422
G1 X88.295 Y129.341 E21.49225
G1 X87.909 Y129.142 E21.51971
G1 X87.039 Y128.636 E21.58337
G1 X86.104 Y128.007 E21.65469
G1 X85.606 Y127.629 E21.69422
G1 X85.091 Y127.204 E21.73649
G1 X84.028 Y126.258 E21.82652
G1 X82.960 Y125.233 E21.92012
G1 X81.739 Y123.954 E22.03207
G1 X80.561 Y122.600 E22.14557
G1 X79.964 Y121.861 E22.20566
G1 X79.089 Y120.718 E22.29674
G1 X77.984 Y119.122 E22.41955
G1 X77.228 Y117.930 E22.50885
G1 X76.760 Y117.133 E22.56734
G1 X75.862 Y115.469 E22.68696
G1 X75.260 Y114.244 E22.77331
G1 X74.693 Y112.978 E22.86106
G1 X73.997 Y111.209 E22.98135
G1 X73.536 Y109.889 E23.06979
G1 X72.985 Y108.040 E23.19186
G1 X72.641 Y106.695 E23.27973
G1 X72.251 Y104.797 E23.40229
G1 X72.023 Y103.426 E23.49025
G1 X71.844 Y102.029 E23.57933
G1 X71.754 Y101.079 E23.63974
G1 X71.661 Y99.678 E23.72854
G1 X71.621 Y97.770 E23.84927
G1 X71.647 Y96.376 E23.93747
G1 X71.696 Y95.434 E23.99719
G1 X71.806 Y94.054 E24.08477
G1 X72.038 Y92.192 E24.20350
G1 X72.260 Y90.843 E24.28995
G1 X72.450 Y89.886 E24.35171
G1 X72.902 Y87.990 E24.47501
