; generated by Slic3r 0.9.11-dev on 2013-07-23 at 18:31:41

; layer_height = 0.3
; perimeters = 2
; top_solid_layers = 3
; bottom_solid_layers = 3
; fill_density = .3
; perimeter_speed = 40
; infill_speed = 60
; travel_speed = 130
; nozzle_diameter = 0.5
; filament_diameter = 3
; extrusion_multiplier = 1
; perimeters extrusion width = 0.50mm
; infill extrusion width = 0.70mm
; solid infill extrusion width = 0.70mm
; top infill extrusion width = 0.70mm
; support material extrusion width = 0.70mm
; first layer extrusion width = 1.00mm

G21 ; set units to millimeters
M107
M104 S200 ; set temperature
G28 ; home all axes
M109 S200 ; wait for temperature to be reached
G90 ; use absolute coordinates
G92 E0
M82 ; use absolute distances for extrusion
G1 F2160.000 E-1.00000
G92 E0
G1 Z0.500 F7800.000
G1 X85.340 Y61.154
G1 F2160.000 E1.00000
G1 X85.950 Y60.184 F720.000 E1.07236
G1 X86.490 Y59.444 E1.13020
G1 X87.400 Y58.354 E1.21986
G1 X88.070 Y57.664 E1.28060
G1 X89.120 Y56.714 E1.37001
G1 X89.880 Y56.114 E1.43115
G1 X91.050 Y55.324 E1.52030
G1 X91.910 Y54.834 E1.58280
G1 X93.190 Y54.214 E1.67261
G1 X94.050 Y53.864 E1.73124
G1 X95.400 Y53.424 E1.82090
G1 X96.320 Y53.194 E1.88078
G1 X97.710 Y52.944 E1.96996
G1 X98.720 Y52.834 E2.03411
G1 X100.040 Y52.794 E2.11750
G1 X101.030 Y52.824 E2.18005
G1 X102.440 Y52.964 E2.26952
G1 X103.470 Y53.144 E2.33555
G1 X104.840 Y53.494 E2.42483
G1 X105.700 Y53.774 E2.48195
G1 X107.020 Y54.304 E2.57176
G1 X107.900 Y54.734 E2.63361
G1 X109.130 Y55.444 E2.72329
G1 X109.930 Y55.994 E2.78460
G1 X111.040 Y56.864 E2.87365
G1 X111.740 Y57.484 E2.93270
G1 X112.730 Y58.504 E3.02246
G1 X113.350 Y59.244 E3.08342
G1 X114.180 Y60.384 E3.17246
G1 X114.740 Y61.294 E3.23993
G1 X115.360 Y62.454 E3.32299
G1 X115.760 Y63.364 E3.38576
G1 X116.240 Y64.694 E3.47504
G1 X116.500 Y65.574 E3.53298
G1 X116.800 Y66.954 E3.62216
G1 X116.940 Y67.964 E3.68655
G1 X117.030 Y69.334 E3.77324
G1 X117.040 Y69.784 E3.80167
G1 X117.050 Y112.184 E6.47904
G1 X117.050 Y130.154 E7.61376
G1 X117.040 Y130.634 E7.64408
G1 X116.940 Y132.054 E7.73397
G1 X116.800 Y133.034 E7.79648
G1 X116.500 Y134.414 E7.88565
G1 X116.250 Y135.274 E7.94221
G1 X115.770 Y136.614 E8.03209
G1 X115.360 Y137.554 E8.09684
G1 X114.690 Y138.804 E8.18640
G1 X114.180 Y139.604 E8.24631
G1 X113.350 Y140.744 E8.33535
G1 X112.730 Y141.484 E8.39631
G1 X111.740 Y142.504 E8.48607
G1 X111.050 Y143.124 E8.54465
G1 X109.690 Y144.194 E8.65392
G1 X109.130 Y144.554 E8.69596
G1 X107.900 Y145.264 E8.78564
G1 X107.020 Y145.694 E8.84748
G1 X105.700 Y146.224 E8.93730
G1 X104.790 Y146.514 E8.99761
G1 X103.420 Y146.854 E9.08675
G1 X102.490 Y147.014 E9.14633
G1 X101.080 Y147.164 E9.23587
G1 X100.110 Y147.204 E9.29718
G1 X98.690 Y147.154 E9.38690
G1 X97.710 Y147.044 E9.44917
G1 X96.320 Y146.794 E9.53835
G1 X95.400 Y146.564 E9.59823
G1 X94.050 Y146.124 E9.68789
G1 X93.190 Y145.774 E9.74652
G1 X91.910 Y145.154 E9.83633
G1 X91.050 Y144.664 E9.89883
G1 X89.920 Y143.904 E9.98482
G1 X89.120 Y143.274 E10.04912
G1 X88.070 Y142.324 E10.13854
G1 X87.420 Y141.654 E10.19748
G1 X86.510 Y140.574 E10.28666
G1 X85.940 Y139.804 E10.34715
G1 X85.180 Y138.594 E10.43738
G1 X84.720 Y137.714 E10.50008
G1 X84.150 Y136.424 E10.58914
G1 X83.820 Y135.534 E10.64908
G1 X83.430 Y134.174 E10.73842
G1 X83.240 Y133.244 E10.79836
G1 X83.040 Y131.834 E10.88828
G1 X82.970 Y131.054 E10.93773
G1 X82.950 Y130.344 E10.98258
G1 X82.950 Y69.644 E14.81552
G1 X82.970 Y68.934 E14.86037
G1 X83.040 Y68.154 E14.90982
G1 X83.240 Y66.754 E14.99912
G1 X83.430 Y65.834 E15.05844
G1 X83.820 Y64.464 E15.14839
G1 X84.150 Y63.564 E15.20892
G1 X84.720 Y62.274 E15.29798
G1 X85.268 Y61.266 E15.37038
G1 F2160.000 E14.37038
G92 E0
G1 X98.093 Y68.452 F7800.000
G1 F2160.000 E1.00000
G1 X98.615 Y67.931 F540.000 E1.04656
G1 X99.272 Y67.596 E1.09313
G1 X99.765 Y67.518 E1.12467
G1 X100.000 Y67.481 E1.13969
G1 X100.728 Y67.596 E1.18626
G1 X101.385 Y67.931 E1.23282
G1 X101.907 Y68.452 E1.27938
G1 X102.242 Y69.109 E1.32595
G1 X102.279 Y69.344 E1.34097
G1 X102.357 Y69.837 E1.37251
G1 X102.242 Y70.566 E1.41908
G1 X101.907 Y71.223 E1.46564
G1 X101.385 Y71.744 E1.51220
G1 X100.728 Y72.079 E1.55877
G1 X100.493 Y72.116 E1.57379
G1 X100.000 Y72.194 E1.60533
G1 X99.272 Y72.079 E1.65189
G1 X98.615 Y71.744 E1.69846
G1 X98.093 Y71.223 E1.74502
G1 X97.758 Y70.566 E1.79159
G1 X97.643 Y69.837 E1.83815
G1 X97.758 Y69.109 E1.88471
G1 X98.032 Y68.571 E1.92282
G1 X97.829 Y67.764 F7800.000
G1 F2160.000 E0.92282
G92 E0
G1 X100.000 Y126.902 F7800.000
G1 F2160.000 E1.00000
G1 X101.008 Y127.061 F540.000 E1.06442
G1 X101.917 Y127.525 E1.12884
G1 X102.185 Y127.793 E1.15279
G1 X102.638 Y128.246 E1.19326
G1 X103.101 Y129.155 E1.25768
G1 X103.261 Y130.163 E1.32210
G1 X103.101 Y131.170 E1.38652
G1 X102.638 Y132.079 E1.45094
G1 X102.185 Y132.532 E1.49141
G1 X101.917 Y132.801 E1.51536
G1 X101.008 Y133.264 E1.57978
G1 X100.000 Y133.423 E1.64420
G1 X98.992 Y133.264 E1.70862
G1 X98.083 Y132.801 E1.77304
G1 X97.815 Y132.532 E1.79699
G1 X97.362 Y132.079 E1.83746
G1 X96.899 Y131.170 E1.90188
G1 X96.739 Y130.163 E1.96630
G1 X96.899 Y129.155 E2.03072
G1 X97.362 Y128.246 E2.09514
G1 X98.083 Y127.525 E2.15956
G1 X98.992 Y127.061 E2.22398
G1 X99.868 Y126.923 E2.27995
G1 X100.000 Y127.806 F7800.000
G1 X100.728 Y127.921 F540.000 E2.32651
G1 X101.385 Y128.256 E2.37307
G1 X101.554 Y128.424 E2.38810
G1 X101.907 Y128.777 E2.41964
G1 X102.242 Y129.434 E2.46620
G1 X102.357 Y130.163 E2.51276
G1 X102.242 Y130.891 E2.55933
G1 X101.907 Y131.548 E2.60589
G1 X101.554 Y131.901 E2.63743
G1 X101.385 Y132.069 E2.65246
G1 X100.728 Y132.404 E2.69902
G1 X100.000 Y132.519 E2.74558
G1 X99.272 Y132.404 E2.79215
G1 X98.615 Y132.069 E2.83871
G1 X98.446 Y131.901 E2.85373
G1 X98.093 Y131.548 E2.88528
G1 X97.758 Y130.891 E2.93184
G1 X97.643 Y130.163 E2.97840
G1 X97.758 Y129.434 E3.02497
G1 X98.093 Y128.777 E3.07153
G1 X98.615 Y128.256 E3.11809
G1 X99.272 Y127.921 E3.16466
G1 X99.868 Y127.827 E3.20277
G1 X100.402 Y127.187 F7800.000
G1 X94.597 Y111.245
G1 X107.826 Y111.245 F720.000 E4.03810
G1 X107.960 Y111.255 E4.04659
G1 X108.262 Y111.343 E4.06643
G1 X108.485 Y111.487 E4.08320
G1 X108.659 Y111.687 E4.09997
G1 X108.769 Y111.929 E4.11675
G1 X108.821 Y112.288 E4.13963
G1 X108.821 Y130.116 E5.26539
G1 X108.732 Y131.390 E5.34602
G1 X108.476 Y132.593 E5.42371
G1 X108.055 Y133.749 E5.50139
G1 X107.478 Y134.835 E5.57907
G1 X106.755 Y135.830 E5.65675
G1 X105.900 Y136.715 E5.73443
G1 X104.931 Y137.473 E5.81211
G1 X103.865 Y138.088 E5.88979
G1 X102.725 Y138.549 E5.96747
G1 X101.531 Y138.846 E6.04515
G1 X100.308 Y138.975 E6.12283
G1 X99.078 Y138.932 E6.20051
G1 X97.867 Y138.718 E6.27819
G1 X96.697 Y138.338 E6.35587
G1 X95.591 Y137.799 E6.43355
G1 X94.571 Y137.111 E6.51123
G1 X93.657 Y136.288 E6.58891
G1 X92.866 Y135.345 E6.66659
G1 X92.214 Y134.302 E6.74427
G1 X91.714 Y133.178 E6.82195
G1 X91.375 Y131.996 E6.89964
G1 X91.201 Y130.754 E6.97880
G1 X91.179 Y130.139 E7.01767
G1 X91.179 Y109.082 E8.34732
G1 X92.712 Y110.615 E8.48417
G1 X93.656 Y111.096 E8.55110
G1 X94.465 Y111.224 E8.60284
G1 F2160.000 E7.60284
G92 E0
G1 X92.574 Y74.078 F7800.000
G1 F2160.000 E1.00000
G1 X91.179 Y75.687 F720.000 E1.13450
G1 X91.179 Y69.861 E1.50242
G1 X91.201 Y69.246 E1.54129
G1 X91.375 Y68.004 E1.62045
G1 X91.714 Y66.822 E1.69813
G1 X92.214 Y65.698 E1.77581
G1 X92.866 Y64.655 E1.85349
G1 X93.657 Y63.712 E1.93117
G1 X94.571 Y62.889 E2.00885
G1 X95.591 Y62.201 E2.08653
G1 X96.697 Y61.662 E2.16422
G1 X97.867 Y61.282 E2.24189
G1 X99.078 Y61.068 E2.31958
G1 X100.308 Y61.025 E2.39726
G1 X101.531 Y61.154 E2.47494
G1 X102.725 Y61.451 E2.55262
G1 X103.865 Y61.912 E2.63030
G1 X104.931 Y62.527 E2.70798
G1 X105.900 Y63.285 E2.78566
G1 X106.755 Y64.170 E2.86334
G1 X107.478 Y65.165 E2.94102
G1 X108.055 Y66.251 E3.01870
G1 X108.476 Y67.407 E3.09638
G1 X108.733 Y68.615 E3.17438
G1 X108.818 Y69.838 E3.25176
G1 X108.733 Y71.065 E3.32942
G1 X108.470 Y72.298 E3.40906
G1 X107.123 Y76.693 E3.69930
G1 X106.320 Y76.466 E3.75194
G1 X107.537 Y71.761 E4.05880
G1 X107.667 Y71.161 E4.09760
G1 X107.782 Y69.840 E4.18130
G1 X107.681 Y68.651 E4.25663
G1 X107.663 Y68.476 E4.26773
G1 X107.314 Y67.175 E4.35278
G1 X106.741 Y65.946 E4.43846
G1 X105.962 Y64.834 E4.52413
G1 X105.003 Y63.875 E4.60980
G1 X103.892 Y63.097 E4.69547
G1 X102.662 Y62.523 E4.78115
G1 X101.352 Y62.172 E4.86682
G1 X99.926 Y62.048 E4.95716
G1 X99.257 Y62.181 E5.00023
G1 X98.628 Y62.601 E5.04803
G1 X98.207 Y63.231 E5.09585
G1 X98.060 Y63.973 E5.14366
G1 X98.115 Y64.251 E5.16152
G1 X98.207 Y64.716 E5.19146
G1 X98.628 Y65.346 E5.23928
G1 X99.257 Y65.766 E5.28709
G1 X100.503 Y66.014 E5.36730
G1 X100.494 Y66.499 E5.39790
G1 X98.992 Y66.736 E5.49389
G1 X98.083 Y67.199 E5.55831
G1 X97.362 Y67.921 E5.62273
G1 X96.899 Y68.830 E5.68715
G1 X96.739 Y69.837 E5.75157
G1 X96.899 Y70.845 E5.81599
G1 X97.362 Y71.754 E5.88041
G1 X98.083 Y72.475 E5.94483
G1 X98.992 Y72.939 E6.00925
G1 X100.750 Y73.217 E6.12163
G1 X100.696 Y73.911 E6.16557
G1 X98.387 Y73.911 E6.31136
G1 X97.250 Y73.739 E6.38393
G1 X96.128 Y73.400 E6.45795
G1 X95.452 Y73.226 E6.50204
G1 X94.439 Y73.226 E6.56602
G1 X93.445 Y73.518 E6.63142
G1 X92.687 Y74.005 E6.68837
G1 X93.164 Y74.759 F7800.000
G1 X92.654 Y75.348 F360.000 E6.73756
G1 X92.331 Y76.057 E6.78675
G1 X92.224 Y76.796 E6.83391
G1 X92.224 Y107.909 E8.79858
G1 X92.340 Y108.642 E8.84541
G1 X92.693 Y109.334 E8.89448
G1 X93.243 Y109.884 E8.94355
G1 X93.935 Y110.236 E8.99262
G1 X94.668 Y110.352 E9.03945
G1 X107.858 Y110.352 E9.87237
G1 X108.120 Y110.371 E9.88893
G1 X108.636 Y110.523 E9.92293
G1 X109.076 Y110.805 E9.95591
G1 X109.418 Y111.200 E9.98889
G1 X109.635 Y111.675 E10.02187
G1 X109.714 Y112.224 E10.05689
G1 X109.714 Y130.147 E11.18865
G1 X109.618 Y131.514 E11.27520
G1 X109.336 Y132.840 E11.36076
G1 X108.873 Y134.113 E11.44633
G1 X108.237 Y135.309 E11.53189
G1 X107.440 Y136.406 E11.61746
G1 X106.499 Y137.380 E11.70302
G1 X105.431 Y138.215 E11.78858
G1 X104.258 Y138.892 E11.87415
G1 X103.001 Y139.400 E11.95971
G1 X101.687 Y139.728 E12.04528
G1 X100.339 Y139.869 E12.13084
G1 X98.985 Y139.822 E12.21640
G1 X97.650 Y139.587 E12.30197
G1 X96.362 Y139.168 E12.38753
G1 X95.144 Y138.574 E12.47310
G1 X94.081 Y137.857 E12.55404
G1 X93.013 Y136.909 E12.64418
G1 X92.142 Y135.871 E12.72974
G1 X91.424 Y134.722 E12.81531
G1 X90.873 Y133.484 E12.90087
G1 X90.500 Y132.182 E12.98644
G1 X90.310 Y130.832 E13.07249
G1 X90.286 Y130.155 E13.11531
G1 X90.286 Y69.845 E16.92358
G1 X90.310 Y69.168 E16.96639
G1 X90.500 Y67.818 E17.05244
G1 X90.873 Y66.516 E17.13801
G1 X91.424 Y65.278 E17.22357
G1 X92.142 Y64.129 E17.30914
G1 X93.013 Y63.091 E17.39470
G1 X94.020 Y62.184 E17.48027
G1 X95.083 Y61.467 E17.56121
G1 X96.362 Y60.832 E17.65135
G1 X97.650 Y60.413 E17.73691
G1 X99.058 Y60.176 E17.82706
G1 X100.339 Y60.131 E17.90800
G1 X101.687 Y60.272 E17.99356
G1 X103.001 Y60.600 E18.07913
G1 X104.258 Y61.108 E18.16469
G1 X105.431 Y61.785 E18.25026
G1 X106.499 Y62.620 E18.33582
G1 X107.440 Y63.594 E18.42138
G1 X108.237 Y64.691 E18.50695
G1 X108.873 Y65.887 E18.59251
G1 X109.336 Y67.160 E18.67808
G1 X109.618 Y68.488 E18.76375
G1 X109.713 Y69.837 E18.84915
G1 X109.618 Y71.189 E18.93477
G1 X109.334 Y72.525 E19.02102
G1 X107.733 Y77.745 E19.36579
G1 X105.068 Y77.745 E19.53412
G1 X106.668 Y71.553 E19.93798
G1 X106.783 Y71.024 E19.97218
G1 X106.887 Y69.838 E20.04733
G1 X106.792 Y68.736 E20.11722
G1 X106.782 Y68.638 E20.12339
G1 X106.472 Y67.482 E20.19899
G1 X105.965 Y66.394 E20.27480
G1 X105.276 Y65.410 E20.35061
G1 X104.427 Y64.561 E20.42642
G1 X103.444 Y63.873 E20.50223
G1 X102.356 Y63.365 E20.57804
G1 X101.196 Y63.055 E20.65385
G1 X99.975 Y62.948 E20.73122
G1 X99.606 Y63.022 E20.75502
G1 X99.271 Y63.245 E20.78040
G1 X99.048 Y63.579 E20.80579
G1 X98.970 Y63.973 E20.83117
G1 X99.048 Y64.368 E20.85656
G1 X99.271 Y64.702 E20.88194
G1 X99.606 Y64.925 E20.90733
G1 X99.951 Y64.994 E20.92954
G1 X100.214 Y65.000 E20.94620
G1 X101.302 Y65.157 E21.01555
G1 X101.302 Y65.189 E21.01760
G1 X102.011 Y65.434 E21.06499
G1 X102.808 Y65.895 E21.12310
G1 X103.503 Y66.497 E21.18121
G1 X104.072 Y67.221 E21.23932
G1 X104.503 Y68.069 E21.29938
G1 X104.753 Y68.921 E21.35550
G1 X104.840 Y69.837 E21.41361
G1 X104.753 Y70.754 E21.47172
G1 X104.503 Y71.606 E21.52784
G1 X104.072 Y72.454 E21.58790
G1 X103.503 Y73.178 E21.64601
G1 X102.808 Y73.780 E21.70412
G1 X102.008 Y74.242 E21.76247
G1 X101.287 Y74.505 E21.81088
G1 X100.874 Y74.611 E21.83779
G1 X99.599 Y74.803 E21.91925
G1 X98.320 Y74.803 E22.00001
G1 X97.054 Y74.613 E22.08086
G1 X95.888 Y74.260 E22.15780
G1 X95.339 Y74.119 E22.19358
G1 X94.567 Y74.119 E22.24230
G1 X93.820 Y74.338 E22.29149
G1 X93.277 Y74.687 E22.33222
G1 X92.417 Y74.540 F7800.000
G1 F2160.000 E21.33222
G92 E0
G1 X104.245 Y80.273 F7800.000
G1 F2160.000 E1.00000
G1 X107.295 Y80.273 F720.000 E1.19259
G1 X102.101 Y98.988 E2.41903
G1 X98.994 Y98.988 E2.61519
G1 X104.209 Y80.402 E3.83414
G1 X103.568 Y79.381 F7800.000
G1 X108.469 Y79.381 F360.000 E4.14361
G1 X102.779 Y99.881 E5.48705
G1 X97.817 Y99.881 E5.80043
G1 X103.532 Y79.510 E7.13647
G1 X104.297 Y79.896 F7800.000
G1 F2160.000 E6.13647
G92 E0
G1 X108.174 Y112.453 F7800.000
G1 F2160.000 E1.00000
G1 X107.613 Y111.892 F1080.000 E1.05009
G1 X106.350 Y111.892 E1.12994
G1 X108.174 Y113.716 E1.29294
G1 X108.174 Y114.980 E1.37278
G1 X105.086 Y111.892 E1.64871
G1 X103.823 Y111.892 E1.72855
G1 X108.174 Y116.243 E2.11738
G1 X108.174 Y117.506 E2.19722
G1 X102.560 Y111.892 E2.69897
G1 X101.296 Y111.892 E2.77881
G1 X108.174 Y118.770 E3.39348
G1 X108.174 Y120.033 E3.47332
G1 X100.033 Y111.892 E4.20089
G1 X98.769 Y111.892 E4.28073
G1 X108.174 Y121.297 E5.12122
G1 X108.174 Y122.560 E5.20106
G1 X97.506 Y111.892 E6.15447
G1 X96.242 Y111.892 E6.23431
G1 X108.174 Y123.824 E7.30062
G1 X108.174 Y125.087 E7.38047
G1 X94.979 Y111.892 E8.55970
G1 X93.559 Y111.736 E8.64996
G1 X108.174 Y126.350 E9.95608
G1 X108.174 Y127.614 E10.03592
G1 X91.826 Y111.266 E11.49692
G1 X91.826 Y112.530 E11.57676
G1 X108.174 Y128.877 E13.03776
G1 X108.171 Y130.138 E13.11740
G1 X91.826 Y113.793 E14.57812
G1 X91.826 Y115.057 E14.65796
G1 X108.086 Y131.316 E16.11110
G1 X103.098 Y137.700 F7800.000
G1 X99.379 Y133.980 F1080.000 E16.44353
G1 X100.639 Y133.977 E16.52320
G1 X103.952 Y137.290 E16.81930
G1 X104.732 Y136.807 E16.87728
G1 X101.609 Y133.683 E17.15640
G1 X102.411 Y133.222 E17.21487
G1 X105.441 Y136.253 E17.48574
G1 X106.065 Y135.613 E17.54220
G1 X103.042 Y132.590 E17.81236
G1 X103.510 Y131.794 E17.87070
G1 X106.625 Y134.909 E18.14908
G1 X107.116 Y134.137 E18.20690
G1 X103.810 Y130.831 E18.50238
G1 X103.824 Y129.581 E18.58135
G1 X107.534 Y133.291 E18.91289
G1 X107.864 Y132.358 E18.97542
G1 X91.826 Y116.320 E20.40876
G1 X91.826 Y117.583 E20.48861
G1 X100.581 Y126.339 E21.27107
G1 X99.332 Y126.352 E21.35004
G1 X91.826 Y118.847 E22.02082
G1 X91.826 Y120.110 E22.10066
G1 X98.369 Y126.653 E22.68538
G1 X97.573 Y127.120 E22.74372
G1 X91.826 Y121.374 E23.25728
G1 X91.826 Y122.637 E23.33712
G1 X96.941 Y127.752 E23.79422
G1 X96.479 Y128.553 E23.85269
G1 X91.826 Y123.901 E24.26852
G1 X91.826 Y125.164 E24.34836
G1 X96.185 Y129.523 E24.73794
G1 X96.183 Y130.784 E24.81760
G1 X91.826 Y126.427 E25.20693
G1 X91.826 Y127.691 E25.28678
G1 X102.158 Y138.023 E26.21015
G1 X101.111 Y138.240 E26.27770
G1 X91.826 Y128.954 E27.10754
G1 X91.829 Y130.221 E27.18758
G1 X99.922 Y138.314 E27.91084
G1 X98.522 Y138.177 E27.99978
G1 X91.977 Y131.632 E28.58463
G1 X92.553 Y133.471 E28.70640
G1 X96.702 Y137.621 E29.07723
G1 X91.278 Y106.928 F7800.000
G1 X91.233 Y77.823 F360.000 E30.91648
G1 F2160.000 E29.91648
G92 E0
G1 X105.701 Y80.920 F7800.000
G1 F2160.000 E1.00000
G1 X106.282 Y81.502 F1080.000 E1.05193
G1 X106.008 Y82.491 E1.11674
G1 X104.670 Y81.153 E1.23620
G1 X104.393 Y82.140 E1.30091
G1 X105.733 Y83.480 E1.42057
G1 X105.459 Y84.469 E1.48538
G1 X104.116 Y83.126 E1.60526
G1 X103.840 Y84.113 E1.66996
G1 X105.184 Y85.458 E1.79005
G1 X104.910 Y86.447 E1.85486
G1 X103.563 Y85.100 E1.97515
G1 X103.286 Y86.086 E2.03986
G1 X104.635 Y87.436 E2.16036
G1 X104.361 Y88.425 E2.22517
G1 X103.009 Y87.073 E2.34588
G1 X102.732 Y88.060 E2.41059
G1 X104.086 Y89.414 E2.53151
