; generated by Slic3r 0.9.11-dev on 2013-08-01 at 20:29:01

; layer_height = 0.3
; perimeters = 2
; top_solid_layers = 3
; bottom_solid_layers = 3
; fill_density = .3
; perimeter_speed = 40
; infill_speed = 60
; travel_speed = 130
; nozzle_diameter = 0.5
; filament_diameter = 3
; extrusion_multiplier = 1
; perimeters extrusion width = 0.50mm
; infill extrusion width = 0.70mm
; solid infill extrusion width = 0.70mm
; top infill extrusion width = 0.70mm
; first layer extrusion width = 0.60mm

G21 ; set units to millimeters
M107 ; disable fan
M190 S60 ; wait for bed temperature to be reached
M104 S180 ; set temperature
G28 ; home all axes
M109 S180 ; wait for temperature to be reached
G90 ; use absolute coordinates
G92 E0 ; reset extrusion distance
M82 ; use absolute distances for extrusion
G1 F2160.000 E-1.00000 ; retract
G92 E0 ; reset extrusion distance
G1 Z0.300 F7800.000 ; move to next layer (0)
G1 X17.720 Y75.550 ; move to first skirt point
G1 F2160.000 E1.00000 ; compensate retraction
G1 X19.000 Y75.420 F720.000 E1.03159 ; skirt
G1 X181.000 Y75.420 E5.00934 ; skirt
G1 X182.280 Y75.550 E5.04093 ; skirt
G1 X183.520 Y75.920 E5.07270 ; skirt
G1 X184.650 Y76.530 E5.10423 ; skirt
G1 X185.650 Y77.350 E5.13599 ; skirt
G1 X186.470 Y78.350 E5.16774 ; skirt
G1 X187.080 Y79.480 E5.19927 ; skirt
G1 X187.450 Y80.720 E5.23104 ; skirt
G1 X187.580 Y82.000 E5.26263 ; skirt
G1 X187.580 Y118.000 E6.14658 ; skirt
G1 X187.450 Y119.280 E6.17817 ; skirt
G1 X187.080 Y120.520 E6.20994 ; skirt
G1 X186.470 Y121.650 E6.24147 ; skirt
G1 X185.650 Y122.650 E6.27323 ; skirt
G1 X184.650 Y123.470 E6.30498 ; skirt
G1 X183.520 Y124.080 E6.33651 ; skirt
G1 X182.280 Y124.450 E6.36828 ; skirt
G1 X181.000 Y124.580 E6.39987 ; skirt
G1 X19.000 Y124.580 E10.37762 ; skirt
G1 X17.720 Y124.450 E10.40921 ; skirt
G1 X16.480 Y124.080 E10.44099 ; skirt
G1 X15.350 Y123.470 E10.47252 ; skirt
G1 X14.350 Y122.650 E10.50427 ; skirt
G1 X13.530 Y121.650 E10.53602 ; skirt
G1 X12.920 Y120.520 E10.56755 ; skirt
G1 X12.550 Y119.280 E10.59933 ; skirt
G1 X12.420 Y118.000 E10.63092 ; skirt
G1 X12.420 Y82.000 E11.51486 ; skirt
G1 X12.550 Y80.720 E11.54645 ; skirt
G1 X12.920 Y79.480 E11.57823 ; skirt
G1 X13.530 Y78.350 E11.60976 ; skirt
G1 X14.350 Y77.350 E11.64151 ; skirt
G1 X15.350 Y76.530 E11.67326 ; skirt
G1 X16.480 Y75.920 E11.70479 ; skirt
G1 X17.637 Y75.575 E11.73444 ; skirt
G1 F2160.000 E10.73444 ; retract
G92 E0 ; reset extrusion distance
G1 X19.868 Y82.868 F7800.000 ; move to first perimeter point
G1 F2160.000 E1.00000 ; compensate retraction
G1 X180.132 Y82.868 F720.000 E4.93513 ; perimeter
G1 X180.132 Y117.132 E5.77646 ; perimeter
G1 X19.868 Y117.132 E9.71159 ; perimeter
G1 X19.868 Y82.955 E10.55078 ; perimeter
G1 X19.289 Y82.289 F7800.000 ; move to first perimeter point
G1 X180.711 Y82.289 F720.000 E14.51433 ; perimeter
G1 X180.711 Y117.711 E15.38406 ; perimeter
G1 X19.289 Y117.711 E19.34760 ; perimeter
G1 X19.289 Y82.376 E20.21521 ; perimeter
G1 X19.790 Y82.579 F7800.000 ; move inwards before travel
G1 X20.814 Y116.713 ; move to first fill point
G1 X20.287 Y116.186 F1080.000 E20.23351 ; fill
G1 X20.287 Y115.367 E20.25363 ; fill
G1 X21.633 Y116.713 E20.30039 ; fill
G1 X22.451 Y116.713 E20.32050 ; fill
G1 X20.287 Y114.549 E20.39571 ; fill
G1 X20.287 Y113.730 E20.41583 ; fill
G1 X23.270 Y116.713 E20.51948 ; fill
G1 X24.089 Y116.713 E20.53960 ; fill
G1 X20.287 Y112.911 E20.67171 ; fill
G1 X20.287 Y112.092 E20.69182 ; fill
G1 X24.908 Y116.713 E20.85238 ; fill
G1 X25.726 Y116.713 E20.87250 ; fill
G1 X20.287 Y111.274 E21.06151 ; fill
G1 X20.287 Y110.455 E21.08162 ; fill
G1 X26.545 Y116.713 E21.29908 ; fill
G1 X27.364 Y116.713 E21.31920 ; fill
G1 X20.287 Y109.636 E21.56511 ; fill
G1 X20.287 Y108.817 E21.58523 ; fill
G1 X28.183 Y116.713 E21.85959 ; fill
G1 X29.001 Y116.713 E21.87971 ; fill
G1 X20.287 Y107.999 E22.18252 ; fill
G1 X20.287 Y107.180 E22.20264 ; fill
G1 X29.820 Y116.713 E22.53390 ; fill
G1 X30.639 Y116.713 E22.55402 ; fill
G1 X20.287 Y106.361 E22.91374 ; fill
G1 X20.287 Y105.542 E22.93385 ; fill
G1 X31.458 Y116.713 E23.32202 ; fill
G1 X32.276 Y116.713 E23.34214 ; fill
G1 X20.287 Y104.724 E23.75876 ; fill
G1 X20.287 Y103.905 E23.77887 ; fill
G1 X33.095 Y116.713 E24.22394 ; fill
G1 X33.914 Y116.713 E24.24406 ; fill
G1 X20.287 Y103.086 E24.71758 ; fill
G1 X20.287 Y102.267 E24.73770 ; fill
G1 X34.733 Y116.713 E25.23967 ; fill
G1 X35.551 Y116.713 E25.25978 ; fill
G1 X20.287 Y101.449 E25.79020 ; fill
G1 X20.287 Y100.630 E25.81032 ; fill
G1 X36.370 Y116.713 E26.36919 ; fill
G1 X37.189 Y116.713 E26.38931 ; fill
G1 X20.287 Y99.811 E26.97664 ; fill
G1 X20.287 Y98.992 E26.99675 ; fill
G1 X38.008 Y116.713 E27.61253 ; fill
G1 X38.826 Y116.713 E27.63265 ; fill
G1 X20.287 Y98.174 E28.27687 ; fill
G1 X20.287 Y97.355 E28.29699 ; fill
G1 X39.645 Y116.713 E28.96966 ; fill
G1 X40.464 Y116.713 E28.98978 ; fill
G1 X20.287 Y96.536 E29.69091 ; fill
G1 X20.287 Y95.717 E29.71103 ; fill
G1 X41.283 Y116.713 E30.44061 ; fill
G1 X42.101 Y116.713 E30.46072 ; fill
G1 X20.287 Y94.899 E31.21875 ; fill
G1 X20.287 Y94.080 E31.23887 ; fill
G1 X42.920 Y116.713 E32.02535 ; fill
G1 X43.739 Y116.713 E32.04547 ; fill
G1 X20.287 Y93.261 E32.86040 ; fill
G1 X20.287 Y92.442 E32.88052 ; fill
G1 X44.558 Y116.713 E33.72390 ; fill
G1 X45.377 Y116.713 E33.74402 ; fill
G1 X20.287 Y91.623 E34.61585 ; fill
G1 X20.287 Y90.805 E34.63597 ; fill
G1 X46.195 Y116.713 E35.53626 ; fill
G1 X47.014 Y116.713 E35.55637 ; fill
G1 X20.287 Y89.986 E36.48511 ; fill
G1 X20.287 Y89.167 E36.50523 ; fill
G1 X47.833 Y116.713 E37.46241 ; fill
G1 X48.652 Y116.713 E37.48253 ; fill
G1 X20.287 Y88.348 E38.46817 ; fill
G1 X20.287 Y87.530 E38.48829 ; fill
G1 X49.470 Y116.713 E39.50238 ; fill
G1 X50.289 Y116.713 E39.52249 ; fill
G1 X20.287 Y86.711 E40.56503 ; fill
G1 X20.287 Y85.892 E40.58515 ; fill
G1 X51.108 Y116.713 E41.65614 ; fill
G1 X51.927 Y116.713 E41.67626 ; fill
G1 X20.287 Y85.073 E42.77570 ; fill
G1 X20.287 Y84.255 E42.79582 ; fill
G1 X52.745 Y116.713 E43.92371 ; fill
G1 X53.564 Y116.713 E43.94383 ; fill
G1 X20.287 Y83.436 E45.10018 ; fill
G1 X20.957 Y83.287 E45.11704 ; fill
G1 X54.383 Y116.713 E46.27855 ; fill
G1 X55.202 Y116.713 E46.29867 ; fill
G1 X21.776 Y83.287 E47.46019 ; fill
G1 X22.595 Y83.287 E47.48030 ; fill
G1 X56.020 Y116.713 E48.64182 ; fill
G1 X56.839 Y116.713 E48.66194 ; fill
G1 X23.413 Y83.287 E49.82345 ; fill
G1 X24.232 Y83.287 E49.84357 ; fill
G1 X57.658 Y116.713 E51.00508 ; fill
G1 X58.477 Y116.713 E51.02520 ; fill
G1 X25.051 Y83.287 E52.18671 ; fill
G1 X25.870 Y83.287 E52.20683 ; fill
G1 X59.295 Y116.713 E53.36835 ; fill
G1 X60.114 Y116.713 E53.38846 ; fill
G1 X26.688 Y83.287 E54.54998 ; fill
G1 X27.507 Y83.287 E54.57010 ; fill
G1 X60.933 Y116.713 E55.73161 ; fill
G1 X61.752 Y116.713 E55.75173 ; fill
G1 X28.326 Y83.287 E56.91324 ; fill
G1 X29.145 Y83.287 E56.93336 ; fill
G1 X62.570 Y116.713 E58.09488 ; fill
G1 X63.389 Y116.713 E58.11499 ; fill
G1 X29.963 Y83.287 E59.27651 ; fill
G1 X30.782 Y83.287 E59.29663 ; fill
G1 X64.208 Y116.713 E60.45814 ; fill
G1 X65.027 Y116.713 E60.47826 ; fill
G1 X31.601 Y83.287 E61.63977 ; fill
G1 X32.420 Y83.287 E61.65989 ; fill
G1 X65.845 Y116.713 E62.82141 ; fill
G1 X66.664 Y116.713 E62.84152 ; fill
G1 X33.238 Y83.287 E64.00304 ; fill
G1 X34.057 Y83.287 E64.02316 ; fill
G1 X67.483 Y116.713 E65.18467 ; fill
G1 X68.302 Y116.713 E65.20479 ; fill
G1 X34.876 Y83.287 E66.36630 ; fill
G1 X35.695 Y83.287 E66.38642 ; fill
G1 X69.120 Y116.713 E67.54793 ; fill
G1 X69.939 Y116.713 E67.56805 ; fill
G1 X36.513 Y83.287 E68.72957 ; fill
G1 X37.332 Y83.287 E68.74968 ; fill
G1 X70.758 Y116.713 E69.91120 ; fill
G1 X71.577 Y116.713 E69.93132 ; fill
G1 X38.151 Y83.287 E71.09283 ; fill
G1 X38.970 Y83.287 E71.11295 ; fill
G1 X72.395 Y116.713 E72.27446 ; fill
G1 X73.214 Y116.713 E72.29458 ; fill
G1 X39.788 Y83.287 E73.45610 ; fill
G1 X40.607 Y83.287 E73.47621 ; fill
G1 X74.033 Y116.713 E74.63773 ; fill
G1 X74.852 Y116.713 E74.65785 ; fill
G1 X41.426 Y83.287 E75.81936 ; fill
G1 X42.245 Y83.287 E75.83948 ; fill
G1 X75.670 Y116.713 E77.00099 ; fill
G1 X76.489 Y116.713 E77.02111 ; fill
G1 X43.064 Y83.287 E78.18263 ; fill
G1 X43.882 Y83.287 E78.20274 ; fill
G1 X77.308 Y116.713 E79.36426 ; fill
G1 X78.127 Y116.713 E79.38438 ; fill
G1 X44.701 Y83.287 E80.54589 ; fill
G1 X45.520 Y83.287 E80.56601 ; fill
G1 X78.946 Y116.713 E81.72752 ; fill
G1 X79.764 Y116.713 E81.74764 ; fill
G1 X46.339 Y83.287 E82.90915 ; fill
G1 X47.157 Y83.287 E82.92927 ; fill
G1 X80.583 Y116.713 E84.09079 ; fill
G1 X81.402 Y116.713 E84.11091 ; fill
G1 X47.976 Y83.287 E85.27242 ; fill
G1 X48.795 Y83.287 E85.29254 ; fill
G1 X82.221 Y116.713 E86.45405 ; fill
G1 X83.039 Y116.713 E86.47417 ; fill
G1 X49.614 Y83.287 E87.63568 ; fill
G1 X50.432 Y83.287 E87.65580 ; fill
G1 X83.858 Y116.713 E88.81732 ; fill
G1 X84.677 Y116.713 E88.83743 ; fill
G1 X51.251 Y83.287 E89.99895 ; fill
G1 X52.070 Y83.287 E90.01907 ; fill
G1 X85.496 Y116.713 E91.18058 ; fill
G1 X86.314 Y116.713 E91.20070 ; fill
G1 X52.889 Y83.287 E92.36221 ; fill
G1 X53.707 Y83.287 E92.38233 ; fill
G1 X87.133 Y116.713 E93.54385 ; fill
G1 X87.952 Y116.713 E93.56396 ; fill
G1 X54.526 Y83.287 E94.72548 ; fill
G1 X55.345 Y83.287 E94.74560 ; fill
G1 X88.771 Y116.713 E95.90711 ; fill
G1 X89.589 Y116.713 E95.92723 ; fill
G1 X56.164 Y83.287 E97.08874 ; fill
G1 X56.982 Y83.287 E97.10886 ; fill
G1 X90.408 Y116.713 E98.27038 ; fill
G1 X91.227 Y116.713 E98.29049 ; fill
G1 X57.801 Y83.287 E99.45201 ; fill
G1 X58.620 Y83.287 E99.47213 ; fill
G1 X92.046 Y116.713 E100.63364 ; fill
G1 X92.864 Y116.713 E100.65376 ; fill
G1 X59.439 Y83.287 E101.81527 ; fill
G1 X60.257 Y83.287 E101.83539 ; fill
G1 X93.683 Y116.713 E102.99690 ; fill
G1 X94.502 Y116.713 E103.01702 ; fill
G1 X61.076 Y83.287 E104.17854 ; fill
G1 X61.895 Y83.287 E104.19865 ; fill
G1 X95.321 Y116.713 E105.36017 ; fill
G1 X96.139 Y116.713 E105.38029 ; fill
G1 X62.714 Y83.287 E106.54180 ; fill
G1 X63.532 Y83.287 E106.56192 ; fill
G1 X96.958 Y116.713 E107.72343 ; fill
G1 X97.777 Y116.713 E107.74355 ; fill
G1 X64.351 Y83.287 E108.90507 ; fill
G1 X65.170 Y83.287 E108.92518 ; fill
G1 X98.596 Y116.713 E110.08670 ; fill
G1 X99.414 Y116.713 E110.10682 ; fill
G1 X65.989 Y83.287 E111.26833 ; fill
G1 X66.807 Y83.287 E111.28845 ; fill
G1 X100.233 Y116.713 E112.44996 ; fill
G1 X101.052 Y116.713 E112.47008 ; fill
G1 X67.626 Y83.287 E113.63160 ; fill
G1 X68.445 Y83.287 E113.65171 ; fill
G1 X101.871 Y116.713 E114.81323 ; fill
G1 X102.689 Y116.713 E114.83335 ; fill
G1 X69.264 Y83.287 E115.99486 ; fill
G1 X70.082 Y83.287 E116.01498 ; fill
G1 X103.508 Y116.713 E117.17649 ; fill
G1 X104.327 Y116.713 E117.19661 ; fill
G1 X70.901 Y83.287 E118.35812 ; fill
G1 X71.720 Y83.287 E118.37824 ; fill
G1 X105.146 Y116.713 E119.53976 ; fill
G1 X105.964 Y116.713 E119.55987 ; fill
G1 X72.539 Y83.287 E120.72139 ; fill
G1 X73.357 Y83.287 E120.74151 ; fill
G1 X106.783 Y116.713 E121.90302 ; fill
G1 X107.602 Y116.713 E121.92314 ; fill
G1 X74.176 Y83.287 E123.08465 ; fill
G1 X74.995 Y83.287 E123.10477 ; fill
G1 X108.421 Y116.713 E124.26629 ; fill
G1 X109.240 Y116.713 E124.28640 ; fill
G1 X75.814 Y83.287 E125.44792 ; fill
G1 X76.633 Y83.287 E125.46804 ; fill
G1 X110.058 Y116.713 E126.62955 ; fill
G1 X110.877 Y116.713 E126.64967 ; fill
G1 X77.451 Y83.287 E127.81118 ; fill
G1 X78.270 Y83.287 E127.83130 ; fill
G1 X111.696 Y116.713 E128.99282 ; fill
G1 X112.515 Y116.713 E129.01293 ; fill
G1 X79.089 Y83.287 E130.17445 ; fill
G1 X79.908 Y83.287 E130.19457 ; fill
G1 X113.333 Y116.713 E131.35608 ; fill
G1 X114.152 Y116.713 E131.37620 ; fill
G1 X80.726 Y83.287 E132.53771 ; fill
G1 X81.545 Y83.287 E132.55783 ; fill
G1 X114.971 Y116.713 E133.71934 ; fill
G1 X115.790 Y116.713 E133.73946 ; fill
G1 X82.364 Y83.287 E134.90098 ; fill
G1 X83.183 Y83.287 E134.92110 ; fill
G1 X116.608 Y116.713 E136.08261 ; fill
G1 X117.427 Y116.713 E136.10273 ; fill
G1 X84.001 Y83.287 E137.26424 ; fill
G1 X84.820 Y83.287 E137.28436 ; fill
G1 X118.246 Y116.713 E138.44587 ; fill
G1 X119.065 Y116.713 E138.46599 ; fill
G1 X85.639 Y83.287 E139.62751 ; fill
G1 X86.458 Y83.287 E139.64762 ; fill
G1 X119.883 Y116.713 E140.80914 ; fill
G1 X120.702 Y116.713 E140.82926 ; fill
G1 X87.276 Y83.287 E141.99077 ; fill
G1 X88.095 Y83.287 E142.01089 ; fill
G1 X121.521 Y116.713 E143.17240 ; fill
G1 X122.340 Y116.713 E143.19252 ; fill
G1 X88.914 Y83.287 E144.35404 ; fill
G1 X89.733 Y83.287 E144.37415 ; fill
G1 X123.158 Y116.713 E145.53567 ; fill
G1 X123.977 Y116.713 E145.55579 ; fill
G1 X90.551 Y83.287 E146.71730 ; fill
G1 X91.370 Y83.287 E146.73742 ; fill
G1 X124.796 Y116.713 E147.89893 ; fill
G1 X125.615 Y116.713 E147.91905 ; fill
G1 X92.189 Y83.287 E149.08057 ; fill
G1 X93.008 Y83.287 E149.10068 ; fill
G1 X126.433 Y116.713 E150.26220 ; fill
G1 X127.252 Y116.713 E150.28232 ; fill
G1 X93.826 Y83.287 E151.44383 ; fill
G1 X94.645 Y83.287 E151.46395 ; fill
G1 X128.071 Y116.713 E152.62546 ; fill
G1 X128.890 Y116.713 E152.64558 ; fill
G1 X95.464 Y83.287 E153.80709 ; fill
G1 X96.283 Y83.287 E153.82721 ; fill
G1 X129.708 Y116.713 E154.98873 ; fill
G1 X130.527 Y116.713 E155.00884 ; fill
G1 X97.101 Y83.287 E156.17036 ; fill
G1 X97.920 Y83.287 E156.19048 ; fill
G1 X131.346 Y116.713 E157.35199 ; fill
G1 X132.165 Y116.713 E157.37211 ; fill
G1 X98.739 Y83.287 E158.53362 ; fill
G1 X99.558 Y83.287 E158.55374 ; fill
G1 X132.983 Y116.713 E159.71526 ; fill
G1 X133.802 Y116.713 E159.73537 ; fill
G1 X100.376 Y83.287 E160.89689 ; fill
G1 X101.195 Y83.287 E160.91701 ; fill
G1 X134.621 Y116.713 E162.07852 ; fill
G1 X135.440 Y116.713 E162.09864 ; fill
G1 X102.014 Y83.287 E163.26015 ; fill
G1 X102.833 Y83.287 E163.28027 ; fill
G1 X136.258 Y116.713 E164.44179 ; fill
G1 X137.077 Y116.713 E164.46190 ; fill
G1 X103.651 Y83.287 E165.62342 ; fill
G1 X104.470 Y83.287 E165.64354 ; fill
G1 X137.896 Y116.713 E166.80505 ; fill
G1 X138.715 Y116.713 E166.82517 ; fill
G1 X105.289 Y83.287 E167.98668 ; fill
G1 X106.108 Y83.287 E168.00680 ; fill
G1 X139.533 Y116.713 E169.16831 ; fill
G1 X140.352 Y116.713 E169.18843 ; fill
G1 X106.927 Y83.287 E170.34995 ; fill
G1 X107.745 Y83.287 E170.37006 ; fill
G1 X141.171 Y116.713 E171.53158 ; fill
G1 X141.990 Y116.713 E171.55170 ; fill
G1 X108.564 Y83.287 E172.71321 ; fill
G1 X109.383 Y83.287 E172.73333 ; fill
G1 X142.809 Y116.713 E173.89484 ; fill
G1 X143.627 Y116.713 E173.91496 ; fill
G1 X110.202 Y83.287 E175.07648 ; fill
G1 X111.020 Y83.287 E175.09659 ; fill
G1 X144.446 Y116.713 E176.25811 ; fill
G1 X145.265 Y116.713 E176.27823 ; fill
G1 X111.839 Y83.287 E177.43974 ; fill
G1 X112.658 Y83.287 E177.45986 ; fill
G1 X146.084 Y116.713 E178.62137 ; fill
G1 X146.902 Y116.713 E178.64149 ; fill
G1 X113.477 Y83.287 E179.80301 ; fill
G1 X114.295 Y83.287 E179.82312 ; fill
G1 X147.721 Y116.713 E180.98464 ; fill
G1 X148.540 Y116.713 E181.00476 ; fill
G1 X115.114 Y83.287 E182.16627 ; fill
G1 X115.933 Y83.287 E182.18639 ; fill
G1 X149.359 Y116.713 E183.34790 ; fill
G1 X150.177 Y116.713 E183.36802 ; fill
G1 X116.752 Y83.287 E184.52953 ; fill
G1 X117.570 Y83.287 E184.54965 ; fill
G1 X150.996 Y116.713 E185.71117 ; fill
G1 X151.815 Y116.713 E185.73128 ; fill
G1 X118.389 Y83.287 E186.89280 ; fill
G1 X119.208 Y83.287 E186.91292 ; fill
G1 X152.634 Y116.713 E188.07443 ; fill
G1 X153.452 Y116.713 E188.09455 ; fill
G1 X120.027 Y83.287 E189.25606 ; fill
G1 X120.845 Y83.287 E189.27618 ; fill
G1 X154.271 Y116.713 E190.43770 ; fill
G1 X155.090 Y116.713 E190.45781 ; fill
G1 X121.664 Y83.287 E191.61933 ; fill
G1 X122.483 Y83.287 E191.63945 ; fill
G1 X155.909 Y116.713 E192.80096 ; fill
G1 X156.727 Y116.713 E192.82108 ; fill
G1 X123.302 Y83.287 E193.98259 ; fill
G1 X124.120 Y83.287 E194.00271 ; fill
G1 X157.546 Y116.713 E195.16423 ; fill
G1 X158.365 Y116.713 E195.18434 ; fill
G1 X124.939 Y83.287 E196.34586 ; fill
G1 X125.758 Y83.287 E196.36598 ; fill
G1 X159.184 Y116.713 E197.52749 ; fill
G1 X160.002 Y116.713 E197.54761 ; fill
G1 X126.577 Y83.287 E198.70912 ; fill
G1 X127.395 Y83.287 E198.72924 ; fill
G1 X160.821 Y116.713 E199.89075 ; fill
G1 X161.640 Y116.713 E199.91087 ; fill
G1 X128.214 Y83.287 E201.07239 ; fill
G1 X129.033 Y83.287 E201.09250 ; fill
