; generated by Slic3r 0.9.11-dev on 2013-07-14 at 23:28:17

; layer_height = 0.4
; perimeters = 3
; top_solid_layers = 3
; bottom_solid_layers = 3
; fill_density = 0.25
; perimeter_speed = 30
; infill_speed = 60
; travel_speed = 130
; nozzle_diameter = 0.5
; filament_diameter = 3
; extrusion_multiplier = 1
; perimeters extrusion width = 0.50mm
; infill extrusion width = 0.53mm
; solid infill extrusion width = 0.53mm
; top infill extrusion width = 0.53mm
; first layer extrusion width = 1.00mm

G21 ; set units to millimeters
M107
M104 S200 ; set temperature
G28 ; home all axes
G1 Z5 F5000 ; lift nozzle
M109 S200 ; wait for temperature to be reached
G90 ; use absolute coordinates
G92 E0
M82 ; use absolute distances for extrusion
G1 F2160.000 E-1.00000
G92 E0
G1 Z0.500 F7800.000
G1 X50.855 Y2.380
G1 F2160.000 E1.00000
G1 X50.985 Y1.040 F540.000 E1.08501
G1 X51.375 Y-0.260 E1.17072
G1 X52.015 Y-1.450 E1.25604
G1 X52.875 Y-2.490 E1.34125
G1 X53.915 Y-3.350 E1.42647
G1 X55.105 Y-3.990 E1.51179
G1 X56.405 Y-4.380 E1.59749
G1 X57.745 Y-4.510 E1.68251
G1 X92.245 Y-4.510 E3.86103
G1 X93.585 Y-4.380 E3.94604
G1 X94.885 Y-3.990 E4.03174
G1 X96.075 Y-3.350 E4.11706
G1 X97.115 Y-2.490 E4.20228
G1 X97.975 Y-1.450 E4.28750
G1 X98.615 Y-0.260 E4.37282
G1 X99.005 Y1.040 E4.45852
G1 X99.135 Y2.380 E4.54353
G1 X99.135 Y157.620 E14.34625
G1 X99.005 Y158.960 E14.43126
G1 X98.615 Y160.260 E14.51696
G1 X97.975 Y161.450 E14.60229
G1 X97.115 Y162.490 E14.68750
G1 X96.075 Y163.350 E14.77272
G1 X94.885 Y163.990 E14.85804
G1 X93.585 Y164.380 E14.94374
G1 X92.245 Y164.510 E15.02875
G1 X57.745 Y164.510 E17.20728
G1 X56.405 Y164.380 E17.29229
G1 X55.105 Y163.990 E17.37799
G1 X53.915 Y163.350 E17.46331
G1 X52.875 Y162.490 E17.54853
G1 X52.015 Y161.450 E17.63375
G1 X51.375 Y160.260 E17.71907
G1 X50.985 Y158.960 E17.80477
G1 X50.855 Y157.620 E17.88978
G1 X50.855 Y2.514 E27.68404
G1 F2160.000 E26.68404
G92 E0
G1 X59.982 Y4.607 F7800.000
G1 F2160.000 E1.00000
G1 X90.018 Y4.607 F540.000 E2.89667
G1 X90.018 Y155.393 E12.41817
G1 X59.982 Y155.393 E14.31484
G1 X59.982 Y4.741 E23.82788
G1 X59.089 Y3.714 F7800.000
G1 X90.911 Y3.714 F540.000 E25.83729
G1 X90.911 Y156.286 E35.47152
G1 X59.089 Y156.286 E37.48094
G1 X59.089 Y3.848 E47.10672
G1 X58.196 Y2.821 F7800.000
G1 X91.804 Y2.821 F378.000 E49.22887
G1 X91.804 Y157.179 E58.97584
G1 X58.196 Y157.179 E61.09799
G1 X58.196 Y2.955 E70.83651
G1 X58.969 Y3.268 F7800.000
G1 X89.167 Y5.254
G1 X89.371 Y5.458 F1080.000 E70.85483
G1 X89.371 Y6.724 E70.93497
G1 X87.901 Y5.254 E71.06661
G1 X86.635 Y5.254 E71.14675
G1 X89.371 Y7.990 E71.39173
G1 X89.371 Y9.256 E71.47187
G1 X85.369 Y5.254 E71.83019
G1 X84.103 Y5.254 E71.91033
G1 X89.371 Y10.522 E72.38198
G1 X89.371 Y11.787 E72.46212
G1 X82.838 Y5.254 E73.04710
G1 X81.572 Y5.254 E73.12724
G1 X89.371 Y13.053 E73.82556
G1 X89.371 Y14.319 E73.90570
G1 X80.306 Y5.254 E74.71735
G1 X79.040 Y5.254 E74.79749
G1 X89.371 Y15.585 E75.72247
G1 X89.371 Y16.850 E75.80261
G1 X77.775 Y5.254 E76.84093
G1 X76.509 Y5.254 E76.92107
G1 X89.371 Y18.116 E78.07272
G1 X89.371 Y19.382 E78.15286
G1 X75.243 Y5.254 E79.41784
G1 X73.977 Y5.254 E79.49798
G1 X89.371 Y20.648 E80.87630
G1 X89.371 Y21.914 E80.95644
G1 X72.711 Y5.254 E82.44810
G1 X71.446 Y5.254 E82.52823
G1 X89.371 Y23.179 E84.13322
G1 X89.371 Y24.445 E84.21336
G1 X70.180 Y5.254 E85.93168
G1 X68.914 Y5.254 E86.01182
G1 X89.371 Y25.711 E87.84348
G1 X89.371 Y26.977 E87.92362
G1 X67.648 Y5.254 E89.86860
G1 X66.382 Y5.254 E89.94874
G1 X89.371 Y28.243 E92.00707
G1 X89.371 Y29.508 E92.08721
G1 X65.117 Y5.254 E94.25886
G1 X63.851 Y5.254 E94.33900
G1 X89.371 Y30.774 E96.62399
G1 X89.371 Y32.040 E96.70413
G1 X62.585 Y5.254 E99.10246
G1 X61.319 Y5.254 E99.18259
G1 X89.371 Y33.306 E101.69425
G1 X89.371 Y34.571 E101.77439
G1 X60.629 Y5.829 E104.34787
G1 X60.629 Y7.095 E104.42801
G1 X89.371 Y35.837 E107.00149
G1 X89.371 Y37.103 E107.08163
G1 X60.629 Y8.361 E109.65511
G1 X60.629 Y9.627 E109.73524
G1 X89.371 Y38.369 E112.30872
G1 X89.371 Y39.635 E112.38886
G1 X60.629 Y10.892 E114.96234
G1 X60.629 Y12.158 E115.04248
G1 X89.371 Y40.900 E117.61596
G1 X89.371 Y42.166 E117.69610
G1 X60.629 Y13.424 E120.26958
G1 X60.629 Y14.690 E120.34972
G1 X89.371 Y43.432 E122.92319
G1 X89.371 Y44.698 E123.00333
G1 X60.629 Y15.955 E125.57681
G1 X60.629 Y17.221 E125.65695
G1 X89.371 Y45.964 E128.23043
G1 X89.371 Y47.229 E128.31057
G1 X60.629 Y18.487 E130.88405
G1 X60.629 Y19.753 E130.96419
G1 X89.371 Y48.495 E133.53766
G1 X89.371 Y49.761 E133.61780
G1 X60.629 Y21.019 E136.19128
G1 X60.629 Y22.284 E136.27142
G1 X89.371 Y51.027 E138.84490
G1 X89.371 Y52.293 E138.92504
G1 X60.629 Y23.550 E141.49852
G1 X60.629 Y24.816 E141.57866
G1 X89.371 Y53.558 E144.15213
G1 X89.371 Y54.824 E144.23227
G1 X60.629 Y26.082 E146.80575
G1 X60.629 Y27.348 E146.88589
G1 X89.371 Y56.090 E149.45937
G1 X89.371 Y57.356 E149.53951
G1 X60.629 Y28.613 E152.11299
G1 X60.629 Y29.879 E152.19313
G1 X89.371 Y58.621 E154.76660
G1 X89.371 Y59.887 E154.84674
G1 X60.629 Y31.145 E157.42022
G1 X60.629 Y32.411 E157.50036
G1 X89.371 Y61.153 E160.07384
G1 X89.371 Y62.419 E160.15398
G1 X60.629 Y33.677 E162.72746
G1 X60.629 Y34.942 E162.80760
G1 X89.371 Y63.685 E165.38107
G1 X89.371 Y64.950 E165.46121
G1 X60.629 Y36.208 E168.03469
G1 X60.629 Y37.474 E168.11483
G1 X89.371 Y66.216 E170.68831
G1 X89.371 Y67.482 E170.76845
G1 X60.629 Y38.740 E173.34193
G1 X60.629 Y40.005 E173.42207
G1 X89.371 Y68.748 E175.99554
G1 X89.371 Y70.014 E176.07568
G1 X60.629 Y41.271 E178.64916
G1 X60.629 Y42.537 E178.72930
G1 X89.371 Y71.279 E181.30278
G1 X89.371 Y72.545 E181.38292
G1 X60.629 Y43.803 E183.95640
G1 X60.629 Y45.069 E184.03654
G1 X89.371 Y73.811 E186.61001
G1 X89.371 Y75.077 E186.69015
G1 X60.629 Y46.334 E189.26363
G1 X60.629 Y47.600 E189.34377
G1 X89.371 Y76.343 E191.91725
G1 X89.371 Y77.608 E191.99739
G1 X60.629 Y48.866 E194.57087
G1 X60.629 Y50.132 E194.65101
G1 X89.371 Y78.874 E197.22448
G1 X89.371 Y80.140 E197.30462
G1 X60.629 Y51.398 E199.87810
G1 X60.629 Y52.663 E199.95824
G1 X89.371 Y81.406 E202.53172
G1 X89.371 Y82.671 E202.61186
G1 X60.629 Y53.929 E205.18534
G1 X60.629 Y55.195 E205.26548
G1 X89.371 Y83.937 E207.83896
G1 X89.371 Y85.203 E207.91909
G1 X60.629 Y56.461 E210.49257
G1 X60.629 Y57.726 E210.57271
G1 X89.371 Y86.469 E213.14619
G1 X89.371 Y87.735 E213.22633
G1 X60.629 Y58.992 E215.79981
G1 X60.629 Y60.258 E215.87995
G1 X89.371 Y89.000 E218.45343
G1 X89.371 Y90.266 E218.53356
G1 X60.629 Y61.524 E221.10704
G1 X60.629 Y62.790 E221.18718
G1 X89.371 Y91.532 E223.76066
G1 X89.371 Y92.798 E223.84080
G1 X60.629 Y64.055 E226.41428
G1 X60.629 Y65.321 E226.49442
G1 X89.371 Y94.064 E229.06790
G1 X89.371 Y95.329 E229.14803
G1 X60.629 Y66.587 E231.72151
G1 X60.629 Y67.853 E231.80165
G1 X89.371 Y96.595 E234.37513
G1 X89.371 Y97.861 E234.45527
G1 X60.629 Y69.119 E237.02875
G1 X60.629 Y70.384 E237.10889
G1 X89.371 Y99.127 E239.68237
G1 X89.371 Y100.392 E239.76250
G1 X60.629 Y71.650 E242.33598
G1 X60.629 Y72.916 E242.41612
G1 X89.371 Y101.658 E244.98960
G1 X89.371 Y102.924 E245.06974
G1 X60.629 Y74.182 E247.64322
G1 X60.629 Y75.448 E247.72336
G1 X89.371 Y104.190 E250.29684
G1 X89.371 Y105.456 E250.37697
G1 X60.629 Y76.713 E252.95045
G1 X60.629 Y77.979 E253.03059
G1 X89.371 Y106.721 E255.60407
G1 X89.371 Y107.987 E255.68421
G1 X60.629 Y79.245 E258.25769
G1 X60.629 Y80.511 E258.33783
G1 X89.371 Y109.253 E260.91131
G1 X89.371 Y110.519 E260.99145
G1 X60.629 Y81.776 E263.56492
G1 X60.629 Y83.042 E263.64506
G1 X89.371 Y111.785 E266.21854
G1 X89.371 Y113.050 E266.29868
G1 X60.629 Y84.308 E268.87216
G1 X60.629 Y85.574 E268.95230
G1 X89.371 Y114.316 E271.52578
G1 X89.371 Y115.582 E271.60592
G1 X60.629 Y86.840 E274.17939
G1 X60.629 Y88.105 E274.25953
G1 X89.371 Y116.848 E276.83301
G1 X89.371 Y118.114 E276.91315
G1 X60.629 Y89.371 E279.48663
G1 X60.629 Y90.637 E279.56677
G1 X89.371 Y119.379 E282.14025
G1 X89.371 Y120.645 E282.22039
G1 X60.629 Y91.903 E284.79386
G1 X60.629 Y93.169 E284.87400
G1 X89.371 Y121.911 E287.44748
G1 X89.371 Y123.177 E287.52762
G1 X60.629 Y94.434 E290.10110
G1 X60.629 Y95.700 E290.18124
G1 X89.371 Y124.442 E292.75472
G1 X89.371 Y125.708 E292.83486
G1 X60.629 Y96.966 E295.40833
G1 X60.629 Y98.232 E295.48847
G1 X89.371 Y126.974 E298.06195
G1 X89.371 Y128.240 E298.14209
G1 X60.629 Y99.497 E300.71557
G1 X60.629 Y100.763 E300.79571
G1 X89.371 Y129.506 E303.36919
G1 X89.371 Y130.771 E303.44933
G1 X60.629 Y102.029 E306.02280
G1 X60.629 Y103.295 E306.10294
G1 X89.371 Y132.037 E308.67642
G1 X89.371 Y133.303 E308.75656
G1 X60.629 Y104.561 E311.33004
G1 X60.629 Y105.826 E311.41018
G1 X89.371 Y134.569 E313.98366
G1 X89.371 Y135.835 E314.06380
G1 X60.629 Y107.092 E316.63727
G1 X60.629 Y108.358 E316.71741
G1 X89.371 Y137.100 E319.29089
G1 X89.371 Y138.366 E319.37103
G1 X60.629 Y109.624 E321.94451
G1 X60.629 Y110.890 E322.02465
G1 X89.371 Y139.632 E324.59813
G1 X89.371 Y140.898 E324.67827
G1 X60.629 Y112.155 E327.25174
G1 X60.629 Y113.421 E327.33188
G1 X89.371 Y142.163 E329.90536
G1 X89.371 Y143.429 E329.98550
G1 X60.629 Y114.687 E332.55898
G1 X60.629 Y115.953 E332.63912
G1 X89.371 Y144.695 E335.21260
G1 X89.371 Y145.961 E335.29274
G1 X60.629 Y117.219 E337.86621
G1 X60.629 Y118.484 E337.94635
G1 X89.371 Y147.227 E340.51983
G1 X89.371 Y148.492 E340.59997
G1 X60.629 Y119.750 E343.17345
G1 X60.629 Y121.016 E343.25359
G1 X89.371 Y149.758 E345.82707
G1 X89.371 Y151.024 E345.90721
G1 X60.629 Y122.282 E348.48068
G1 X60.629 Y123.547 E348.56082
G1 X89.371 Y152.290 E351.13430
G1 X89.371 Y153.556 E351.21444
G1 X60.629 Y124.813 E353.78792
G1 X60.629 Y126.079 E353.86806
G1 X89.296 Y154.746 E356.43480
G1 X88.030 Y154.746 E356.51494
G1 X60.629 Y127.345 E358.96836
G1 X60.629 Y128.611 E359.04849
G1 X86.764 Y154.746 E361.38857
G1 X85.499 Y154.746 E361.46871
G1 X60.629 Y129.876 E363.69546
G1 X60.629 Y131.142 E363.77559
G1 X84.233 Y154.746 E365.88901
G1 X82.967 Y154.746 E365.96914
G1 X60.629 Y132.408 E367.96922
G1 X60.629 Y133.674 E368.04936
G1 X81.701 Y154.746 E369.93610
G1 X80.435 Y154.746 E370.01624
G1 X60.629 Y134.940 E371.78965
G1 X60.629 Y136.205 E371.86979
G1 X79.170 Y154.746 E373.52986
G1 X77.904 Y154.746 E373.61000
G1 X60.629 Y137.471 E375.15675
G1 X60.629 Y138.737 E375.23688
G1 X76.638 Y154.746 E376.67029
G1 X75.372 Y154.746 E376.75043
G1 X60.629 Y140.003 E378.07050
G1 X60.629 Y141.268 E378.15064
G1 X74.107 Y154.746 E379.35738
G1 X72.841 Y154.746 E379.43752
G1 X60.629 Y142.534 E380.53093
G1 X60.629 Y143.800 E380.61107
G1 X71.575 Y154.746 E381.59114
G1 X70.309 Y154.746 E381.67128
G1 X60.629 Y145.066 E382.53802
G1 X60.629 Y146.332 E382.61816
G1 X69.043 Y154.746 E383.37156
G1 X67.778 Y154.746 E383.45170
G1 X60.629 Y147.597 E384.09177
G1 X60.629 Y148.863 E384.17191
G1 X66.512 Y154.746 E384.69865
G1 X65.246 Y154.746 E384.77879
G1 X60.629 Y150.129 E385.19219
G1 X60.629 Y151.395 E385.27233
G1 X63.980 Y154.746 E385.57240
G1 X62.714 Y154.746 E385.65254
G1 X60.629 Y152.661 E385.83927
G1 X60.629 Y153.926 E385.91941
G1 X61.449 Y154.746 E385.99281
G1 F2160.000 E384.99281
G92 E0
G1 Z0.900 F7800.000
G1 X59.000 Y156.375
G1 F2160.000 E1.00000
G1 X59.000 Y3.625 F1800.000 E5.32194
G1 X91.000 Y3.625 E6.22736
G1 X91.000 Y156.375 E10.54930
G1 X59.075 Y156.375 E11.45259
G1 X58.500 Y156.875 F7800.000
G1 X58.500 Y3.125 F1800.000 E15.80282
G1 X91.500 Y3.125 E16.73653
G1 X91.500 Y156.875 E21.08677
G1 X58.575 Y156.875 E22.01836
G1 X58.000 Y157.375 F7800.000
G1 X58.000 Y2.625 F1260.000 E26.39688
G1 X92.000 Y2.625 E27.35889
G1 X92.000 Y157.375 E31.73742
G1 X58.075 Y157.375 E32.69730
G1 X58.250 Y156.942 F7800.000
G1 X90.633 Y155.497
G1 X90.122 Y156.008 F3600.000 E32.71858
G1 X89.386 Y156.008 E32.74021
G1 X90.633 Y154.761 E32.79209
G1 X90.633 Y154.026 E32.81371
G1 X88.651 Y156.008 E32.89617
G1 X87.916 Y156.008 E32.91780
G1 X90.633 Y153.291 E33.03085
G1 X90.633 Y152.556 E33.05248
G1 X87.181 Y156.008 E33.19611
G1 X86.446 Y156.008 E33.21774
G1 X90.633 Y151.821 E33.39196
G1 X90.633 Y151.085 E33.41359
G1 X85.710 Y156.008 E33.61840
G1 X84.975 Y156.008 E33.64002
G1 X90.633 Y150.350 E33.87542
G1 X90.633 Y149.615 E33.89705
G1 X84.240 Y156.008 E34.16303
G1 X83.505 Y156.008 E34.18466
G1 X90.633 Y148.880 E34.48123
G1 X90.633 Y148.145 E34.50285
G1 X82.770 Y156.008 E34.83001
G1 X82.034 Y156.008 E34.85164
G1 X90.633 Y147.409 E35.20938
G1 X90.633 Y146.674 E35.23101
G1 X81.299 Y156.008 E35.61934
G1 X80.564 Y156.008 E35.64097
G1 X90.633 Y145.939 E36.05988
G1 X90.633 Y145.204 E36.08151
G1 X79.829 Y156.008 E36.53102
G1 X79.094 Y156.008 E36.55265
G1 X90.633 Y144.469 E37.03274
G1 X90.633 Y143.733 E37.05436
G1 X78.358 Y156.008 E37.56504
G1 X77.623 Y156.008 E37.58667
G1 X90.633 Y142.998 E38.12794
G1 X90.633 Y142.263 E38.14956
G1 X76.888 Y156.008 E38.72142
G1 X76.153 Y156.008 E38.74304
G1 X90.633 Y141.528 E39.34548
G1 X90.633 Y140.793 E39.36711
G1 X75.418 Y156.008 E40.00014
G1 X74.682 Y156.008 E40.02177
G1 X90.633 Y140.057 E40.68538
G1 X90.633 Y139.322 E40.70701
G1 X73.947 Y156.008 E41.40121
G1 X73.212 Y156.008 E41.42283
G1 X90.633 Y138.587 E42.14762
G1 X90.633 Y137.852 E42.16925
G1 X72.477 Y156.008 E42.92462
G1 X71.742 Y156.008 E42.94625
G1 X90.633 Y137.117 E43.73221
G1 X90.633 Y136.381 E43.75384
G1 X71.006 Y156.008 E44.57039
G1 X70.271 Y156.008 E44.59202
G1 X90.633 Y135.646 E45.43915
G1 X90.633 Y134.911 E45.46078
G1 X69.536 Y156.008 E46.33850
G1 X68.801 Y156.008 E46.36013
G1 X90.633 Y134.176 E47.26844
G1 X90.633 Y133.441 E47.29007
G1 X68.066 Y156.008 E48.22897
G1 X67.330 Y156.008 E48.25059
G1 X90.633 Y132.705 E49.22008
G1 X90.633 Y131.970 E49.24170
G1 X66.595 Y156.008 E50.24178
G1 X65.860 Y156.008 E50.26340
G1 X90.633 Y131.235 E51.29406
G1 X90.633 Y130.500 E51.31569
G1 X65.125 Y156.008 E52.37693
G1 X64.390 Y156.008 E52.39856
G1 X90.633 Y129.765 E53.49039
G1 X90.633 Y129.029 E53.51202
G1 X63.654 Y156.008 E54.63444
G1 X62.919 Y156.008 E54.65607
G1 X90.633 Y128.294 E55.80907
G1 X90.633 Y127.559 E55.83070
G1 X62.184 Y156.008 E57.01429
G1 X61.449 Y156.008 E57.03592
G1 X90.633 Y126.824 E58.25010
G1 X90.633 Y126.089 E58.27173
G1 X60.714 Y156.008 E59.51649
G1 X59.978 Y156.008 E59.53812
G1 X90.633 Y125.353 E60.81348
G1 X90.633 Y124.618 E60.83510
G1 X59.367 Y155.885 E62.13590
G1 X59.367 Y155.149 E62.15753
G1 X90.633 Y123.883 E63.45833
G1 X90.633 Y123.148 E63.47996
G1 X59.367 Y154.414 E64.78076
G1 X59.367 Y153.679 E64.80239
G1 X90.633 Y122.413 E66.10319
G1 X90.633 Y121.677 E66.12481
G1 X59.367 Y152.944 E67.42561
G1 X59.367 Y152.209 E67.44724
G1 X90.633 Y120.942 E68.74804
G1 X90.633 Y120.207 E68.76967
G1 X59.367 Y151.473 E70.07047
G1 X59.367 Y150.738 E70.09210
G1 X90.633 Y119.472 E71.39290
G1 X90.633 Y118.737 E71.41452
G1 X59.367 Y150.003 E72.71532
G1 X59.367 Y149.268 E72.73695
G1 X90.633 Y118.001 E74.03775
G1 X90.633 Y117.266 E74.05938
G1 X59.367 Y148.533 E75.36018
G1 X59.367 Y147.797 E75.38181
G1 X90.633 Y116.531 E76.68261
G1 X90.633 Y115.796 E76.70424
G1 X59.367 Y147.062 E78.00503
G1 X59.367 Y146.327 E78.02666
G1 X90.633 Y115.061 E79.32746
G1 X90.633 Y114.325 E79.34909
G1 X59.367 Y145.592 E80.64989
G1 X59.367 Y144.857 E80.67152
G1 X90.633 Y113.590 E81.97232
G1 X90.633 Y112.855 E81.99395
G1 X59.367 Y144.121 E83.29474
G1 X59.367 Y143.386 E83.31637
G1 X90.633 Y112.120 E84.61717
G1 X90.633 Y111.385 E84.63880
G1 X59.367 Y142.651 E85.93960
G1 X59.367 Y141.916 E85.96123
G1 X90.633 Y110.649 E87.26203
G1 X90.633 Y109.914 E87.28366
G1 X59.367 Y141.181 E88.58445
G1 X59.367 Y140.445 E88.60608
G1 X90.633 Y109.179 E89.90688
G1 X90.633 Y108.444 E89.92851
G1 X59.367 Y139.710 E91.22931
G1 X59.367 Y138.975 E91.25094
G1 X90.633 Y107.709 E92.55174
G1 X90.633 Y106.973 E92.57337
G1 X59.367 Y138.240 E93.87416
G1 X59.367 Y137.505 E93.89579
G1 X90.633 Y106.238 E95.19659
G1 X90.633 Y105.503 E95.21822
G1 X59.367 Y136.769 E96.51902
G1 X59.367 Y136.034 E96.54065
G1 X90.633 Y104.768 E97.84145
G1 X90.633 Y104.033 E97.86308
G1 X59.367 Y135.299 E99.16388
G1 X59.367 Y134.564 E99.18550
G1 X90.633 Y103.297 E100.48630
G1 X90.633 Y102.562 E100.50793
G1 X59.367 Y133.829 E101.80873
G1 X59.367 Y133.093 E101.83036
G1 X90.633 Y101.827 E103.13116
G1 X90.633 Y101.092 E103.15279
G1 X59.367 Y132.358 E104.45359
