; generated by Slic3r 0.9.11-dev on 2013-07-14 at 23:03:23

; layer_height = 0.4
; perimeters = 3
; top_solid_layers = 3
; bottom_solid_layers = 3
; fill_density = 0.25
; perimeter_speed = 30
; infill_speed = 60
; travel_speed = 130
; nozzle_diameter = 0.5
; filament_diameter = 3
; extrusion_multiplier = 1
; perimeters extrusion width = 0.50mm
; infill extrusion width = 0.53mm
; solid infill extrusion width = 0.53mm
; top infill extrusion width = 0.53mm
; first layer extrusion width = 1.00mm

G21 ; set units to millimeters
M107
M104 S200 ; set temperature
G28 ; home all axes
M109 S200 ; wait for temperature to be reached
G90 ; use absolute coordinates
G92 E0
M82 ; use absolute distances for extrusion
G1 F2160.000 E-1.00000
G92 E0
G1 Z0.500 F7800.000
G1 X30.605 Y2.380
G1 F2160.000 E1.00000
G1 X30.735 Y1.040 F540.000 E1.08501
G1 X31.125 Y-0.260 E1.17072
G1 X31.765 Y-1.450 E1.25604
G1 X32.625 Y-2.490 E1.34125
G1 X33.665 Y-3.350 E1.42647
G1 X34.855 Y-3.990 E1.51179
G1 X36.155 Y-4.380 E1.59749
G1 X37.495 Y-4.510 E1.68251
G1 X112.495 Y-4.510 E6.41842
G1 X113.835 Y-4.380 E6.50343
G1 X115.135 Y-3.990 E6.58914
G1 X116.325 Y-3.350 E6.67446
G1 X117.365 Y-2.490 E6.75968
G1 X118.225 Y-1.450 E6.84489
G1 X118.865 Y-0.260 E6.93021
G1 X119.255 Y1.040 E7.01592
G1 X119.385 Y2.380 E7.10093
G1 X119.385 Y157.620 E16.90364
G1 X119.255 Y158.960 E16.98865
G1 X118.865 Y160.260 E17.07436
G1 X118.225 Y161.450 E17.15968
G1 X117.365 Y162.490 E17.24490
G1 X116.325 Y163.350 E17.33011
G1 X115.135 Y163.990 E17.41543
G1 X113.835 Y164.380 E17.50114
G1 X112.495 Y164.510 E17.58615
G1 X37.495 Y164.510 E22.32206
G1 X36.155 Y164.380 E22.40708
G1 X34.855 Y163.990 E22.49278
G1 X33.665 Y163.350 E22.57810
G1 X32.625 Y162.490 E22.66332
G1 X31.765 Y161.450 E22.74853
G1 X31.125 Y160.260 E22.83386
G1 X30.735 Y158.960 E22.91956
G1 X30.605 Y157.620 E23.00457
G1 X30.605 Y2.514 E32.79883
G1 F2160.000 E31.79883
G92 E0
G1 X80.232 Y4.607 F7800.000
G1 F2160.000 E1.00000
G1 X110.268 Y4.607 F540.000 E2.89667
G1 X110.268 Y155.393 E12.41817
G1 X80.232 Y155.393 E14.31484
G1 X80.232 Y4.741 E23.82788
G1 X79.339 Y3.714 F7800.000
G1 X111.161 Y3.714 F540.000 E25.83729
G1 X111.161 Y156.286 E35.47152
G1 X79.339 Y156.286 E37.48094
G1 X79.339 Y3.848 E47.10672
G1 X78.446 Y2.821 F7800.000
G1 X112.054 Y2.821 F378.000 E49.22887
G1 X112.054 Y157.179 E58.97584
G1 X78.446 Y157.179 E61.09799
G1 X78.446 Y2.955 E70.83651
G1 X79.219 Y3.268 F7800.000
G1 X109.417 Y5.254
G1 X109.621 Y5.458 F1080.000 E70.85483
G1 X109.621 Y6.724 E70.93497
G1 X108.151 Y5.254 E71.06661
G1 X106.885 Y5.254 E71.14675
G1 X109.621 Y7.990 E71.39173
G1 X109.621 Y9.256 E71.47187
G1 X105.619 Y5.254 E71.83019
G1 X104.353 Y5.254 E71.91033
G1 X109.621 Y10.522 E72.38198
G1 X109.621 Y11.787 E72.46212
G1 X103.088 Y5.254 E73.04710
G1 X101.822 Y5.254 E73.12724
G1 X109.621 Y13.053 E73.82556
G1 X109.621 Y14.319 E73.90570
G1 X100.556 Y5.254 E74.71735
G1 X99.290 Y5.254 E74.79749
G1 X109.621 Y15.585 E75.72247
G1 X109.621 Y16.850 E75.80261
G1 X98.025 Y5.254 E76.84093
G1 X96.759 Y5.254 E76.92107
G1 X109.621 Y18.116 E78.07272
G1 X109.621 Y19.382 E78.15286
G1 X95.493 Y5.254 E79.41784
G1 X94.227 Y5.254 E79.49798
G1 X109.621 Y20.648 E80.87630
G1 X109.621 Y21.914 E80.95644
G1 X92.961 Y5.254 E82.44810
G1 X91.696 Y5.254 E82.52823
G1 X109.621 Y23.179 E84.13322
G1 X109.621 Y24.445 E84.21336
G1 X90.430 Y5.254 E85.93168
G1 X89.164 Y5.254 E86.01182
G1 X109.621 Y25.711 E87.84348
G1 X109.621 Y26.977 E87.92362
G1 X87.898 Y5.254 E89.86860
G1 X86.632 Y5.254 E89.94874
G1 X109.621 Y28.243 E92.00707
G1 X109.621 Y29.508 E92.08721
G1 X85.367 Y5.254 E94.25886
G1 X84.101 Y5.254 E94.33900
G1 X109.621 Y30.774 E96.62399
G1 X109.621 Y32.040 E96.70413
G1 X82.835 Y5.254 E99.10246
G1 X81.569 Y5.254 E99.18259
G1 X109.621 Y33.306 E101.69425
G1 X109.621 Y34.571 E101.77439
G1 X80.879 Y5.829 E104.34787
G1 X80.879 Y7.095 E104.42801
G1 X109.621 Y35.837 E107.00149
G1 X109.621 Y37.103 E107.08163
G1 X80.879 Y8.361 E109.65511
G1 X80.879 Y9.627 E109.73524
G1 X109.621 Y38.369 E112.30872
G1 X109.621 Y39.635 E112.38886
G1 X80.879 Y10.892 E114.96234
G1 X80.879 Y12.158 E115.04248
G1 X109.621 Y40.900 E117.61596
G1 X109.621 Y42.166 E117.69610
G1 X80.879 Y13.424 E120.26958
G1 X80.879 Y14.690 E120.34972
G1 X109.621 Y43.432 E122.92319
G1 X109.621 Y44.698 E123.00333
G1 X80.879 Y15.955 E125.57681
G1 X80.879 Y17.221 E125.65695
G1 X109.621 Y45.964 E128.23043
G1 X109.621 Y47.229 E128.31057
G1 X80.879 Y18.487 E130.88405
G1 X80.879 Y19.753 E130.96419
G1 X109.621 Y48.495 E133.53766
G1 X109.621 Y49.761 E133.61780
G1 X80.879 Y21.019 E136.19128
G1 X80.879 Y22.284 E136.27142
G1 X109.621 Y51.027 E138.84490
G1 X109.621 Y52.293 E138.92504
G1 X80.879 Y23.550 E141.49852
G1 X80.879 Y24.816 E141.57866
G1 X109.621 Y53.558 E144.15213
G1 X109.621 Y54.824 E144.23227
G1 X80.879 Y26.082 E146.80575
G1 X80.879 Y27.348 E146.88589
G1 X109.621 Y56.090 E149.45937
G1 X109.621 Y57.356 E149.53951
G1 X80.879 Y28.613 E152.11299
G1 X80.879 Y29.879 E152.19313
G1 X109.621 Y58.621 E154.76660
G1 X109.621 Y59.887 E154.84674
G1 X80.879 Y31.145 E157.42022
G1 X80.879 Y32.411 E157.50036
G1 X109.621 Y61.153 E160.07384
G1 X109.621 Y62.419 E160.15398
G1 X80.879 Y33.677 E162.72746
G1 X80.879 Y34.942 E162.80760
G1 X109.621 Y63.685 E165.38107
G1 X109.621 Y64.950 E165.46121
G1 X80.879 Y36.208 E168.03469
G1 X80.879 Y37.474 E168.11483
G1 X109.621 Y66.216 E170.68831
G1 X109.621 Y67.482 E170.76845
G1 X80.879 Y38.740 E173.34193
G1 X80.879 Y40.005 E173.42207
G1 X109.621 Y68.748 E175.99554
G1 X109.621 Y70.014 E176.07568
G1 X80.879 Y41.271 E178.64916
G1 X80.879 Y42.537 E178.72930
G1 X109.621 Y71.279 E181.30278
G1 X109.621 Y72.545 E181.38292
G1 X80.879 Y43.803 E183.95640
G1 X80.879 Y45.069 E184.03654
G1 X109.621 Y73.811 E186.61001
G1 X109.621 Y75.077 E186.69015
G1 X80.879 Y46.334 E189.26363
G1 X80.879 Y47.600 E189.34377
G1 X109.621 Y76.343 E191.91725
G1 X109.621 Y77.608 E191.99739
G1 X80.879 Y48.866 E194.57087
G1 X80.879 Y50.132 E194.65101
G1 X109.621 Y78.874 E197.22448
G1 X109.621 Y80.140 E197.30462
G1 X80.879 Y51.398 E199.87810
G1 X80.879 Y52.663 E199.95824
G1 X109.621 Y81.406 E202.53172
G1 X109.621 Y82.671 E202.61186
G1 X80.879 Y53.929 E205.18534
G1 X80.879 Y55.195 E205.26548
G1 X109.621 Y83.937 E207.83896
G1 X109.621 Y85.203 E207.91909
G1 X80.879 Y56.461 E210.49257
G1 X80.879 Y57.726 E210.57271
G1 X109.621 Y86.469 E213.14619
G1 X109.621 Y87.735 E213.22633
G1 X80.879 Y58.992 E215.79981
G1 X80.879 Y60.258 E215.87995
G1 X109.621 Y89.000 E218.45343
G1 X109.621 Y90.266 E218.53356
G1 X80.879 Y61.524 E221.10704
G1 X80.879 Y62.790 E221.18718
G1 X109.621 Y91.532 E223.76066
G1 X109.621 Y92.798 E223.84080
G1 X80.879 Y64.055 E226.41428
G1 X80.879 Y65.321 E226.49442
G1 X109.621 Y94.064 E229.06790
G1 X109.621 Y95.329 E229.14803
G1 X80.879 Y66.587 E231.72151
G1 X80.879 Y67.853 E231.80165
G1 X109.621 Y96.595 E234.37513
G1 X109.621 Y97.861 E234.45527
G1 X80.879 Y69.119 E237.02875
G1 X80.879 Y70.384 E237.10889
G1 X109.621 Y99.127 E239.68237
G1 X109.621 Y100.392 E239.76250
G1 X80.879 Y71.650 E242.33598
G1 X80.879 Y72.916 E242.41612
G1 X109.621 Y101.658 E244.98960
G1 X109.621 Y102.924 E245.06974
G1 X80.879 Y74.182 E247.64322
G1 X80.879 Y75.448 E247.72336
G1 X109.621 Y104.190 E250.29684
G1 X109.621 Y105.456 E250.37697
G1 X80.879 Y76.713 E252.95045
G1 X80.879 Y77.979 E253.03059
G1 X109.621 Y106.721 E255.60407
G1 X109.621 Y107.987 E255.68421
G1 X80.879 Y79.245 E258.25769
G1 X80.879 Y80.511 E258.33783
G1 X109.621 Y109.253 E260.91131
G1 X109.621 Y110.519 E260.99145
G1 X80.879 Y81.776 E263.56492
G1 X80.879 Y83.042 E263.64506
G1 X109.621 Y111.785 E266.21854
G1 X109.621 Y113.050 E266.29868
G1 X80.879 Y84.308 E268.87216
G1 X80.879 Y85.574 E268.95230
G1 X109.621 Y114.316 E271.52578
G1 X109.621 Y115.582 E271.60592
G1 X80.879 Y86.840 E274.17939
G1 X80.879 Y88.105 E274.25953
G1 X109.621 Y116.848 E276.83301
G1 X109.621 Y118.114 E276.91315
G1 X80.879 Y89.371 E279.48663
G1 X80.879 Y90.637 E279.56677
G1 X109.621 Y119.379 E282.14025
G1 X109.621 Y120.645 E282.22039
G1 X80.879 Y91.903 E284.79386
G1 X80.879 Y93.169 E284.87400
G1 X109.621 Y121.911 E287.44748
G1 X109.621 Y123.177 E287.52762
G1 X80.879 Y94.434 E290.10110
G1 X80.879 Y95.700 E290.18124
G1 X109.621 Y124.442 E292.75472
G1 X109.621 Y125.708 E292.83486
G1 X80.879 Y96.966 E295.40833
G1 X80.879 Y98.232 E295.48847
G1 X109.621 Y126.974 E298.06195
G1 X109.621 Y128.240 E298.14209
G1 X80.879 Y99.497 E300.71557
G1 X80.879 Y100.763 E300.79571
G1 X109.621 Y129.506 E303.36919
G1 X109.621 Y130.771 E303.44933
G1 X80.879 Y102.029 E306.02280
G1 X80.879 Y103.295 E306.10294
G1 X109.621 Y132.037 E308.67642
G1 X109.621 Y133.303 E308.75656
G1 X80.879 Y104.561 E311.33004
G1 X80.879 Y105.826 E311.41018
G1 X109.621 Y134.569 E313.98366
G1 X109.621 Y135.835 E314.06380
G1 X80.879 Y107.092 E316.63727
G1 X80.879 Y108.358 E316.71741
G1 X109.621 Y137.100 E319.29089
G1 X109.621 Y138.366 E319.37103
G1 X80.879 Y109.624 E321.94451
G1 X80.879 Y110.890 E322.02465
G1 X109.621 Y139.632 E324.59813
G1 X109.621 Y140.898 E324.67827
G1 X80.879 Y112.155 E327.25174
G1 X80.879 Y113.421 E327.33188
G1 X109.621 Y142.163 E329.90536
G1 X109.621 Y143.429 E329.98550
G1 X80.879 Y114.687 E332.55898
G1 X80.879 Y115.953 E332.63912
G1 X109.621 Y144.695 E335.21260
G1 X109.621 Y145.961 E335.29274
G1 X80.879 Y117.219 E337.86621
G1 X80.879 Y118.484 E337.94635
G1 X109.621 Y147.227 E340.51983
G1 X109.621 Y148.492 E340.59997
G1 X80.879 Y119.750 E343.17345
G1 X80.879 Y121.016 E343.25359
G1 X109.621 Y149.758 E345.82707
G1 X109.621 Y151.024 E345.90721
G1 X80.879 Y122.282 E348.48068
G1 X80.879 Y123.547 E348.56082
G1 X109.621 Y152.290 E351.13430
G1 X109.621 Y153.556 E351.21444
G1 X80.879 Y124.813 E353.78792
G1 X80.879 Y126.079 E353.86806
G1 X109.546 Y154.746 E356.43480
G1 X108.280 Y154.746 E356.51494
G1 X80.879 Y127.345 E358.96836
G1 X80.879 Y128.611 E359.04849
G1 X107.014 Y154.746 E361.38857
G1 X105.749 Y154.746 E361.46871
G1 X80.879 Y129.876 E363.69546
G1 X80.879 Y131.142 E363.77559
G1 X104.483 Y154.746 E365.88901
G1 X103.217 Y154.746 E365.96914
G1 X80.879 Y132.408 E367.96922
G1 X80.879 Y133.674 E368.04936
G1 X101.951 Y154.746 E369.93610
G1 X100.685 Y154.746 E370.01624
G1 X80.879 Y134.940 E371.78965
G1 X80.879 Y136.205 E371.86979
G1 X99.420 Y154.746 E373.52986
G1 X98.154 Y154.746 E373.61000
G1 X80.879 Y137.471 E375.15675
G1 X80.879 Y138.737 E375.23688
G1 X96.888 Y154.746 E376.67029
G1 X95.622 Y154.746 E376.75043
G1 X80.879 Y140.003 E378.07050
G1 X80.879 Y141.268 E378.15064
G1 X94.357 Y154.746 E379.35738
G1 X93.091 Y154.746 E379.43752
G1 X80.879 Y142.534 E380.53093
G1 X80.879 Y143.800 E380.61107
G1 X91.825 Y154.746 E381.59114
G1 X90.559 Y154.746 E381.67128
G1 X80.879 Y145.066 E382.53802
G1 X80.879 Y146.332 E382.61816
G1 X89.293 Y154.746 E383.37156
G1 X88.028 Y154.746 E383.45170
G1 X80.879 Y147.597 E384.09177
G1 X80.879 Y148.863 E384.17191
G1 X86.762 Y154.746 E384.69865
G1 X85.496 Y154.746 E384.77879
G1 X80.879 Y150.129 E385.19219
G1 X80.879 Y151.395 E385.27233
G1 X84.230 Y154.746 E385.57240
G1 X82.964 Y154.746 E385.65254
G1 X80.879 Y152.661 E385.83927
G1 X80.879 Y153.926 E385.91941
G1 X81.699 Y154.746 E385.99281
G1 F2160.000 E384.99281
G92 E0
G1 X69.768 Y155.393 F7800.000
G1 F2160.000 E1.00000
G1 X39.732 Y155.393 F540.000 E2.89667
G1 X39.732 Y4.607 E12.41817
G1 X69.768 Y4.607 E14.31484
G1 X69.768 Y155.259 E23.82788
G1 X70.661 Y156.286 F7800.000
G1 X38.839 Y156.286 F540.000 E25.83729
G1 X38.839 Y3.714 E35.47152
G1 X70.661 Y3.714 E37.48094
G1 X70.661 Y156.152 E47.10672
G1 X71.554 Y157.179 F7800.000
G1 X37.946 Y157.179 F378.000 E49.22887
G1 X37.946 Y2.821 E58.97584
G1 X71.554 Y2.821 E61.09799
G1 X71.554 Y157.045 E70.83651
G1 X70.781 Y156.732 F7800.000
G1 X41.199 Y154.746
G1 X40.379 Y153.926 F1080.000 E70.90991
G1 X40.379 Y152.661 E70.99005
G1 X42.464 Y154.746 E71.17679
G1 X43.730 Y154.746 E71.25693
G1 X40.379 Y151.395 E71.55700
G1 X40.379 Y150.129 E71.63714
G1 X44.996 Y154.746 E72.05054
G1 X46.262 Y154.746 E72.13068
G1 X40.379 Y148.863 E72.65742
G1 X40.379 Y147.597 E72.73756
G1 X47.528 Y154.746 E73.37763
G1 X48.793 Y154.746 E73.45776
G1 X40.379 Y146.332 E74.21117
G1 X40.379 Y145.066 E74.29131
G1 X50.059 Y154.746 E75.15805
G1 X51.325 Y154.746 E75.23819
G1 X40.379 Y143.800 E76.21826
G1 X40.379 Y142.534 E76.29840
G1 X52.591 Y154.746 E77.39180
G1 X53.857 Y154.746 E77.47194
G1 X40.379 Y141.268 E78.67868
G1 X40.379 Y140.003 E78.75882
G1 X55.122 Y154.746 E80.07889
G1 X56.388 Y154.746 E80.15903
G1 X40.379 Y138.737 E81.59244
G1 X40.379 Y137.471 E81.67258
G1 X57.654 Y154.746 E83.21932
G1 X58.920 Y154.746 E83.29946
G1 X40.379 Y136.205 E84.95954
G1 X40.379 Y134.940 E85.03967
G1 X60.185 Y154.746 E86.81308
G1 X61.451 Y154.746 E86.89322
G1 X40.379 Y133.674 E88.77997
G1 X40.379 Y132.408 E88.86010
G1 X62.717 Y154.746 E90.86018
G1 X63.983 Y154.746 E90.94032
G1 X40.379 Y131.142 E93.05373
G1 X40.379 Y129.876 E93.13387
G1 X65.249 Y154.746 E95.36061
G1 X66.514 Y154.746 E95.44075
G1 X40.379 Y128.611 E97.78083
G1 X40.379 Y127.345 E97.86097
G1 X67.780 Y154.746 E100.31438
G1 X69.046 Y154.746 E100.39452
G1 X40.379 Y126.079 E102.96127
G1 X40.379 Y124.813 E103.04141
G1 X69.121 Y153.556 E105.61488
G1 X69.121 Y152.290 E105.69502
G1 X40.379 Y123.547 E108.26850
G1 X40.379 Y122.282 E108.34864
G1 X69.121 Y151.024 E110.92212
G1 X69.121 Y149.758 E111.00226
G1 X40.379 Y121.016 E113.57574
G1 X40.379 Y119.750 E113.65588
G1 X69.121 Y148.492 E116.22935
G1 X69.121 Y147.227 E116.30949
G1 X40.379 Y118.484 E118.88297
G1 X40.379 Y117.219 E118.96311
G1 X69.121 Y145.961 E121.53659
G1 X69.121 Y144.695 E121.61673
G1 X40.379 Y115.953 E124.19021
G1 X40.379 Y114.687 E124.27035
G1 X69.121 Y143.429 E126.84382
G1 X69.121 Y142.163 E126.92396
G1 X40.379 Y113.421 E129.49744
G1 X40.379 Y112.155 E129.57758
G1 X69.121 Y140.898 E132.15106
G1 X69.121 Y139.632 E132.23120
G1 X40.379 Y110.890 E134.80468
G1 X40.379 Y109.624 E134.88482
G1 X69.121 Y138.366 E137.45829
G1 X69.121 Y137.100 E137.53843
G1 X40.379 Y108.358 E140.11191
G1 X40.379 Y107.092 E140.19205
G1 X69.121 Y135.835 E142.76553
G1 X69.121 Y134.569 E142.84567
G1 X40.379 Y105.826 E145.41915
G1 X40.379 Y104.561 E145.49929
G1 X69.121 Y133.303 E148.07277
G1 X69.121 Y132.037 E148.15290
G1 X40.379 Y103.295 E150.72638
G1 X40.379 Y102.029 E150.80652
G1 X69.121 Y130.771 E153.38000
G1 X69.121 Y129.506 E153.46014
G1 X40.379 Y100.763 E156.03362
G1 X40.379 Y99.497 E156.11376
G1 X69.121 Y128.240 E158.68724
G1 X69.121 Y126.974 E158.76737
G1 X40.379 Y98.232 E161.34085
G1 X40.379 Y96.966 E161.42099
G1 X69.121 Y125.708 E163.99447
G1 X69.121 Y124.442 E164.07461
G1 X40.379 Y95.700 E166.64809
G1 X40.379 Y94.434 E166.72823
G1 X69.121 Y123.177 E169.30171
G1 X69.121 Y121.911 E169.38184
G1 X40.379 Y93.169 E171.95532
G1 X40.379 Y91.903 E172.03546
G1 X69.121 Y120.645 E174.60894
G1 X69.121 Y119.379 E174.68908
G1 X40.379 Y90.637 E177.26256
G1 X40.379 Y89.371 E177.34270
G1 X69.121 Y118.114 E179.91618
G1 X69.121 Y116.848 E179.99631
G1 X40.379 Y88.105 E182.56979
G1 X40.379 Y86.840 E182.64993
G1 X69.121 Y115.582 E185.22341
G1 X69.121 Y114.316 E185.30355
G1 X40.379 Y85.574 E187.87703
G1 X40.379 Y84.308 E187.95717
G1 X69.121 Y113.050 E190.53065
G1 X69.121 Y111.785 E190.61078
G1 X40.379 Y83.042 E193.18426
G1 X40.379 Y81.776 E193.26440
G1 X69.121 Y110.519 E195.83788
G1 X69.121 Y109.253 E195.91802
G1 X40.379 Y80.511 E198.49150
G1 X40.379 Y79.245 E198.57164
G1 X69.121 Y107.987 E201.14512
G1 X69.121 Y106.721 E201.22525
G1 X40.379 Y77.979 E203.79873
G1 X40.379 Y76.713 E203.87887
G1 X69.121 Y105.456 E206.45235
G1 X69.121 Y104.190 E206.53249
G1 X40.379 Y75.448 E209.10597
G1 X40.379 Y74.182 E209.18611
G1 X69.121 Y102.924 E211.75959
G1 X69.121 Y101.658 E211.83972
G1 X40.379 Y72.916 E214.41320
G1 X40.379 Y71.650 E214.49334
G1 X69.121 Y100.392 E217.06682
G1 X69.121 Y99.127 E217.14696
G1 X40.379 Y70.384 E219.72044
G1 X40.379 Y69.119 E219.80058
G1 X69.121 Y97.861 E222.37406
G1 X69.121 Y96.595 E222.45419
G1 X40.379 Y67.853 E225.02767
G1 X40.379 Y66.587 E225.10781
G1 X69.121 Y95.329 E227.68129
G1 X69.121 Y94.064 E227.76143
G1 X40.379 Y65.321 E230.33491
G1 X40.379 Y64.055 E230.41505
G1 X69.121 Y92.798 E232.98853
