; generated by Slic3r 0.9.11-dev on 2013-07-18 at 20:15:18

; layer_height = 0.2
; perimeters = 3
; top_solid_layers = 3
; bottom_solid_layers = 3
; fill_density = .9
; perimeter_speed = 40
; infill_speed = 60
; travel_speed = 130
; nozzle_diameter = 0.5
; filament_diameter = 3
; extrusion_multiplier = 1
; perimeters extrusion width = 0.50mm
; infill extrusion width = 1.02mm
; solid infill extrusion width = 0.85mm
; top infill extrusion width = 0.85mm
; first layer extrusion width = 1.00mm

G21 ; set units to millimeters
M107
M104 S200 ; set temperature
G28 ; home all axes
M109 S200 ; wait for temperature to be reached
G90 ; use absolute coordinates
G92 E0
M82 ; use absolute distances for extrusion
G1 F2160.000 E-1.00000
G92 E0
G1 Z0.500 F7800.000
G1 X47.704 Y87.414
G1 F2160.000 E1.00000
G1 X48.464 Y85.614 F720.000 E1.12338
G1 X48.894 Y84.774 E1.18297
G1 X51.034 Y81.174 E1.44742
G1 X51.604 Y80.344 E1.51100
G1 X54.244 Y77.094 E1.77540
G1 X54.904 Y76.394 E1.83615
G1 X57.974 Y73.544 E2.10067
G1 X58.734 Y72.934 E2.16220
G1 X62.174 Y70.544 E2.42670
G1 X63.004 Y70.044 E2.48789
G1 X66.744 Y68.164 E2.75221
G1 X67.664 Y67.784 E2.81507
G1 X71.644 Y66.454 E3.08005
G1 X72.574 Y66.214 E3.14070
G1 X76.684 Y65.454 E3.40462
G1 X77.724 Y65.344 E3.47066
G1 X81.834 Y65.174 E3.73041
G1 X131.384 Y64.664 E6.85944
G1 X132.144 Y64.694 E6.90747
G1 X136.314 Y65.114 E7.17212
G1 X137.284 Y65.284 E7.23430
G1 X141.344 Y66.294 E7.49849
G1 X142.284 Y66.604 E7.56099
G1 X146.164 Y68.184 E7.82553
G1 X147.024 Y68.604 E7.88596
G1 X147.814 Y69.144 E7.94639
G1 X150.174 Y70.994 E8.13574
G1 X150.814 Y71.554 E8.18944
G1 X151.374 Y72.194 E8.24314
G1 X151.854 Y72.814 E8.29265
G1 X152.374 Y73.584 E8.35132
G1 X152.784 Y74.414 E8.40978
G1 X153.084 Y75.144 E8.45962
G1 X153.354 Y75.954 E8.51353
G1 X153.534 Y76.804 E8.56840
G1 X153.644 Y77.584 E8.61814
G1 X153.704 Y78.294 E8.66313
G1 X153.694 Y79.014 E8.70860
G1 X151.694 Y108.574 E10.57945
G1 X151.644 Y109.064 E10.61055
G1 X151.534 Y109.844 E10.66029
G1 X151.354 Y110.704 E10.71577
G1 X151.064 Y111.534 E10.77129
G1 X150.764 Y112.254 E10.82055
G1 X150.374 Y113.044 E10.87618
G1 X149.884 Y113.784 E10.93222
G1 X149.404 Y114.414 E10.98223
G1 X148.814 Y115.094 E11.03908
G1 X148.144 Y115.684 E11.09546
G1 X147.524 Y116.164 E11.14497
G1 X146.784 Y116.664 E11.20136
G1 X145.994 Y117.064 E11.25728
G1 X121.504 Y127.454 E12.93713
G1 X109.244 Y132.394 E13.77178
G1 X108.364 Y132.684 E13.83028
G1 X107.224 Y132.974 E13.90456
G1 X106.534 Y133.114 E13.94902
G1 X105.834 Y133.184 E13.99344
G1 X58.494 Y135.334 E16.98583
G1 X58.064 Y135.334 E17.01299
G1 X56.894 Y135.314 E17.08688
G1 X56.034 Y135.244 E17.14136
G1 X55.194 Y135.074 E17.19548
G1 X54.064 Y134.764 E17.26947
G1 X53.184 Y134.454 E17.32839
G1 X52.364 Y134.044 E17.38628
G1 X51.354 Y133.444 E17.46046
G1 X50.614 Y132.934 E17.51721
G1 X49.944 Y132.324 E17.57443
G1 X49.124 Y131.484 E17.64855
G1 X48.544 Y130.814 E17.70451
G1 X48.064 Y130.084 E17.75968
G1 X47.484 Y129.064 E17.83377
G1 X47.084 Y128.234 E17.89195
G1 X46.794 Y127.354 E17.95046
G1 X46.504 Y126.214 E18.02474
G1 X46.344 Y125.374 E18.07873
G1 X46.294 Y124.514 E18.13313
G1 X46.304 Y92.094 E20.18031
G1 X46.444 Y90.774 E20.26413
G1 X46.834 Y89.494 E20.34862
G1 X47.651 Y87.537 E20.48254
G1 F2160.000 E19.48254
G92 E0
G1 X57.224 Y121.564 F7800.000
G1 F2160.000 E1.00000
G1 X57.861 Y121.537 F540.000 E1.04028
G1 X58.485 Y121.674 E1.08062
G1 X59.054 Y121.968 E1.12102
G1 X59.527 Y122.400 E1.16147
G1 X59.870 Y122.939 E1.20184
G1 X60.064 Y123.549 E1.24221
G1 X60.093 Y124.188 E1.28263
G1 X59.956 Y124.813 E1.32306
G1 X59.659 Y125.382 E1.36356
G1 X59.228 Y125.852 E1.40382
G1 X58.690 Y126.197 E1.44422
G1 X58.079 Y126.391 E1.48469
G1 X57.439 Y126.418 E1.52510
G1 X56.815 Y126.281 E1.56546
G1 X56.249 Y125.987 E1.60575
G1 X55.776 Y125.555 E1.64618
G1 X55.432 Y125.016 E1.68654
G1 X55.239 Y124.407 E1.72691
G1 X55.210 Y123.767 E1.76733
G1 X55.347 Y123.142 E1.80776
G1 X55.644 Y122.573 E1.84826
G1 X56.075 Y122.103 E1.88853
G1 X56.613 Y121.758 E1.92892
G1 X57.096 Y121.605 E1.96094
G1 X57.468 Y120.975 F7800.000
G1 X58.018 Y119.744
G1 X57.239 Y119.777 F720.000 E2.01013
G1 X58.799 Y117.168 E2.20201
G1 X61.234 Y114.159 E2.44647
G1 X64.071 Y111.525 E2.69092
G1 X67.251 Y109.317 E2.93539
G1 X70.712 Y107.579 E3.17991
G1 X74.383 Y106.350 E3.42438
G1 X78.190 Y105.651 E3.66879
G1 X82.059 Y105.496 E3.91332
G1 X85.909 Y105.890 E4.15771
G1 X89.668 Y106.825 E4.40228
G1 X93.110 Y108.222 E4.63684
G1 X95.000 Y109.705 E4.78858
G1 X95.130 Y109.874 E4.80199
G1 X95.206 Y110.057 E4.81454
G1 X95.232 Y110.253 E4.82703
G1 X95.206 Y110.448 E4.83943
G1 X95.130 Y110.632 E4.85199
G1 X95.007 Y110.792 E4.86472
G1 X94.850 Y110.912 E4.87720
G1 X94.671 Y110.986 E4.88943
G1 X93.580 Y111.127 E4.95891
G1 X92.383 Y110.883 E5.03607
G1 X91.041 Y110.106 E5.13398
G1 X89.335 Y109.027 E5.26144
G1 X87.917 Y108.419 E5.35889
G1 X86.520 Y107.964 E5.45164
G1 X85.090 Y107.639 E5.54423
G1 X83.633 Y107.444 E5.63710
G1 X82.168 Y107.384 E5.72969
G1 X80.700 Y107.456 E5.82247
G1 X79.247 Y107.662 E5.91517
G1 X77.816 Y107.999 E6.00796
G1 X76.417 Y108.469 E6.10118
G1 X74.971 Y109.117 E6.20124
G1 X73.796 Y109.765 E6.28597
G1 X72.399 Y110.714 E6.39260
G1 X70.895 Y112.542 E6.54208
G1 X69.850 Y114.571 E6.68622
G1 X69.260 Y116.780 E6.83055
G1 X69.205 Y117.974 E6.90603
G1 X69.205 Y121.772 E7.14587
G1 X61.904 Y124.711 E7.64280
G1 X61.836 Y123.232 E7.73625
G1 X61.502 Y122.177 E7.80615
G1 X60.906 Y121.241 E7.87624
G1 X60.083 Y120.490 E7.94655
G1 X59.097 Y119.981 E8.01662
G1 X58.149 Y119.772 E8.07795
G1 X57.940 Y120.640 F7800.000
G1 X57.067 Y120.677 F720.000 E8.13307
G1 X55.578 Y121.150 E8.23176
G1 X56.015 Y120.085 E8.30446
G1 X58.065 Y116.656 E8.55672
G1 X60.580 Y113.548 E8.80918
G1 X63.510 Y110.828 E9.06165
G1 X66.794 Y108.548 E9.31410
G1 X70.368 Y106.753 E9.56664
G1 X74.159 Y105.484 E9.81912
G1 X78.091 Y104.762 E10.07152
G1 X82.087 Y104.601 E10.32405
G1 X86.063 Y105.008 E10.57646
G1 X89.945 Y105.974 E10.82904
G1 X93.562 Y107.442 E11.07553
G1 X95.640 Y109.072 E11.24234
G1 X95.909 Y109.423 E11.27025
G1 X96.076 Y109.824 E11.29763
G1 X96.132 Y110.253 E11.32500
G1 X96.076 Y110.681 E11.35226
G1 X95.909 Y111.082 E11.37966
G1 X95.644 Y111.428 E11.40715
G1 X95.301 Y111.692 E11.43452
G1 X94.903 Y111.856 E11.46170
G1 X93.547 Y112.031 E11.54801
G1 X92.062 Y111.729 E11.64374
G1 X90.578 Y110.870 E11.75198
G1 X88.918 Y109.819 E11.87605
G1 X87.602 Y109.255 E11.96646
G1 X86.283 Y108.825 E12.05409
G1 X84.932 Y108.518 E12.14156
G1 X83.555 Y108.334 E12.22929
G1 X82.171 Y108.277 E12.31674
G1 X80.785 Y108.345 E12.40437
G1 X79.412 Y108.540 E12.49193
G1 X78.061 Y108.858 E12.57958
G1 X76.742 Y109.301 E12.66743
G1 X75.370 Y109.917 E12.76240
G1 X74.263 Y110.527 E12.84220
G1 X73.007 Y111.380 E12.93811
G1 X71.645 Y113.036 E13.07345
G1 X70.688 Y114.895 E13.20550
G1 X70.147 Y116.917 E13.33770
G1 X70.097 Y117.995 E13.40580
G1 X70.097 Y120.492 E13.56348
G1 X73.576 Y120.186 E13.78401
G1 X73.702 Y120.622 E13.81267
G1 X70.934 Y122.038 E14.00899
G1 X60.145 Y126.381 E14.74343
G1 X60.802 Y125.121 E14.83318
G1 X60.990 Y124.264 E14.88855
G1 X60.950 Y123.390 E14.94380
G1 X60.686 Y122.558 E14.99894
G1 X60.216 Y121.820 E15.05416
G1 X59.568 Y121.229 E15.10954
G1 X58.791 Y120.828 E15.16478
G1 X58.070 Y120.669 E15.21139
G1 X54.509 Y121.404 F7800.000
G1 X55.215 Y119.684 F360.000 E15.32876
G1 X57.331 Y116.144 E15.58922
G1 X59.925 Y112.937 E15.84967
G1 X62.949 Y110.130 E16.11018
G1 X66.337 Y107.778 E16.37061
G1 X70.024 Y105.927 E16.63115
G1 X73.936 Y104.617 E16.89165
G1 X77.992 Y103.872 E17.15203
G1 X82.115 Y103.707 E17.41257
G1 X86.217 Y104.126 E17.67300
G1 X90.222 Y105.123 E17.93358
G1 X94.014 Y106.662 E18.19201
G1 X96.280 Y108.440 E18.37390
G1 X96.689 Y108.973 E18.41629
G1 X96.945 Y109.590 E18.45852
G1 X97.032 Y110.254 E18.50076
G1 X96.945 Y110.915 E18.54288
G1 X96.689 Y111.532 E18.58511
G1 X96.282 Y112.064 E18.62737
G1 X95.751 Y112.472 E18.66963
G1 X95.135 Y112.727 E18.71176
G1 X93.515 Y112.936 E18.81489
G1 X91.741 Y112.575 E18.92920
G1 X90.116 Y111.634 E19.04778
G1 X88.501 Y110.611 E19.16846
G1 X87.288 Y110.091 E19.25182
G1 X86.045 Y109.687 E19.33433
G1 X84.774 Y109.398 E19.41667
G1 X83.477 Y109.225 E19.49926
G1 X82.175 Y109.171 E19.58158
G1 X80.870 Y109.235 E19.66407
G1 X79.578 Y109.419 E19.74649
G1 X78.306 Y109.718 E19.82899
G1 X77.068 Y110.133 E19.91147
G1 X75.769 Y110.716 E20.00135
G1 X74.731 Y111.289 E20.07622
G1 X73.614 Y112.046 E20.16141
G1 X72.395 Y113.529 E20.28261
G1 X71.526 Y115.218 E20.40258
G1 X71.035 Y117.055 E20.52264
G1 X70.990 Y118.015 E20.58335
G1 X70.990 Y119.517 E20.67818
G1 X75.808 Y119.093 E20.98359
G1 X75.808 Y120.547 E21.07538
G1 X71.305 Y122.851 E21.39480
G1 X59.193 Y127.727 E22.21928
G1 X58.140 Y127.999 E22.28794
G1 X57.082 Y127.988 E22.35475
G1 X56.065 Y127.704 E22.42142
G1 X55.154 Y127.165 E22.48825
G1 X54.414 Y126.411 E22.55495
G1 X53.894 Y125.490 E22.62177
G1 X53.631 Y124.466 E22.68853
G1 X53.642 Y123.438 E22.75345
G1 X54.445 Y121.521 E22.88467
G1 X55.394 Y121.288 F7800.000
G1 X58.597 Y118.767
G1 X59.162 Y119.332 F1080.000 E22.93570
G1 X62.261 Y122.431 F7800.000
G1 X63.286 Y123.457 F1080.000 E23.02826
G1 X64.196 Y123.090 F7800.000
G1 X59.074 Y117.968 F1080.000 E23.49062
G1 X59.595 Y117.213 E23.54919
G1 X65.106 Y122.724 E24.04669
G1 X66.016 Y122.358 E24.10930
G1 X60.166 Y116.508 E24.63741
G1 X60.736 Y115.802 E24.69533
G1 X66.926 Y121.992 E25.25407
G1 X67.836 Y121.625 E25.31668
G1 X61.307 Y115.097 E25.90603
G1 X61.905 Y114.418 E25.96374
G1 X68.557 Y121.071 E26.56426
G1 X68.557 Y119.795 E26.64572
G1 X62.567 Y113.804 E27.18650
G1 X63.229 Y113.190 E27.24414
G1 X68.557 Y118.518 E27.72518
G1 X68.589 Y117.274 E27.80463
G1 X63.890 Y112.575 E28.22880
G1 X64.563 Y111.971 E28.28648
G1 X68.755 Y116.164 E28.66493
G1 X69.024 Y115.157 E28.73147
G1 X65.316 Y111.448 E29.06622
G1 X66.069 Y110.925 E29.12475
G1 X69.324 Y114.180 E29.41856
G1 X69.758 Y113.338 E29.47904
G1 X66.822 Y110.402 E29.74401
G1 X67.576 Y109.880 E29.80254
G1 X70.191 Y112.495 E30.03868
G1 X70.715 Y111.743 E30.09720
G1 X68.424 Y109.452 E30.30397
G1 X69.274 Y109.025 E30.36465
G1 X71.291 Y111.042 E30.54672
G1 X71.867 Y110.342 E30.60459
G1 X70.124 Y108.599 E30.76195
G1 X70.975 Y108.174 E30.82268
G1 X72.598 Y109.797 E30.96918
G1 X73.358 Y109.281 E31.02783
G1 X71.931 Y107.854 E31.15665
G1 X72.887 Y107.534 E31.22101
G1 X74.172 Y108.819 E31.33703
G1 X75.017 Y108.387 E31.39758
G1 X73.843 Y107.213 E31.50355
G1 X74.831 Y106.926 E31.56926
G1 X75.898 Y107.992 E31.66553
G1 X76.779 Y107.597 E31.72717
G1 X75.909 Y106.728 E31.80564
G1 X76.988 Y106.530 E31.87561
G1 X77.282 Y106.824 E31.90219
G1 F2160.000 E30.90219
G92 E0
G1 X70.126 Y121.667 F7800.000
G1 F2160.000 E1.00000
G1 X69.851 Y121.391 F360.000 E1.01161
G1 X70.191 Y121.132 E1.02435
G1 X70.553 Y121.495 E1.03964
G1 X70.958 Y121.300 E1.05302
G1 X70.742 Y121.084 E1.06213
G1 X71.354 Y121.097 E1.08040
G1 X74.396 Y120.544 F7800.000
G1 X74.792 Y120.341 F360.000 E1.09368
G1 X74.324 Y119.872 E1.11342
G1 X74.874 Y119.824 E1.12990
G1 X75.162 Y120.111 E1.14202
G1 F2160.000 E0.14202
G92 E0
G1 X77.549 Y107.091 F7800.000
G1 F2160.000 E1.00000
G1 X77.245 Y106.787 F360.000 E1.02714
G1 X80.790 Y106.504 E1.25173
G1 X84.071 Y106.851 F7800.000
G1 X83.572 Y106.352 F360.000 E1.27274
G1 X84.182 Y106.363 E1.29092
G1 X84.762 Y106.943 E1.31539
G1 X84.849 Y106.431 E1.33088
G1 X85.456 Y107.038 E1.35647
G1 X85.517 Y106.499 E1.37263
G1 X88.175 Y107.508 F7800.000
G1 X89.873 Y107.929 F360.000 E1.48431
G1 X90.738 Y108.795 E1.56244
G1 X92.020 Y108.801 E1.64426
G1 X93.330 Y110.110 E1.76250
G1 F2160.000 E0.76250
G92 E0
G1 X56.831 Y126.946 F7800.000
G1 F2160.000 E1.00000
G1 X57.228 Y127.343 F360.000 E1.01683
G1 X57.545 Y127.060 E1.02954
G1 X57.833 Y127.349 E1.04179
G1 X58.119 Y127.036 E1.05450
G1 X58.358 Y127.275 E1.06461
G1 X58.589 Y126.907 E1.07764
G1 X58.834 Y127.152 E1.08801
G1 X59.158 Y126.876 E1.10075
G1 X59.029 Y126.747 E1.10621
G1 X56.417 Y127.131 F7800.000
G1 X54.487 Y125.202 F360.000 E1.18798
G1 X54.686 Y124.801 E1.20137
G1 X54.280 Y124.396 E1.21858
G1 X54.578 Y124.094 E1.23127
G1 X54.284 Y123.800 E1.24371
G1 X54.603 Y123.519 E1.25644
G1 X54.395 Y123.312 E1.26523
G1 X54.894 Y122.613 E1.29098
G1 X54.749 Y122.467 E1.29714
G1 X55.100 Y122.219 E1.31002
G1 X54.926 Y122.045 E1.31739
G1 X55.382 Y121.902 E1.33173
G1 F2160.000 E0.33173
G92 E0
G1 X57.439 Y95.232 F7800.000
G1 F2160.000 E1.00000
G1 X56.815 Y95.095 F540.000 E1.04036
G1 X56.249 Y94.801 E1.08065
G1 X55.776 Y94.369 E1.12108
G1 X55.432 Y93.830 E1.16144
G1 X55.239 Y93.221 E1.20181
G1 X55.210 Y92.581 E1.24223
G1 X55.347 Y91.956 E1.28266
G1 X55.644 Y91.387 E1.32316
G1 X56.075 Y90.917 E1.36343
G1 X56.613 Y90.572 E1.40382
G1 X57.224 Y90.378 E1.44429
G1 X57.861 Y90.351 E1.48457
G1 X58.485 Y90.488 E1.52491
G1 X59.054 Y90.782 E1.56531
G1 X59.527 Y91.214 E1.60577
G1 X59.870 Y91.753 E1.64613
G1 X60.064 Y92.363 E1.68650
G1 X60.093 Y93.002 E1.72692
G1 X59.956 Y93.627 E1.76735
G1 X59.659 Y94.196 E1.80785
G1 X59.228 Y94.666 E1.84812
G1 X58.690 Y95.011 E1.88851
G1 X58.079 Y95.205 E1.92898
G1 X57.573 Y95.226 E1.96094
G1 X57.051 Y95.739 F7800.000
G1 F2160.000 E0.96094
G92 E0
G1 X61.836 Y92.046 F7800.000
G1 F2160.000 E1.00000
G1 X61.502 Y90.991 F720.000 E1.06990
G1 X60.906 Y90.055 E1.13998
G1 X60.083 Y89.304 E1.21030
G1 X59.097 Y88.795 E1.28036
G1 X58.018 Y88.558 E1.35015
G1 X57.239 Y88.591 E1.39935
G1 X58.799 Y85.982 E1.59123
G1 X61.234 Y82.973 E1.83569
G1 X64.071 Y80.339 E2.08014
G1 X67.251 Y78.131 E2.32460
G1 X70.712 Y76.393 E2.56913
G1 X74.383 Y75.164 E2.81360
G1 X78.190 Y74.465 E3.05800
G1 X82.059 Y74.310 E3.30254
G1 X85.909 Y74.704 E3.54693
G1 X89.668 Y75.639 E3.79150
G1 X93.110 Y77.036 E4.02606
G1 X95.000 Y78.519 E4.17780
G1 X95.130 Y78.688 E4.19121
G1 X95.206 Y78.871 E4.20375
G1 X95.232 Y79.067 E4.21625
G1 X95.206 Y79.262 E4.22865
G1 X95.130 Y79.446 E4.24121
G1 X95.007 Y79.606 E4.25393
G1 X94.850 Y79.726 E4.26642
G1 X94.671 Y79.800 E4.27864
G1 X93.580 Y79.941 E4.34813
G1 X92.383 Y79.697 E4.42528
G1 X91.041 Y78.920 E4.52319
G1 X89.335 Y77.841 E4.65065
G1 X87.917 Y77.233 E4.74811
G1 X86.520 Y76.778 E4.84085
G1 X85.090 Y76.453 E4.93345
G1 X83.633 Y76.258 E5.02632
G1 X82.168 Y76.198 E5.11891
G1 X80.700 Y76.270 E5.21168
G1 X79.247 Y76.476 E5.30438
G1 X77.816 Y76.813 E5.39717
G1 X76.417 Y77.283 E5.49040
G1 X74.971 Y77.931 E5.59046
G1 X73.796 Y78.579 E5.67519
G1 X72.399 Y79.528 E5.78182
G1 X70.895 Y81.356 E5.93130
G1 X69.850 Y83.385 E6.07544
G1 X69.260 Y85.594 E6.21977
G1 X69.205 Y86.788 E6.29525
G1 X69.205 Y90.586 E6.53509
G1 X61.904 Y93.525 E7.03202
G1 X61.842 Y92.180 E7.11702
G1 X60.950 Y92.204 F7800.000
G1 X60.686 Y91.372 F720.000 E7.17215
G1 X60.216 Y90.634 E7.22737
G1 X59.568 Y90.043 E7.28276
G1 X58.791 Y89.642 E7.33799
G1 X57.940 Y89.454 E7.39306
G1 X57.067 Y89.491 E7.44818
G1 X55.578 Y89.964 E7.54686
G1 X56.015 Y88.899 E7.61956
G1 X58.065 Y85.470 E7.87182
G1 X60.580 Y82.362 E8.12428
G1 X63.510 Y79.642 E8.37676
G1 X66.794 Y77.362 E8.62921
G1 X70.368 Y75.567 E8.88174
G1 X74.159 Y74.298 E9.13422
G1 X78.091 Y73.576 E9.38662
G1 X82.087 Y73.415 E9.63915
G1 X86.063 Y73.822 E9.89156
G1 X89.945 Y74.788 E10.14414
G1 X93.562 Y76.256 E10.39063
G1 X95.640 Y77.886 E10.55745
G1 X95.909 Y78.237 E10.58535
G1 X96.076 Y78.638 E10.61274
G1 X96.132 Y79.067 E10.64011
G1 X96.076 Y79.495 E10.66736
G1 X95.909 Y79.896 E10.69476
G1 X95.644 Y80.242 E10.72225
G1 X95.301 Y80.506 E10.74963
G1 X94.903 Y80.670 E10.77680
G1 X93.547 Y80.845 E10.86311
G1 X92.062 Y80.543 E10.95884
G1 X90.578 Y79.684 E11.06709
G1 X88.918 Y78.633 E11.19116
G1 X87.602 Y78.069 E11.28156
G1 X86.283 Y77.639 E11.36919
G1 X84.932 Y77.332 E11.45666
G1 X83.555 Y77.148 E11.54439
G1 X82.171 Y77.091 E11.63185
G1 X80.785 Y77.159 E11.71948
G1 X79.412 Y77.354 E11.80704
G1 X78.061 Y77.672 E11.89468
G1 X76.742 Y78.115 E11.98253
G1 X75.370 Y78.731 E12.07750
G1 X74.263 Y79.341 E12.15730
G1 X73.007 Y80.194 E12.25321
G1 X71.645 Y81.850 E12.38855
G1 X70.688 Y83.709 E12.52061
G1 X70.147 Y85.731 E12.65280
G1 X70.097 Y86.809 E12.72090
G1 X70.097 Y89.306 E12.87859
G1 X73.576 Y89.000 E13.09912
G1 X73.702 Y89.436 E13.12778
G1 X70.934 Y90.852 E13.32410
G1 X60.145 Y95.195 E14.05853
