; generated by Slic3r 0.9.11-dev on 2013-07-19 at 22:20:46

; layer_height = 0.2
; perimeters = 2
; top_solid_layers = 3
; bottom_solid_layers = 3
; fill_density = .5
; perimeter_speed = 40
; infill_speed = 60
; travel_speed = 160
; nozzle_diameter = 0.5
; filament_diameter = 3
; extrusion_multiplier = 1
; perimeters extrusion width = 0.50mm
; infill extrusion width = 1.02mm
; solid infill extrusion width = 0.85mm
; top infill extrusion width = 0.85mm
; first layer extrusion width = 1.00mm

G21 ; set units to millimeters
M107
M104 S200 ; set temperature
G28 ; home all axes
M109 S200 ; wait for temperature to be reached
G90 ; use absolute coordinates
G92 E0
M82 ; use absolute distances for extrusion
G1 F2160.000 E-1.00000
G92 E0
G1 Z0.500 F9600.000
G1 X107.308 Y153.855
G1 F2160.000 E1.00000
G1 X67.318 Y126.685 F720.000 E4.05288
G1 X66.288 Y125.825 E4.13761
G1 X65.438 Y124.785 E4.22243
G1 X64.808 Y123.605 E4.30689
G1 X64.428 Y122.315 E4.39181
G1 X64.298 Y120.985 E4.47620
G1 X64.298 Y56.925 E8.52130
G1 X64.318 Y56.315 E8.55984
G1 X64.478 Y54.515 E8.67395
G1 X64.568 Y53.865 E8.71539
G1 X64.728 Y53.225 E8.75704
G1 X65.248 Y51.415 E8.87596
G1 X65.478 Y50.725 E8.92189
G1 X65.788 Y50.065 E8.96793
G1 X66.658 Y48.435 E9.08460
G1 X66.978 Y47.895 E9.12424
G1 X67.348 Y47.385 E9.16402
G1 X68.498 Y45.945 E9.28039
G1 X68.928 Y45.455 E9.32156
G1 X69.398 Y45.015 E9.36221
G1 X70.798 Y43.815 E9.47865
G1 X71.338 Y43.395 E9.52184
G1 X71.908 Y43.035 E9.56442
G1 X73.508 Y42.135 E9.68034
G1 X74.148 Y41.825 E9.72524
G1 X74.818 Y41.575 E9.77040
G1 X76.658 Y40.995 E9.89222
G1 X77.298 Y40.825 E9.93403
G1 X77.948 Y40.715 E9.97566
G1 X79.958 Y40.485 E10.10341
G1 X80.738 Y40.445 E10.15273
G1 X119.238 Y40.445 E12.58384
G1 X119.998 Y40.485 E12.63189
G1 X121.968 Y40.705 E12.75706
G1 X122.648 Y40.815 E12.80056
G1 X123.318 Y40.995 E12.84437
G1 X125.188 Y41.595 E12.96838
G1 X125.848 Y41.845 E13.01294
G1 X126.478 Y42.165 E13.05756
G1 X128.168 Y43.125 E13.18030
G1 X128.748 Y43.495 E13.22374
G1 X129.298 Y43.915 E13.26744
G1 X130.688 Y45.125 E13.38381
G1 X131.128 Y45.545 E13.42222
G1 X131.528 Y46.005 E13.46071
G1 X132.598 Y47.335 E13.56850
G1 X132.998 Y47.885 E13.61144
G1 X133.348 Y48.475 E13.65476
G1 X134.158 Y50.035 E13.76575
G1 X134.418 Y50.595 E13.80474
G1 X134.618 Y51.175 E13.84348
G1 X135.228 Y53.145 E13.97370
G1 X135.408 Y53.835 E14.01873
G1 X135.508 Y54.545 E14.06401
G1 X135.668 Y56.265 E14.17309
G1 X135.698 Y56.905 E14.21355
G1 X135.698 Y143.065 E19.65416
G1 X135.678 Y143.675 E19.69270
G1 X135.518 Y145.475 E19.80681
G1 X135.418 Y146.145 E19.84959
G1 X135.258 Y146.805 E19.89247
G1 X134.728 Y148.615 E20.01157
G1 X134.498 Y149.275 E20.05570
G1 X134.208 Y149.905 E20.09949
G1 X133.338 Y151.545 E20.21672
G1 X133.008 Y152.095 E20.25722
G1 X132.638 Y152.615 E20.29752
G1 X131.488 Y154.055 E20.41389
G1 X131.058 Y154.545 E20.45506
G1 X130.588 Y154.985 E20.49571
G1 X129.188 Y156.185 E20.61215
G1 X128.648 Y156.605 E20.65534
G1 X128.068 Y156.965 E20.69845
G1 X126.478 Y157.855 E20.81351
G1 X125.838 Y158.175 E20.85869
G1 X125.168 Y158.425 E20.90385
G1 X123.318 Y159.005 E21.02628
G1 X122.708 Y159.165 E21.06610
G1 X122.078 Y159.265 E21.10638
G1 X120.068 Y159.505 E21.23420
G1 X118.678 Y159.535 E21.32200
G1 X117.318 Y159.285 E21.40931
G1 X116.038 Y158.765 E21.49655
G1 X110.468 Y155.835 E21.89397
G1 X109.998 Y155.565 E21.92820
G1 X107.418 Y153.930 E22.12102
G1 F2160.000 E21.12102
G92 E0
G1 X87.822 Y108.458 F9600.000
G1 F2160.000 E1.00000
G1 X87.840 Y108.739 F540.000 E1.01774
G1 X87.810 Y109.093 E1.04022
G1 X87.730 Y109.465 E1.06424
G1 X87.576 Y109.814 E1.08831
G1 X87.390 Y110.128 E1.11136
G1 X87.150 Y110.407 E1.13458
G1 X86.864 Y110.669 E1.15905
G1 X86.534 Y110.863 E1.18326
G1 X86.190 Y110.996 E1.20654
G1 X85.830 Y111.083 E1.22996
G1 X85.453 Y111.108 E1.25377
G1 X85.072 Y111.081 E1.27788
G1 X84.674 Y110.974 E1.30392
G1 X84.385 Y110.854 E1.32367
G1 X84.052 Y110.657 E1.34810
G1 X83.777 Y110.409 E1.37155
G1 X83.537 Y110.135 E1.39448
G1 X83.339 Y109.813 E1.41838
G1 X83.195 Y109.465 E1.44216
G1 X83.106 Y109.105 E1.46555
G1 X83.081 Y108.729 E1.48936
G1 X83.105 Y108.361 E1.51265
G1 X83.196 Y107.986 E1.53702
G1 X83.338 Y107.646 E1.56026
G1 X83.533 Y107.328 E1.58383
G1 X83.779 Y107.042 E1.60767
G1 X84.057 Y106.804 E1.63078
G1 X84.374 Y106.608 E1.65430
G1 X84.721 Y106.464 E1.67802
G1 X85.085 Y106.376 E1.70169
G1 X85.465 Y106.349 E1.72576
G1 X85.832 Y106.376 E1.74897
G1 X86.200 Y106.468 E1.77294
G1 X86.543 Y106.610 E1.79639
G1 X86.859 Y106.803 E1.81975
G1 X87.141 Y107.046 E1.84325
G1 X87.387 Y107.328 E1.86690
G1 X87.584 Y107.651 E1.89080
G1 X87.722 Y107.988 E1.91381
G1 X87.809 Y108.325 E1.93579
G1 X88.079 Y108.571 F9600.000
G1 F2160.000 E0.93579
G92 E0
G1 X111.027 Y132.900 F9600.000
G1 F2160.000 E1.00000
G1 X111.373 Y132.846 F720.000 E1.02209
G1 X113.100 Y132.417 E1.13443
G1 X114.412 Y132.018 E1.22103
G1 X116.289 Y131.275 E1.34849
G1 X117.780 Y130.470 E1.45553
G1 X119.099 Y129.649 E1.55360
G1 X121.085 Y128.060 E1.71421
G1 X122.659 Y126.458 E1.85604
G1 X123.901 Y124.842 E1.98473
G1 X124.945 Y123.234 E2.10583
G1 X125.738 Y121.666 E2.21674
G1 X126.355 Y120.096 E2.32327
G1 X126.382 Y119.794 E2.34241
G1 X127.473 Y118.635 E2.44291
G1 X127.473 Y143.010 E3.98207
G1 X127.330 Y144.623 E4.08429
G1 X126.879 Y146.169 E4.18600
G1 X126.129 Y147.577 E4.28674
G1 X125.139 Y148.821 E4.38712
G1 X123.934 Y149.851 E4.48723
G1 X122.573 Y150.612 E4.58566
G1 X120.984 Y151.117 E4.69095
G1 X119.939 Y151.238 E4.75741
G1 X117.196 Y149.806 E4.95281
G1 X116.537 Y149.538 E4.99771
G1 X114.318 Y148.558 E5.15088
G1 X111.920 Y147.047 E5.32989
G1 X110.684 Y146.205 E5.42430
G1 X109.281 Y145.139 E5.53556
G1 X107.858 Y143.569 E5.66938
G1 X106.776 Y142.287 E5.77528
G1 X106.527 Y141.867 E5.80616
G1 X106.195 Y141.407 E5.84197
G1 X105.679 Y140.826 E5.89103
G1 X105.020 Y140.238 E5.94678
G1 X103.884 Y139.479 E6.03307
G1 X104.140 Y138.960 E6.06960
G1 X105.710 Y139.493 E6.17427
G1 X106.240 Y139.598 E6.20842
G1 X106.780 Y139.634 E6.24258
G1 X107.320 Y139.598 E6.27674
G1 X107.850 Y139.493 E6.31089
G1 X108.362 Y139.319 E6.34503
G1 X108.847 Y139.080 E6.37917
G1 X109.297 Y138.779 E6.41333
G1 X109.703 Y138.423 E6.44749
G1 X110.060 Y138.016 E6.48164
G1 X110.360 Y137.566 E6.51579
G1 X110.600 Y137.081 E6.54994
G1 X110.773 Y136.569 E6.58409
G1 X110.879 Y136.039 E6.61824
G1 X110.914 Y135.499 E6.65239
G1 X110.879 Y134.960 E6.68654
G1 X110.773 Y134.429 E6.72069
G1 X110.600 Y133.917 E6.75484
G1 X110.162 Y133.030 E6.81730
G1 X110.895 Y132.920 E6.86410
G1 F2160.000 E5.86410
G92 E0
G1 X103.199 Y133.432 F9600.000
G1 F2160.000 E1.00000
G1 X102.960 Y133.917 F540.000 E1.03415
G1 X102.786 Y134.429 E1.06830
G1 X102.680 Y134.960 E1.10245
G1 X102.645 Y135.499 E1.13660
G1 X102.680 Y136.039 E1.17075
G1 X102.786 Y136.569 E1.20490
G1 X103.238 Y137.902 E1.29374
G1 X102.694 Y138.162 E1.33187
G1 X101.976 Y137.031 E1.41647
G1 X101.017 Y136.279 E1.49341
G1 X96.973 Y134.858 E1.76408
G1 X97.272 Y134.170 E1.81147
G1 X97.678 Y133.580 E1.85671
G1 X98.057 Y133.607 E1.88069
G1 X98.807 Y133.719 E1.92856
G1 X99.141 Y133.715 E1.94966
G1 X100.049 Y133.637 E2.00722
G1 X100.424 Y133.569 E2.03128
G1 X101.620 Y133.159 E2.11111
G1 X102.684 Y132.575 E2.18770
G1 X103.636 Y132.778 E2.24918
G1 X103.273 Y133.321 E2.29037
G1 F2160.000 E1.29037
G92 E0
G1 X87.238 Y113.796 F9600.000
G1 F2160.000 E1.00000
G1 X86.885 Y113.748 F720.000 E1.02251
G1 X85.581 Y113.670 E1.10499
G1 X84.542 Y113.707 E1.17068
G1 X83.530 Y113.812 E1.23491
G1 X82.805 Y113.405 E1.28737
G1 X82.179 Y113.175 E1.32951
G1 X81.862 Y113.083 E1.35033
G1 X81.122 Y112.969 E1.39761
G1 X80.348 Y112.956 E1.44649
G1 X79.326 Y113.105 E1.51172
G1 X78.288 Y113.484 E1.58152
G1 X76.926 Y114.135 E1.67687
G1 X76.649 Y114.311 E1.69758
G1 X75.919 Y114.801 E1.75306
G1 X75.621 Y115.046 E1.77745
G1 X74.879 Y115.746 E1.84183
G1 X74.561 Y116.091 E1.87148
G1 X73.516 Y117.629 E1.98888
G1 X73.196 Y119.406 E2.10293
G1 X72.527 Y119.346 E2.14532
G1 X72.527 Y88.503 E4.09297
G1 X72.995 Y88.417 E4.12300
G1 X73.715 Y90.316 E4.25127
G1 X73.923 Y91.484 E4.32617
G1 X75.581 Y94.375 E4.53664
G1 X75.672 Y94.794 E4.56372
G1 X75.638 Y97.866 E4.75770
G1 X75.680 Y98.766 E4.81460
G1 X75.744 Y99.266 E4.84643
G1 X76.129 Y100.286 E4.91529
G1 X76.654 Y101.074 E4.97503
G1 X76.969 Y101.503 E5.00868
G1 X78.009 Y102.264 E5.09001
G1 X79.192 Y102.673 E5.16905
G1 X80.051 Y102.787 E5.22379
G1 X80.415 Y102.755 E5.24687
G1 X81.015 Y102.658 E5.28524
G1 X81.318 Y102.573 E5.30508
G1 X81.844 Y102.366 E5.34081
G1 X82.120 Y102.237 E5.36005
G1 X82.782 Y101.812 E5.40970
G1 X83.160 Y101.954 E5.43524
G1 X83.964 Y102.463 E5.49531
G1 X84.841 Y102.971 E5.55931
G1 X86.600 Y103.834 E5.68299
G1 X87.357 Y104.167 E5.73527
G1 X88.042 Y104.437 E5.78174
G1 X89.838 Y105.071 E5.90199
G1 X89.171 Y106.767 E6.01706
G1 X88.834 Y107.986 E6.09696
G1 X88.110 Y106.798 E6.18480
G1 X87.772 Y106.411 E6.21729
G1 X87.387 Y106.079 E6.24936
G1 X86.950 Y105.812 E6.28170
G1 X86.481 Y105.617 E6.31377
G1 X85.973 Y105.491 E6.34680
G1 X85.466 Y105.454 E6.37890
G1 X84.948 Y105.491 E6.41168
G1 X84.443 Y105.613 E6.44452
G1 X83.965 Y105.811 E6.47720
G1 X83.529 Y106.081 E6.50956
G1 X83.147 Y106.408 E6.54131
G1 X82.809 Y106.800 E6.57401
G1 X82.541 Y107.239 E6.60646
G1 X82.344 Y107.707 E6.63854
G1 X82.219 Y108.226 E6.67226
G1 X82.186 Y108.730 E6.70412
G1 X82.221 Y109.243 E6.73663
G1 X82.344 Y109.744 E6.76915
G1 X82.541 Y110.220 E6.80171
G1 X82.817 Y110.667 E6.83489
G1 X83.140 Y111.036 E6.86585
G1 X83.521 Y111.380 E6.89824
G1 X83.984 Y111.655 E6.93227
G1 X84.386 Y111.822 E6.95977
G1 X84.922 Y111.965 E6.99480
G1 X85.453 Y112.002 E7.02841
G1 X85.965 Y111.969 E7.06078
G1 X86.457 Y111.849 E7.09278
G1 X86.923 Y111.669 E7.12434
G1 X87.398 Y111.391 E7.15909
G1 X88.321 Y110.543 E7.23820
G1 X88.135 Y111.893 E7.32427
G1 X88.080 Y113.905 E7.45131
G1 X87.371 Y113.814 E7.49644
G1 X87.125 Y114.682 F9600.000
G1 X86.316 Y114.601 F360.000 E7.54782
G1 X85.555 Y114.564 E7.59589
G1 X84.617 Y114.597 E7.65516
G1 X83.561 Y114.706 E7.72221
G1 X83.363 Y114.694 E7.73471
G1 X83.162 Y114.630 E7.74803
G1 X82.437 Y114.221 E7.80063
G1 X81.900 Y114.023 E7.83674
G1 X81.669 Y113.956 E7.85196
G1 X81.045 Y113.860 E7.89178
G1 X80.415 Y113.849 E7.93158
G1 X79.543 Y113.977 E7.98727
G1 X78.617 Y114.315 E8.04951
G1 X77.361 Y114.916 E8.13742
G1 X76.453 Y115.518 E8.20621
G1 X76.211 Y115.717 E8.22597
G1 X75.514 Y116.374 E8.28645
G1 X75.262 Y116.647 E8.30995
G1 X74.361 Y117.973 E8.41120
G1 X74.181 Y118.968 E8.47501
G1 X73.658 Y120.539 E8.57956
G1 X71.634 Y120.539 E8.70733
G1 X71.634 Y56.950 E12.72266
G1 X71.789 Y55.211 E12.83290
G1 X72.290 Y53.493 E12.94592
G1 X73.121 Y51.931 E13.05766
G1 X74.216 Y50.556 E13.16862
G1 X75.553 Y49.413 E13.27971
G1 X77.070 Y48.565 E13.38944
G1 X78.827 Y48.006 E13.50589
G1 X80.771 Y47.781 E13.62945
G1 X119.219 Y47.781 E16.05728
G1 X121.122 Y47.997 E16.17820
G1 X122.905 Y48.572 E16.29647
G1 X124.512 Y49.490 E16.41334
G1 X125.843 Y50.644 E16.52460
G1 X126.858 Y51.909 E16.62699
G1 X127.632 Y53.388 E16.73240
G1 X128.217 Y55.276 E16.85721
G1 X128.366 Y56.931 E16.96215
G1 X128.366 Y143.050 E22.40018
G1 X128.211 Y144.789 E22.51042
G1 X127.710 Y146.507 E22.62344
G1 X126.879 Y148.069 E22.73518
G1 X125.784 Y149.444 E22.84614
G1 X124.447 Y150.587 E22.95723
G1 X122.930 Y151.435 E23.06696
G1 X121.173 Y151.994 E23.18342
G1 X119.523 Y152.185 E23.28828
G1 X119.426 Y151.978 E23.30273
G1 X116.815 Y150.615 E23.48870
G1 X116.188 Y150.360 E23.53142
G1 X113.896 Y149.348 E23.68963
G1 X111.426 Y147.791 E23.87401
G1 X109.860 Y146.709 E23.99424
G1 X108.682 Y145.806 E24.08794
G1 X108.381 Y145.489 E24.11554
G1 X107.187 Y144.158 E24.22843
G1 X106.064 Y142.828 E24.33838
G1 X105.785 Y142.366 E24.37245
G1 X105.496 Y141.966 E24.40359
G1 X105.040 Y141.453 E24.44694
G1 X104.470 Y140.944 E24.49520
G1 X103.760 Y140.460 E24.54947
G1 X102.822 Y139.723 E24.62477
G1 X101.949 Y138.697 E24.70988
G1 X101.306 Y137.642 E24.78789
G1 X100.576 Y137.068 E24.84651
G1 X96.882 Y135.772 E25.09371
G1 X96.270 Y135.309 E25.14218
G1 X96.121 Y134.579 E25.18918
G1 X96.483 Y133.749 E25.24635
G1 X97.051 Y132.919 E25.30990
G1 X97.490 Y132.688 E25.34118
G1 X98.155 Y132.719 E25.38319
G1 X98.868 Y132.825 E25.42875
G1 X99.098 Y132.823 E25.44325
G1 X99.931 Y132.751 E25.49603
G1 X100.201 Y132.702 E25.51340
G1 X101.246 Y132.345 E25.58309
G1 X102.444 Y131.692 E25.66925
G1 X102.804 Y131.688 E25.69201
G1 X104.016 Y131.946 E25.77023
G1 X105.837 Y132.215 E25.88649
G1 X105.859 Y132.349 E25.89506
G1 X105.160 Y132.693 E25.94427
G1 X104.807 Y132.929 E25.97103
G1 X104.489 Y133.208 E25.99779
G1 X104.209 Y133.527 E26.02455
G1 X104.033 Y133.790 E26.04454
G1 X103.786 Y134.259 E26.07803
G1 X103.650 Y134.661 E26.10480
G1 X103.567 Y135.076 E26.13156
G1 X103.540 Y135.499 E26.15832
G1 X103.567 Y135.922 E26.18508
G1 X103.650 Y136.338 E26.21184
G1 X103.786 Y136.739 E26.23860
G1 X103.974 Y137.119 E26.26537
G1 X104.209 Y137.472 E26.29213
G1 X104.489 Y137.790 E26.31889
G1 X104.807 Y138.070 E26.34565
G1 X105.160 Y138.305 E26.37242
G1 X105.540 Y138.493 E26.39918
G1 X105.941 Y138.629 E26.42593
G1 X106.357 Y138.711 E26.45270
G1 X106.780 Y138.739 E26.47946
G1 X107.203 Y138.711 E26.50622
G1 X107.618 Y138.629 E26.53299
G1 X108.020 Y138.493 E26.55974
G1 X108.400 Y138.305 E26.58650
G1 X108.752 Y138.070 E26.61327
G1 X109.071 Y137.790 E26.64003
G1 X109.350 Y137.472 E26.66679
G1 X109.586 Y137.119 E26.69355
G1 X109.773 Y136.739 E26.72032
G1 X109.909 Y136.338 E26.74708
G1 X109.992 Y135.922 E26.77384
G1 X110.020 Y135.499 E26.80060
G1 X109.992 Y135.076 E26.82736
G1 X109.909 Y134.661 E26.85412
G1 X109.773 Y134.259 E26.88088
G1 X109.586 Y133.879 E26.90765
G1 X109.350 Y133.527 E26.93441
G1 X109.071 Y133.208 E26.96117
G1 X108.752 Y132.929 E26.98793
G1 X108.400 Y132.693 E27.01469
G1 X107.933 Y132.463 E27.04754
G1 X107.979 Y132.272 E27.05998
G1 X108.585 Y132.276 E27.09825
G1 X109.267 Y132.235 E27.14144
G1 X109.854 Y132.173 E27.17871
G1 X111.202 Y131.969 E27.26479
G1 X112.854 Y131.558 E27.37229
G1 X114.122 Y131.173 E27.45593
G1 X115.905 Y130.468 E27.57705
G1 X117.334 Y129.696 E27.67959
G1 X118.575 Y128.925 E27.77186
G1 X120.486 Y127.395 E27.92642
G1 X121.987 Y125.867 E28.06167
G1 X123.169 Y124.329 E28.18417
G1 X124.170 Y122.788 E28.30018
G1 X124.924 Y121.296 E28.40578
G1 X125.477 Y119.889 E28.50125
G1 X125.521 Y119.407 E28.53181
G1 X126.298 Y118.576 E28.60369
G1 X126.462 Y117.906 E28.64722
G1 X126.475 Y56.891 E32.50005
G1 X126.362 Y55.644 E32.57908
G1 X125.901 Y54.103 E32.68067
G1 X125.299 Y52.961 E32.76216
G1 X124.538 Y51.979 E32.84064
G1 X123.493 Y51.070 E32.92809
G1 X122.212 Y50.318 E33.02189
G1 X120.774 Y49.845 E33.11749
G1 X119.270 Y49.672 E33.21306
G1 X80.720 Y49.672 E35.64731
G1 X79.176 Y49.847 E35.74543
G1 X77.769 Y50.310 E35.83901
G1 X76.585 Y50.997 E35.92543
G1 X75.530 Y51.897 E36.01299
G1 X74.689 Y52.988 E36.09998
G1 X74.025 Y54.216 E36.18811
G1 X73.637 Y55.589 E36.27823
G1 X73.525 Y56.912 E36.36202
G1 X73.526 Y87.300 E38.28091
G1 X74.580 Y90.078 E38.46851
G1 X74.774 Y91.176 E38.53893
G1 X76.422 Y94.044 E38.74779
G1 X76.566 Y94.695 E38.78989
G1 X76.531 Y97.847 E38.98894
G1 X76.570 Y98.689 E39.04215
G1 X76.616 Y99.050 E39.06514
G1 X76.928 Y99.875 E39.12084
G1 X77.609 Y100.866 E39.19677
G1 X78.431 Y101.467 E39.26110
G1 X79.380 Y101.795 E39.32449
G1 X80.079 Y101.888 E39.36902
G1 X80.824 Y101.784 E39.41647
G1 X81.034 Y101.726 E39.43027
G1 X81.686 Y101.454 E39.47487
G1 X82.207 Y101.119 E39.51395
G1 X82.563 Y100.930 E39.53943
G1 X82.914 Y100.908 E39.56163
G1 X83.551 Y101.145 E39.60456
G1 X84.429 Y101.701 E39.67020
G1 X85.115 Y102.105 E39.72045
G1 X85.900 Y102.510 E39.77625
G1 X86.969 Y103.021 E39.85110
G1 X87.699 Y103.343 E39.90148
G1 X88.363 Y103.604 E39.94653
G1 X89.944 Y104.161 E40.05233
G1 X90.313 Y104.397 E40.08003
G1 X90.549 Y104.700 E40.10429
G1 X90.653 Y105.017 E40.12534
G1 X90.655 Y105.433 E40.15164
G1 X90.021 Y107.043 E40.26087
G1 X89.421 Y109.197 E40.40206
G1 X89.025 Y111.971 E40.57902
G1 X88.980 Y113.613 E40.68277
G1 X88.972 Y113.740 E40.69078
G1 X88.882 Y114.109 E40.71477
G1 X88.740 Y114.331 E40.73138
G1 X88.495 Y114.551 E40.75220
G1 X88.196 Y114.721 E40.77392
G1 X87.802 Y114.773 E40.79900
