; generated by Slic3r 0.9.11-dev on 2013-07-16 at 22:22:04

; layer_height = 0.2
; perimeters = 1
; top_solid_layers = 0
; bottom_solid_layers = 3
; fill_density = 0
; perimeter_speed = 40
; infill_speed = 60
; travel_speed = 130
; nozzle_diameter = 0.5
; filament_diameter = 3
; extrusion_multiplier = 1
; perimeters extrusion width = 0.50mm
; infill extrusion width = 1.02mm
; solid infill extrusion width = 0.85mm
; top infill extrusion width = 0.85mm
; first layer extrusion width = 1.00mm

G21 ; set units to millimeters
M107
M104 S200 ; set temperature
G28 ; home all axes
M109 S200 ; wait for temperature to be reached
G90 ; use absolute coordinates
G92 E0
M82 ; use absolute distances for extrusion
G1 Z1.300 F7800.000
G1 F2160.000 E-1.00000
G92 E0
G1 X27.995 Y21.251 F7800.000
G1 F2160.000 E1.00000
G1 X28.855 Y20.211 F720.000 E1.08522
G1 X29.895 Y19.351 E1.17043
G1 X31.085 Y18.711 E1.25575
G1 X32.385 Y18.321 E1.34146
G1 X33.725 Y18.191 E1.42647
G1 X116.275 Y18.191 E6.63913
G1 X117.615 Y18.321 E6.72415
G1 X118.915 Y18.711 E6.80985
G1 X120.105 Y19.351 E6.89517
G1 X121.145 Y20.211 E6.98039
G1 X122.005 Y21.251 E7.06560
G1 X122.645 Y22.441 E7.15092
G1 X123.035 Y23.741 E7.23663
G1 X123.165 Y25.081 E7.32164
G1 X123.165 Y128.721 E13.86604
G1 X123.065 Y129.911 E13.94145
G1 X122.925 Y130.711 E13.99274
G1 X122.765 Y131.391 E14.03685
G1 X122.545 Y132.171 E14.08802
G1 X122.315 Y132.861 E14.13395
G1 X122.015 Y133.611 E14.18496
G1 X121.655 Y134.371 E14.23806
G1 X121.265 Y135.081 E14.28921
G1 X120.835 Y135.761 E14.34002
G1 X120.365 Y136.421 E14.39118
G1 X119.875 Y137.031 E14.44059
G1 X119.335 Y137.631 E14.49156
G1 X118.825 Y138.141 E14.53710
G1 X118.225 Y138.681 E14.58807
G1 X117.615 Y139.171 E14.63748
G1 X116.955 Y139.641 E14.68864
G1 X116.275 Y140.071 E14.73945
G1 X115.565 Y140.461 E14.79060
G1 X114.775 Y140.831 E14.84569
G1 X113.965 Y141.151 E14.90068
G1 X113.275 Y141.381 E14.94661
G1 X112.555 Y141.581 E14.99379
G1 X111.825 Y141.741 E15.04098
G1 X111.025 Y141.871 E15.09216
G1 X109.915 Y141.961 E15.16248
G1 X40.065 Y141.961 E19.57320
G1 X38.945 Y141.871 E19.64415
G1 X38.155 Y141.741 E19.69471
G1 X37.405 Y141.571 E19.74327
G1 X36.625 Y141.351 E19.79444
G1 X35.935 Y141.121 E19.84037
G1 X35.185 Y140.821 E19.89138
G1 X34.425 Y140.461 E19.94448
G1 X33.715 Y140.071 E19.99563
G1 X33.035 Y139.641 E20.04644
G1 X32.375 Y139.171 E20.09760
G1 X31.765 Y138.681 E20.14701
G1 X31.165 Y138.141 E20.19798
G1 X30.655 Y137.631 E20.24352
G1 X30.115 Y137.031 E20.29449
G1 X29.625 Y136.421 E20.34390
G1 X29.155 Y135.761 E20.39507
G1 X28.725 Y135.081 E20.44587
G1 X28.335 Y134.371 E20.49702
G1 X27.975 Y133.611 E20.55012
G1 X27.675 Y132.861 E20.60113
G1 X27.445 Y132.171 E20.64706
G1 X27.225 Y131.391 E20.69823
G1 X27.055 Y130.631 E20.74741
G1 X26.925 Y129.831 E20.79859
G1 X26.835 Y128.721 E20.86891
G1 X26.835 Y25.081 E27.41331
G1 X26.965 Y23.741 E27.49833
G1 X27.355 Y22.441 E27.58403
G1 X27.932 Y21.369 E27.66090
G1 F2160.000 E26.66090
G92 E0
G1 X65.029 Y28.415 F7800.000
G1 F2160.000 E1.00000
G1 X65.029 Y42.532 F720.000 E1.89147
G1 X69.974 Y42.532 E2.20374
G1 X69.974 Y134.633 E8.01948
G1 X40.111 Y134.633 E9.90518
G1 X39.374 Y134.512 E9.95236
G1 X38.644 Y134.306 E10.00024
G1 X37.943 Y134.018 E10.04811
G1 X37.278 Y133.653 E10.09599
G1 X36.659 Y133.215 E10.14387
G1 X36.094 Y132.710 E10.19174
G1 X35.589 Y132.145 E10.23962
G1 X35.151 Y131.526 E10.28749
G1 X34.786 Y130.861 E10.33537
G1 X34.498 Y130.160 E10.38325
G1 X34.292 Y129.430 E10.43112
G1 X34.171 Y128.693 E10.47830
G1 X34.171 Y25.529 E16.99265
G1 X115.829 Y25.529 E22.14895
G1 X115.829 Y128.693 E28.66329
G1 X115.708 Y129.430 E28.71047
G1 X115.502 Y130.160 E28.75835
G1 X115.214 Y130.861 E28.80623
G1 X114.849 Y131.526 E28.85411
G1 X114.411 Y132.145 E28.90198
G1 X113.906 Y132.710 E28.94986
G1 X113.341 Y133.215 E28.99773
G1 X112.722 Y133.653 E29.04561
G1 X112.057 Y134.018 E29.09348
G1 X111.356 Y134.306 E29.14136
G1 X110.626 Y134.512 E29.18924
G1 X109.889 Y134.633 E29.23642
G1 X80.209 Y134.633 E31.11057
G1 X80.209 Y42.532 E36.92630
G1 X84.971 Y42.532 E37.22704
G1 X84.971 Y28.415 E38.11850
G1 X65.163 Y28.415 E39.36934
G1 F2160.000 E38.36934
G92 E0
G1 X68.588 Y43.179 F7800.000
G1 F2160.000 E1.00000
G1 X69.327 Y43.919 F1080.000 E1.06630
G1 X69.327 Y45.186 E1.14666
G1 X67.320 Y43.179 E1.32662
G1 X66.052 Y43.179 E1.40698
G1 X69.327 Y46.454 E1.70059
G1 F2160.000 E0.70059
G92 E0
G1 X85.618 Y28.521 F7800.000
G1 F2160.000 E1.00000
G1 X115.182 Y58.084 F1080.000 E3.65072
G1 X115.182 Y59.351 E3.73109
G1 X85.618 Y29.788 E6.38181
G1 X85.618 Y31.056 E6.46218
G1 X115.182 Y60.619 E9.11290
G1 X115.182 Y61.886 E9.19327
G1 X85.618 Y32.323 E11.84399
G1 X85.618 Y33.591 E11.92436
G1 X115.182 Y63.154 E14.57508
G1 X115.182 Y64.422 E14.65545
G1 X85.618 Y34.858 E17.30617
G1 X85.618 Y36.126 E17.38654
G1 X115.182 Y65.689 E20.03726
G1 X115.182 Y66.957 E20.11763
G1 X85.618 Y37.394 E22.76835
G1 X85.618 Y38.661 E22.84872
G1 X115.182 Y68.224 E25.49944
G1 X115.182 Y69.492 E25.57980
G1 X85.618 Y39.929 E28.23053
G1 X85.618 Y41.196 E28.31089
G1 X115.182 Y70.760 E30.96162
G1 X115.182 Y72.027 E31.04198
G1 X85.618 Y42.464 E33.69271
G1 X85.066 Y43.179 E33.75000
G1 X115.182 Y73.295 E36.45025
G1 X115.182 Y74.562 E36.53061
G1 X83.799 Y43.179 E39.34451
G1 X82.531 Y43.179 E39.42488
G1 X115.182 Y75.830 E42.35244
G1 X115.182 Y77.097 E42.43280
G1 X81.263 Y43.179 E45.47401
G1 X80.856 Y44.039 E45.53436
G1 X115.182 Y78.365 E48.61210
G1 X115.182 Y79.633 E48.69247
G1 X80.856 Y45.307 E51.77021
G1 X80.856 Y46.575 E51.85058
G1 X115.182 Y80.900 E54.92832
G1 X115.182 Y82.168 E55.00869
G1 X80.856 Y47.842 E58.08643
G1 X80.856 Y49.110 E58.16680
G1 X115.182 Y83.435 E61.24454
G1 X115.182 Y84.703 E61.32491
G1 X80.856 Y50.377 E64.40265
G1 X80.856 Y51.645 E64.48302
G1 X115.182 Y85.970 E67.56076
G1 X115.182 Y87.238 E67.64113
G1 X80.856 Y52.912 E70.71887
G1 X80.856 Y54.180 E70.79924
G1 X115.182 Y88.506 E73.87698
G1 X115.182 Y89.773 E73.95735
G1 X80.856 Y55.448 E77.03509
G1 X80.856 Y56.715 E77.11546
G1 X115.182 Y91.041 E80.19320
G1 X115.182 Y92.308 E80.27357
G1 X80.856 Y57.983 E83.35131
G1 X80.856 Y59.250 E83.43168
G1 X115.182 Y93.576 E86.50942
G1 X115.182 Y94.844 E86.58979
G1 X80.856 Y60.518 E89.66753
G1 X80.856 Y61.786 E89.74790
G1 X115.182 Y96.111 E92.82564
G1 X115.182 Y97.379 E92.90601
G1 X80.856 Y63.053 E95.98375
G1 X80.856 Y64.321 E96.06412
G1 X115.182 Y98.646 E99.14186
G1 X115.182 Y99.914 E99.22223
G1 X80.856 Y65.588 E102.29997
G1 X80.856 Y66.856 E102.38034
G1 X115.182 Y101.181 E105.45808
G1 X115.182 Y102.449 E105.53845
G1 X80.856 Y68.123 E108.61619
G1 X80.856 Y69.391 E108.69656
G1 X115.182 Y103.717 E111.77430
G1 X115.182 Y104.984 E111.85467
G1 X80.856 Y70.659 E114.93241
G1 X80.856 Y71.926 E115.01278
G1 X115.182 Y106.252 E118.09052
G1 X115.182 Y107.519 E118.17089
G1 X80.856 Y73.194 E121.24863
G1 X80.856 Y74.461 E121.32900
G1 X115.182 Y108.787 E124.40675
G1 X115.182 Y110.055 E124.48711
G1 X80.856 Y75.729 E127.56486
G1 X80.856 Y76.997 E127.64522
G1 X115.182 Y111.322 E130.72297
G1 X115.182 Y112.590 E130.80333
G1 X80.856 Y78.264 E133.88108
G1 X80.856 Y79.532 E133.96144
G1 X115.182 Y113.857 E137.03919
G1 X115.182 Y115.125 E137.11955
G1 X80.856 Y80.799 E140.19730
G1 X80.856 Y82.067 E140.27766
G1 X115.182 Y116.392 E143.35541
G1 X115.182 Y117.660 E143.43577
G1 X80.856 Y83.334 E146.51352
G1 X80.856 Y84.602 E146.59388
G1 X115.182 Y118.928 E149.67163
G1 X115.182 Y120.195 E149.75199
G1 X80.856 Y85.870 E152.82974
G1 X80.856 Y87.137 E152.91010
G1 X115.182 Y121.463 E155.98785
G1 X115.182 Y122.730 E156.06821
G1 X80.856 Y88.405 E159.14596
G1 X80.856 Y89.672 E159.22632
G1 X115.182 Y123.998 E162.30407
G1 X115.182 Y125.266 E162.38443
G1 X80.856 Y90.940 E165.46218
G1 X80.856 Y92.208 E165.54254
G1 X115.182 Y126.533 E168.62029
G1 X115.182 Y127.801 E168.70065
G1 X80.856 Y93.475 E171.77840
G1 X80.856 Y94.743 E171.85876
G1 X115.121 Y129.008 E174.93110
G1 X114.861 Y130.016 E174.99707
G1 X80.856 Y96.010 E178.04610
G1 X80.856 Y97.278 E178.12646
G1 X114.463 Y130.885 E181.13976
G1 X113.965 Y131.655 E181.19789
G1 X80.856 Y98.545 E184.16658
G1 X80.856 Y99.813 E184.24694
G1 X113.367 Y132.324 E187.16201
G1 X112.671 Y132.896 E187.21911
G1 X80.856 Y101.081 E190.07179
G1 X80.856 Y102.348 E190.15215
G1 X111.883 Y133.375 E192.93415
G1 X110.980 Y133.739 E192.99591
G1 X80.856 Y103.616 E195.69689
G1 X80.856 Y104.883 E195.77725
G1 X109.941 Y133.968 E198.38511
G1 X108.691 Y133.986 E198.46439
G1 X80.856 Y106.151 E200.96013
G1 X80.856 Y107.419 E201.04050
G1 X107.423 Y133.986 E203.42259
G1 X106.155 Y133.986 E203.50295
G1 X80.856 Y108.686 E205.77138
G1 X80.856 Y109.954 E205.85175
G1 X104.888 Y133.986 E208.00652
G1 X103.620 Y133.986 E208.08689
G1 X80.856 Y111.221 E210.12801
G1 X80.856 Y112.489 E210.20838
G1 X102.353 Y133.986 E212.13584
G1 X101.085 Y133.986 E212.21621
G1 X80.856 Y113.756 E214.03002
G1 X80.856 Y115.024 E214.11038
G1 X99.817 Y133.986 E215.81053
G1 X98.550 Y133.986 E215.89090
G1 X80.856 Y116.292 E217.47740
G1 X80.856 Y117.559 E217.55777
G1 X97.282 Y133.986 E219.03061
G1 X96.015 Y133.986 E219.11097
G1 X80.856 Y118.827 E220.47016
G1 X80.856 Y120.094 E220.55053
G1 X94.747 Y133.986 E221.79606
G1 X93.480 Y133.986 E221.87643
G1 X80.856 Y121.362 E223.00830
G1 X80.856 Y122.630 E223.08867
G1 X92.212 Y133.986 E224.10689
G1 X90.944 Y133.986 E224.18725
G1 X80.856 Y123.897 E225.09182
G1 X80.856 Y125.165 E225.17219
G1 X89.677 Y133.986 E225.96310
G1 X88.409 Y133.986 E226.04346
G1 X80.856 Y126.432 E226.72072
G1 X80.856 Y127.700 E226.80108
G1 X87.142 Y133.986 E227.36468
G1 X85.874 Y133.986 E227.44505
G1 X80.856 Y128.967 E227.89499
G1 X80.856 Y130.235 E227.97536
G1 X84.606 Y133.986 E228.31164
G1 X83.339 Y133.986 E228.39201
G1 X80.856 Y131.503 E228.61464
G1 X80.856 Y132.770 E228.69501
G1 X82.071 Y133.986 E228.80399
G1 F2160.000 E227.80399
G92 E0
G1 X38.559 Y133.571 F7800.000
G1 F2160.000 E1.00000
G1 X35.233 Y130.245 F1080.000 E1.29827
G1 X34.818 Y128.563 E1.40809
G1 X40.241 Y133.986 E1.89430
G1 X41.509 Y133.986 E1.97467
G1 X34.818 Y127.295 E2.57454
G1 X34.818 Y126.028 E2.65491
G1 X42.776 Y133.986 E3.36843
G1 X44.044 Y133.986 E3.44880
G1 X34.818 Y124.760 E4.27598
G1 X34.818 Y123.493 E4.35634
G1 X45.311 Y133.986 E5.29718
G1 X46.579 Y133.986 E5.37754
G1 X34.818 Y122.225 E6.43204
G1 X34.818 Y120.957 E6.51240
G1 X47.847 Y133.986 E7.68055
G1 X49.114 Y133.986 E7.76092
G1 X34.818 Y119.690 E9.04272
G1 X34.818 Y118.422 E9.12308
G1 X50.382 Y133.986 E10.51854
G1 X51.649 Y133.986 E10.59891
G1 X34.818 Y117.155 E12.10802
G1 X34.818 Y115.887 E12.18839
G1 X52.917 Y133.986 E13.81115
G1 X54.185 Y133.986 E13.89152
G1 X34.818 Y114.619 E15.62794
G1 X34.818 Y113.352 E15.70831
G1 X55.452 Y133.986 E17.55839
G1 X56.720 Y133.986 E17.63876
G1 X34.818 Y112.084 E19.60249
G1 X34.818 Y110.817 E19.68286
G1 X57.987 Y133.986 E21.76025
G1 X59.255 Y133.986 E21.84061
G1 X34.818 Y109.549 E24.03166
G1 X34.818 Y108.282 E24.11203
G1 X60.522 Y133.986 E26.41673
G1 X61.790 Y133.986 E26.49709
G1 X34.818 Y107.014 E28.91545
G1 X34.818 Y105.746 E28.99582
G1 X63.058 Y133.986 E31.52783
G1 X64.325 Y133.986 E31.60819
G1 X34.818 Y104.479 E34.25386
G1 X34.818 Y103.211 E34.33423
G1 X65.593 Y133.986 E37.09355
G1 X66.860 Y133.986 E37.17392
G1 X34.818 Y101.944 E40.04689
G1 X34.818 Y100.676 E40.12726
G1 X68.128 Y133.986 E43.11389
G1 X69.327 Y133.917 E43.19004
G1 X34.818 Y99.408 E46.28418
G1 X34.818 Y98.141 E46.36455
G1 X69.327 Y132.649 E49.45869
G1 X69.327 Y131.382 E49.53905
G1 X34.818 Y96.873 E52.63320
G1 X34.818 Y95.606 E52.71356
G1 X69.327 Y130.114 E55.80770
G1 X69.327 Y128.847 E55.88807
G1 X34.818 Y94.338 E58.98221
G1 X34.818 Y93.071 E59.06258
G1 X69.327 Y127.579 E62.15672
G1 X69.327 Y126.312 E62.23709
G1 X34.818 Y91.803 E65.33123
G1 X34.818 Y90.535 E65.41160
G1 X69.327 Y125.044 E68.50574
G1 X69.327 Y123.776 E68.58610
G1 X34.818 Y89.268 E71.68025
G1 X34.818 Y88.000 E71.76061
G1 X69.327 Y122.509 E74.85475
G1 X69.327 Y121.241 E74.93512
G1 X34.818 Y86.733 E78.02926
G1 X34.818 Y85.465 E78.10963
G1 X69.327 Y119.974 E81.20377
G1 X69.327 Y118.706 E81.28414
G1 X34.818 Y84.198 E84.37828
G1 X34.818 Y82.930 E84.45864
G1 X69.327 Y117.438 E87.55279
G1 X69.327 Y116.171 E87.63315
G1 X34.818 Y81.662 E90.72729
G1 X34.818 Y80.395 E90.80766
G1 X69.327 Y114.903 E93.90180
G1 X69.327 Y113.636 E93.98217
G1 X34.818 Y79.127 E97.07631
G1 X34.818 Y77.860 E97.15668
G1 X69.327 Y112.368 E100.25082
G1 X69.327 Y111.101 E100.33119
G1 X34.818 Y76.592 E103.42533
G1 X34.818 Y75.324 E103.50569
G1 X69.327 Y109.833 E106.59984
G1 X69.327 Y108.565 E106.68020
G1 X34.818 Y74.057 E109.77434
G1 X34.818 Y72.789 E109.85471
G1 X69.327 Y107.298 E112.94885
G1 X69.327 Y106.030 E113.02922
G1 X34.818 Y71.522 E116.12336
G1 X34.818 Y70.254 E116.20373
G1 X69.327 Y104.763 E119.29787
G1 X69.327 Y103.495 E119.37823
G1 X34.818 Y68.987 E122.47238
G1 X34.818 Y67.719 E122.55274
G1 X69.327 Y102.227 E125.64688
G1 X69.327 Y100.960 E125.72725
G1 X34.818 Y66.451 E128.82139
G1 X34.818 Y65.184 E128.90176
G1 X69.327 Y99.692 E131.99590
G1 X69.327 Y98.425 E132.07627
G1 X34.818 Y63.916 E135.17041
G1 X34.818 Y62.649 E135.25078
G1 X69.327 Y97.157 E138.34492
G1 X69.327 Y95.890 E138.42528
G1 X34.818 Y61.381 E141.51943
G1 X34.818 Y60.113 E141.59979
G1 X69.327 Y94.622 E144.69393
G1 X69.327 Y93.354 E144.77430
G1 X34.818 Y58.846 E147.86844
G1 X34.818 Y57.578 E147.94881
G1 X69.327 Y92.087 E151.04295
G1 X69.327 Y90.819 E151.12332
G1 X34.818 Y56.311 E154.21746
G1 X34.818 Y55.043 E154.29782
G1 X69.327 Y89.552 E157.39197
G1 X69.327 Y88.284 E157.47233
G1 X34.818 Y53.776 E160.56647
G1 X34.818 Y52.508 E160.64684
G1 X69.327 Y87.016 E163.74098
G1 X69.327 Y85.749 E163.82135
G1 X34.818 Y51.240 E166.91549
G1 X34.818 Y49.973 E166.99586
G1 X69.327 Y84.481 E170.09000
G1 X69.327 Y83.214 E170.17037
G1 X34.818 Y48.705 E173.26451
G1 X34.818 Y47.438 E173.34487
G1 X69.327 Y81.946 E176.43902
G1 X69.327 Y80.679 E176.51938
G1 X34.818 Y46.170 E179.61352
G1 X34.818 Y44.902 E179.69389
G1 X69.327 Y79.411 E182.78803
G1 X69.327 Y78.143 E182.86840
G1 X34.818 Y43.635 E185.96254
G1 X34.818 Y42.367 E186.04291
G1 X69.327 Y76.876 E189.13705
G1 X69.327 Y75.608 E189.21741
G1 X34.818 Y41.100 E192.31156
G1 X34.818 Y39.832 E192.39192
G1 X69.327 Y74.341 E195.48606
G1 X69.327 Y73.073 E195.56643
G1 X34.818 Y38.565 E198.66057
G1 X34.818 Y37.297 E198.74094
G1 X69.327 Y71.805 E201.83508
G1 X69.327 Y70.538 E201.91545
G1 X34.818 Y36.029 E205.00959
G1 X34.818 Y34.762 E205.08996
G1 X69.327 Y69.270 E208.18410
G1 X69.327 Y68.003 E208.26446
G1 X34.818 Y33.494 E211.35861
G1 X34.818 Y32.227 E211.43897
G1 X69.327 Y66.735 E214.53311
G1 X69.327 Y65.468 E214.61348
G1 X34.818 Y30.959 E217.70762
G1 X34.818 Y29.691 E217.78799
G1 X69.327 Y64.200 E220.88213
G1 X69.327 Y62.932 E220.96250
G1 X34.818 Y28.424 E224.05664
G1 X34.818 Y27.156 E224.13700
G1 X69.327 Y61.665 E227.23115
G1 X69.327 Y60.397 E227.31151
G1 X35.105 Y26.176 E230.37992
G1 X36.373 Y26.176 E230.46028
G1 X69.327 Y59.130 E233.41503
G1 X69.327 Y57.862 E233.49540
G1 X37.641 Y26.176 E236.33649
G1 X38.908 Y26.176 E236.41686
G1 X69.327 Y56.594 E239.14430
G1 X69.327 Y55.327 E239.22466
G1 X40.176 Y26.176 E241.83844
G1 X41.443 Y26.176 E241.91881
G1 X69.327 Y54.059 E244.41894
G1 X69.327 Y52.792 E244.49930
G1 X42.711 Y26.176 E246.88578
G1 X43.979 Y26.176 E246.96614
G1 X69.327 Y51.524 E249.23896
G1 X69.327 Y50.257 E249.31932
G1 X45.246 Y26.176 E251.47849
G1 X46.514 Y26.176 E251.55885
G1 X69.327 Y48.989 E253.60436
G1 X69.327 Y47.721 E253.68472
G1 X47.781 Y26.176 E255.61657
G1 X49.049 Y26.176 E255.69694
G1 X64.382 Y41.508 E257.07172
G1 X64.382 Y40.241 E257.15208
G1 X50.316 Y26.176 E258.41320
G1 X51.584 Y26.176 E258.49357
G1 X64.382 Y38.973 E259.64103
G1 X64.382 Y37.706 E259.72140
G1 X52.852 Y26.176 E260.75521
G1 X54.119 Y26.176 E260.83557
G1 X64.382 Y36.438 E261.75573
G1 X64.382 Y35.170 E261.83609
G1 X55.387 Y26.176 E262.64259
G1 X56.654 Y26.176 E262.72296
G1 X64.382 Y33.903 E263.41580
G1 X64.382 Y32.635 E263.49617
G1 X57.922 Y26.176 E264.07536
G1 X59.190 Y26.176 E264.15572
G1 X64.382 Y31.368 E264.62125
G1 X64.382 Y30.100 E264.70162
G1 X60.457 Y26.176 E265.05350
G1 X61.725 Y26.176 E265.13386
G1 X64.382 Y28.833 E265.37208
G1 X64.584 Y27.767 E265.44083
