; generated by Slic3r 0.9.11-dev on 2013-07-20 at 09:33:47

; layer_height = 0.2
; perimeters = 3
; top_solid_layers = 3
; bottom_solid_layers = 3
; fill_density = .9
; perimeter_speed = 40
; infill_speed = 60
; travel_speed = 130
; nozzle_diameter = 0.5
; filament_diameter = 3
; extrusion_multiplier = 1
; perimeters extrusion width = 0.50mm
; infill extrusion width = 1.02mm
; solid infill extrusion width = 0.85mm
; top infill extrusion width = 0.85mm
; first layer extrusion width = 1.00mm

G21 ; set units to millimeters
M107
M104 S200 ; set temperature
G28 ; home all axes
M109 S200 ; wait for temperature to be reached
G90 ; use absolute coordinates
G92 E0
M82 ; use absolute distances for extrusion
G1 F2160.000 E-1.00000
G92 E0
G1 Z0.500 F7800.000
G1 X36.546 Y44.092
G1 F2160.000 E1.00000
G1 X37.416 Y43.452 F720.000 E1.06820
G1 X38.346 Y42.882 E1.13708
G1 X39.326 Y42.382 E1.20655
G1 X40.376 Y42.052 E1.27605
G1 X41.446 Y41.802 E1.34544
G1 X42.506 Y41.642 E1.41313
G1 X43.286 Y41.602 E1.46245
G1 X155.996 Y41.602 E8.57958
G1 X156.776 Y41.642 E8.62890
G1 X157.836 Y41.802 E8.69659
G1 X158.906 Y42.052 E8.76598
G1 X159.956 Y42.382 E8.83548
G1 X160.936 Y42.882 E8.90495
G1 X161.866 Y43.452 E8.97383
G1 X162.736 Y44.092 E9.04203
G1 X163.506 Y44.852 E9.11034
G1 X164.216 Y45.682 E9.17931
G1 X164.856 Y46.562 E9.24802
G1 X165.346 Y47.542 E9.31721
G1 X165.766 Y48.562 E9.38686
G1 X166.096 Y49.572 E9.45396
G1 X175.696 Y89.572 E12.05151
G1 X175.866 Y90.612 E12.11805
G1 X175.956 Y91.702 E12.18711
G1 X175.976 Y92.182 E12.21745
G1 X176.686 Y147.512 E15.71158
G1 X176.646 Y148.382 E15.76657
G1 X176.496 Y149.232 E15.82108
G1 X176.236 Y150.302 E15.89061
G1 X175.896 Y151.322 E15.95850
G1 X175.416 Y152.272 E16.02571
G1 X174.846 Y153.202 E16.09459
G1 X174.206 Y154.072 E16.16279
G1 X173.446 Y154.842 E16.23111
G1 X172.616 Y155.552 E16.30008
G1 X171.746 Y156.182 E16.36791
G1 X170.786 Y156.672 E16.43596
G1 X169.776 Y157.092 E16.50504
G1 X168.766 Y157.422 E16.57213
G1 X167.726 Y157.602 E16.63878
G1 X166.576 Y157.702 E16.71167
G1 X166.066 Y157.722 E16.74390
G1 X116.066 Y158.382 E19.90145
G1 X34.016 Y158.382 E25.08254
G1 X33.476 Y158.362 E25.11667
G1 X32.326 Y158.272 E25.18950
G1 X31.256 Y158.102 E25.25792
G1 X30.216 Y157.762 E25.32701
G1 X29.206 Y157.342 E25.39608
G1 X28.246 Y156.852 E25.46414
G1 X27.376 Y156.222 E25.53197
G1 X26.546 Y155.512 E25.60094
G1 X25.776 Y154.732 E25.67015
G1 X25.136 Y153.842 E25.73937
G1 X24.566 Y152.902 E25.80879
G1 X24.086 Y151.972 E25.87487
G1 X23.766 Y150.972 E25.94117
G1 X23.506 Y149.912 E26.01009
G1 X23.356 Y149.102 E26.06211
G1 X23.306 Y148.272 E26.11461
G1 X23.306 Y92.272 E29.65077
G1 X23.326 Y91.702 E29.68678
G1 X23.416 Y90.612 E29.75584
G1 X23.586 Y89.572 E29.82239
G1 X33.186 Y49.572 E32.41993
G1 X33.516 Y48.562 E32.48703
G1 X33.936 Y47.542 E32.55668
G1 X34.426 Y46.562 E32.62587
G1 X35.066 Y45.682 E32.69458
G1 X35.776 Y44.852 E32.76355
G1 X36.451 Y44.186 E32.82341
G1 F2160.000 E31.82341
G92 E0
G1 X108.528 Y53.008 F7800.000
G1 F2160.000 E1.00000
G1 X108.629 Y53.252 F360.000 E1.01670
G1 X107.756 Y55.359 E1.16075
G1 X105.735 Y56.198 E1.29891
G1 X93.557 Y56.198 E2.06790
G1 X91.539 Y55.359 E2.20592
G1 X90.663 Y53.252 E2.35002
G1 X91.539 Y51.142 E2.49429
G1 X93.557 Y50.306 E2.63224
G1 X105.735 Y50.306 E3.40120
G1 X107.755 Y51.142 E3.53926
G1 X108.477 Y52.884 E3.65833
G1 X108.790 Y53.042 F7800.000
G1 X106.862 Y72.150
G1 X108.079 Y72.267 F360.000 E3.73549
G1 X110.012 Y73.144 E3.86958
G1 X111.558 Y74.600 E4.00368
G1 X112.577 Y76.542 E4.14216
G1 X115.774 Y89.863 E5.00715
G1 X115.539 Y89.920 E5.02243
G1 X115.553 Y91.058 E5.09430
G1 X113.873 Y92.428 E5.23118
G1 X113.608 Y92.370 E5.24830
G1 X113.608 Y92.448 E5.25324
G1 X85.686 Y92.448 E7.01643
G1 X85.686 Y92.370 E7.02137
G1 X85.421 Y92.428 E7.03849
G1 X83.741 Y91.058 E7.17537
G1 X83.755 Y89.920 E7.24724
G1 X83.520 Y89.863 E7.26252
G1 X86.717 Y76.542 E8.12751
G1 X87.736 Y74.600 E8.26599
G1 X89.281 Y73.145 E8.40007
G1 X91.215 Y72.267 E8.53417
G1 X92.432 Y72.150 E8.61134
G1 X92.432 Y72.054 E8.61740
G1 X106.824 Y72.054 E9.52624
G1 X107.359 Y71.408 F7800.000
G1 X108.648 Y70.268
G1 X90.646 Y70.268 F720.000 E10.66295
G1 X90.646 Y70.564 E10.68165
G1 X88.271 Y71.643 E10.84636
G1 X86.433 Y73.375 E11.00583
G1 X86.186 Y73.232 E11.02382
G1 X90.152 Y56.716 E12.09632
G1 X93.201 Y57.984 E12.30482
G1 X106.091 Y57.984 E13.11878
G1 X109.143 Y56.717 E13.32743
G1 X113.108 Y73.232 E14.39991
G1 X112.861 Y73.375 E14.41789
G1 X111.021 Y71.642 E14.57745
G1 X108.648 Y70.564 E14.74208
G1 X108.648 Y70.402 E14.75232
G1 X108.312 Y71.392 F7800.000
G1 X107.755 Y71.339 F720.000 E14.78765
G1 X107.755 Y71.161 E14.79889
G1 X91.539 Y71.161 E15.82287
G1 X91.539 Y71.339 E15.83410
G1 X90.982 Y71.393 E15.86945
G1 X88.776 Y72.394 E16.02239
G1 X87.015 Y74.053 E16.17520
G1 X85.875 Y76.226 E16.33014
G1 X82.444 Y90.520 E17.25835
G1 X82.854 Y90.619 E17.28495
G1 X82.843 Y91.477 E17.33914
G1 X84.793 Y93.068 E17.49804
G1 X84.793 Y94.161 E17.56708
G1 X83.449 Y94.161 E17.65196
G1 X82.486 Y94.087 E17.71296
G1 X81.865 Y93.829 E17.75540
G1 X81.354 Y93.394 E17.79777
G1 X81.004 Y92.822 E17.84014
G1 X80.848 Y92.169 E17.88251
G1 X80.909 Y91.394 E17.93159
G1 X89.837 Y54.203 E20.34677
G1 X90.083 Y54.183 E20.36236
G1 X90.856 Y56.042 E20.48948
G1 X93.379 Y57.091 E20.66202
G1 X105.913 Y57.091 E21.45350
G1 X108.439 Y56.042 E21.62620
G1 X109.210 Y54.182 E21.75336
G1 X109.457 Y54.202 E21.76899
G1 X118.385 Y91.394 E24.18424
G1 X118.446 Y92.171 E24.23344
G1 X118.291 Y92.821 E24.27563
G1 X117.940 Y93.393 E24.31806
G1 X117.428 Y93.830 E24.36055
G1 X116.811 Y94.086 E24.40272
G1 X116.133 Y94.139 E24.44567
G1 X114.501 Y93.762 E24.55142
G1 X114.501 Y93.068 E24.59525
G1 X116.451 Y91.477 E24.75415
G1 X116.440 Y90.619 E24.80834
G1 X116.850 Y90.520 E24.83494
G1 X113.419 Y76.226 E25.76314
G1 X112.279 Y74.053 E25.91808
G1 X110.517 Y72.393 E26.07096
G1 X108.434 Y71.448 E26.21541
G1 F2160.000 E25.21541
G92 E0
G1 X106.260 Y49.009 F7800.000
G1 F2160.000 E1.00000
G1 X106.945 Y48.963 F360.000 E1.04336
G1 X107.873 Y49.184 E1.10360
G1 X108.685 Y49.683 E1.16378
G1 X109.304 Y50.407 E1.22396
G1 X109.684 Y51.322 E1.28649
G1 X119.269 Y91.254 E3.87963
G1 X119.347 Y92.241 E3.94215
G1 X119.126 Y93.167 E4.00227
G1 X118.627 Y93.981 E4.06256
G1 X117.900 Y94.600 E4.12284
G1 X117.021 Y94.966 E4.18296
G1 X116.067 Y95.040 E4.24339
G1 X115.530 Y94.916 E4.27822
G1 X115.530 Y95.054 E4.28696
G1 X83.414 Y95.054 E6.31490
G1 X82.273 Y94.966 E6.38715
G1 X81.393 Y94.600 E6.44734
G1 X80.667 Y93.981 E6.50759
G1 X80.169 Y93.167 E6.56786
G1 X79.947 Y92.240 E6.62804
G1 X80.025 Y91.254 E6.69052
G1 X89.610 Y51.322 E9.28366
G1 X89.990 Y50.408 E9.34618
G1 X90.609 Y49.683 E9.40639
G1 X91.291 Y49.264 E9.45690
G1 X91.421 Y49.185 E9.46652
G1 X92.350 Y48.963 E9.52683
G1 X93.034 Y49.016 E9.57018
G1 X93.034 Y48.948 E9.57445
G1 X106.186 Y48.948 E10.40493
G1 X106.628 Y49.588 F7800.000
G1 F2160.000 E9.40493
G92 E0
G1 X108.179 Y57.818 F7800.000
G1 F2160.000 E1.00000
G1 X108.919 Y58.558 F1080.000 E1.06644
G1 X109.320 Y60.227 E1.17538
G1 X107.282 Y58.190 E1.35823
G1 X106.386 Y58.562 E1.41982
G1 X109.721 Y61.897 E1.71908
G1 X110.122 Y63.566 E1.82802
G1 X105.186 Y58.631 E2.27091
G1 X103.917 Y58.631 E2.35141
G1 X110.522 Y65.236 E2.94411
G1 X110.923 Y66.905 E3.05305
G1 X102.649 Y58.631 E3.79555
G1 X101.380 Y58.631 E3.87605
G1 X111.324 Y68.575 E4.76836
G1 X108.565 Y69.621 F7800.000
G1 X97.574 Y58.631 F1080.000 E5.75458
G1 X96.306 Y58.631 E5.83507
G1 X107.296 Y69.621 E6.82130
G1 X106.028 Y69.621 E6.90179
G1 X95.037 Y58.631 E7.88801
G1 X93.769 Y58.631 E7.96851
G1 X104.759 Y69.621 E8.95473
G1 X103.490 Y69.621 E9.03523
G1 X92.094 Y58.224 E10.05792
G1 X90.527 Y57.926 E10.15913
G1 X102.222 Y69.621 E11.20860
G1 X100.953 Y69.621 E11.28909
G1 X90.281 Y58.949 E12.24676
G1 X90.035 Y59.972 E12.31351
G1 X99.685 Y69.621 E13.17938
G1 X98.416 Y69.621 E13.25988
G1 X89.790 Y60.995 E14.03395
G1 X89.544 Y62.018 E14.10070
G1 X97.147 Y69.621 E14.78297
G1 X95.879 Y69.621 E14.86347
G1 X89.299 Y63.041 E15.45394
G1 X89.053 Y64.064 E15.52070
G1 X94.610 Y69.621 E16.01937
G1 X93.342 Y69.621 E16.09987
G1 X88.807 Y65.087 E16.50675
G1 X88.562 Y66.110 E16.57350
G1 X92.073 Y69.621 E16.88858
G1 X90.804 Y69.621 E16.96908
G1 X88.316 Y67.133 E17.19236
G1 X88.070 Y68.156 E17.25912
G1 X89.999 Y70.085 E17.43219
G1 X89.170 Y70.524 E17.49174
G1 X87.825 Y69.179 E17.61243
G1 X87.579 Y70.202 E17.67918
G1 X88.297 Y70.920 E17.74361
G1 X87.334 Y71.225 E17.80774
G1 X87.425 Y71.316 E17.81591
G1 X98.843 Y58.631 F7800.000
G1 X111.244 Y71.032 F1080.000 E18.92876
G1 X111.725 Y70.244 E18.98733
G1 X100.112 Y58.631 E20.02945
G1 X85.462 Y75.622 F7800.000
G1 X85.667 Y75.230 F360.000 E20.04263
G1 X85.495 Y75.057 E20.04990
G1 X85.873 Y74.838 E20.06293
G1 X85.610 Y74.576 E20.07399
G1 X86.078 Y74.447 E20.08846
G1 X85.726 Y74.095 E20.10331
G1 X86.284 Y74.055 E20.11998
G1 X82.562 Y93.094 F7800.000
G1 X81.878 Y92.410 F360.000 E20.18105
G1 X86.113 Y94.108 F7800.000
G1 X85.739 Y93.734 F360.000 E20.21459
G1 X86.668 Y93.395 E20.27736
G1 X87.382 Y94.108 E20.34135
G1 X87.937 Y93.395 E20.39870
G1 X88.650 Y94.108 E20.46269
G1 X89.206 Y93.395 E20.52005
G1 X89.919 Y94.108 E20.58404
G1 X90.474 Y93.395 E20.64140
G1 X91.187 Y94.108 E20.70539
G1 X91.743 Y93.395 E20.76274
G1 X92.456 Y94.108 E20.82673
G1 X93.011 Y93.395 E20.88409
G1 X93.725 Y94.108 E20.94808
G1 X94.280 Y93.395 E21.00544
G1 X94.993 Y94.108 E21.06943
G1 X95.549 Y93.395 E21.12678
G1 X96.262 Y94.108 E21.19077
G1 X96.817 Y93.395 E21.24813
G1 X97.530 Y94.108 E21.31212
G1 X98.086 Y93.395 E21.36948
G1 X98.799 Y94.108 E21.43346
G1 X99.354 Y93.395 E21.49082
G1 X100.068 Y94.108 E21.55481
G1 X100.623 Y93.395 E21.61217
G1 X101.336 Y94.108 E21.67616
G1 X101.892 Y93.395 E21.73351
G1 X102.605 Y94.108 E21.79750
G1 X103.160 Y93.395 E21.85486
G1 X103.873 Y94.108 E21.91885
G1 X104.429 Y93.395 E21.97621
G1 X105.142 Y94.108 E22.04020
G1 X105.698 Y93.395 E22.09755
G1 X106.411 Y94.108 E22.16154
G1 X106.966 Y93.395 E22.21890
G1 X107.679 Y94.108 E22.28289
G1 X108.235 Y93.395 E22.34025
G1 X108.948 Y94.108 E22.40424
G1 X109.503 Y93.395 E22.46159
G1 X110.216 Y94.108 E22.52558
G1 X110.772 Y93.395 E22.58294
G1 X111.485 Y94.108 E22.64693
G1 X112.041 Y93.395 E22.70429
G1 X112.754 Y94.108 E22.76827
G1 X113.309 Y93.395 E22.82563
G1 X113.555 Y93.640 E22.84768
G1 X114.397 Y94.408 F7800.000
G1 X114.388 Y94.399 F360.000 E22.84804
G1 X116.791 Y93.070 F7800.000
G1 X116.433 Y92.713 F360.000 E22.87994
G1 X117.132 Y92.143 E22.93687
G1 X117.413 Y92.424 E22.96195
G1 X113.877 Y75.381 F7800.000
G1 X113.517 Y75.021 F360.000 E22.97712
G1 X113.688 Y74.595 E22.99080
G1 X113.085 Y73.992 E23.01624
G1 X113.500 Y73.810 E23.02975
G1 X109.354 Y53.545 F7800.000
G1 X109.427 Y53.021 F360.000 E23.04552
G1 X109.096 Y52.691 E23.05947
G1 X109.238 Y52.236 E23.07367
G1 X108.676 Y51.673 E23.09739
G1 X109.028 Y51.429 E23.11018
G1 X107.315 Y49.715 E23.18241
G1 X107.226 Y50.224 E23.19779
G1 X106.634 Y49.631 E23.22277
G1 X106.208 Y49.802 E23.23646
G1 X106.074 Y49.669 E23.24208
G1 X94.125 Y49.659 F7800.000
G1 X105.468 Y49.659 F360.000 E23.58024
G1 F2160.000 E22.58024
G92 E0
G1 X89.967 Y53.262 F7800.000
G1 F2160.000 E1.00000
G1 X89.840 Y53.135 F360.000 E1.00536
G1 X90.136 Y52.834 E1.01795
G1 X89.955 Y52.653 E1.02557
G1 X90.311 Y52.412 E1.03839
G1 X90.071 Y52.172 E1.04852
G1 X90.486 Y51.990 E1.06204
G1 X90.187 Y51.691 E1.07468
G1 X90.341 Y51.248 E1.08865
G1 X90.661 Y51.568 E1.10216
G1 X90.837 Y51.147 E1.11577
G1 X90.516 Y50.826 E1.12930
G1 X90.773 Y50.486 E1.14201
G1 X91.013 Y50.726 E1.15211
G1 X91.389 Y50.505 E1.16512
G1 X91.053 Y50.169 E1.17928
G1 X91.423 Y49.942 E1.19222
G1 X91.811 Y50.330 E1.20859
G1 X92.233 Y50.155 E1.22221
G1 X91.829 Y49.752 E1.23922
G1 X92.311 Y49.637 E1.25399
G1 X92.655 Y49.980 E1.26847
G1 X92.927 Y49.656 E1.28110
G1 X93.077 Y49.805 E1.28741
G1 F2160.000 E0.28741
G92 E0
G1 X59.234 Y53.008 F7800.000
G1 F2160.000 E1.00000
G1 X59.335 Y53.252 F360.000 E1.01670
G1 X58.462 Y55.359 E1.16075
G1 X56.441 Y56.198 E1.29891
G1 X44.263 Y56.198 E2.06790
G1 X42.245 Y55.359 E2.20592
G1 X41.369 Y53.252 E2.35002
G1 X42.245 Y51.142 E2.49429
G1 X44.263 Y50.306 E2.63224
G1 X56.441 Y50.306 E3.40120
G1 X58.461 Y51.142 E3.53926
G1 X59.183 Y52.884 E3.65833
G1 X59.496 Y53.042 F7800.000
G1 X57.568 Y72.150
G1 X58.785 Y72.267 F360.000 E3.73549
G1 X60.718 Y73.144 E3.86958
G1 X62.264 Y74.600 E4.00368
G1 X63.283 Y76.542 E4.14216
G1 X66.480 Y89.863 E5.00715
G1 X66.245 Y89.920 E5.02243
G1 X66.259 Y91.058 E5.09430
G1 X64.579 Y92.428 E5.23118
G1 X64.314 Y92.370 E5.24830
G1 X64.314 Y92.448 E5.25324
G1 X36.392 Y92.448 E7.01643
G1 X36.392 Y92.370 E7.02137
G1 X36.127 Y92.428 E7.03849
G1 X34.447 Y91.058 E7.17537
G1 X34.461 Y89.920 E7.24724
G1 X34.226 Y89.863 E7.26252
G1 X37.423 Y76.542 E8.12751
G1 X38.442 Y74.600 E8.26599
G1 X39.987 Y73.145 E8.40007
G1 X41.921 Y72.267 E8.53417
G1 X43.138 Y72.150 E8.61134
G1 X43.138 Y72.054 E8.61740
G1 X57.530 Y72.054 E9.52624
G1 X58.065 Y71.408 F7800.000
G1 X59.354 Y70.268
G1 X41.352 Y70.268 F720.000 E10.66295
G1 X41.352 Y70.564 E10.68165
G1 X38.977 Y71.643 E10.84636
G1 X37.139 Y73.375 E11.00583
G1 X36.892 Y73.232 E11.02382
G1 X40.858 Y56.716 E12.09632
G1 X43.907 Y57.984 E12.30482
G1 X56.797 Y57.984 E13.11878
G1 X59.849 Y56.717 E13.32743
G1 X63.814 Y73.232 E14.39991
G1 X63.567 Y73.375 E14.41789
G1 X61.727 Y71.642 E14.57745
G1 X59.354 Y70.564 E14.74208
G1 X59.354 Y70.402 E14.75232
G1 X59.018 Y71.392 F7800.000
G1 X58.461 Y71.339 F720.000 E14.78765
G1 X58.461 Y71.161 E14.79889
G1 X42.245 Y71.161 E15.82287
G1 X42.245 Y71.339 E15.83410
G1 X41.688 Y71.393 E15.86945
G1 X39.482 Y72.394 E16.02239
G1 X37.721 Y74.053 E16.17520
G1 X36.581 Y76.226 E16.33014
G1 X33.150 Y90.520 E17.25835
G1 X33.560 Y90.619 E17.28495
G1 X33.549 Y91.477 E17.33914
G1 X35.499 Y93.068 E17.49804
G1 X35.499 Y94.161 E17.56708
G1 X34.155 Y94.161 E17.65196
G1 X33.192 Y94.087 E17.71296
G1 X32.571 Y93.829 E17.75540
G1 X32.060 Y93.394 E17.79777
G1 X31.710 Y92.822 E17.84014
G1 X31.554 Y92.169 E17.88251
G1 X31.615 Y91.394 E17.93159
G1 X40.543 Y54.203 E20.34677
G1 X40.789 Y54.183 E20.36236
G1 X41.562 Y56.042 E20.48948
G1 X44.085 Y57.091 E20.66202
G1 X56.619 Y57.091 E21.45350
G1 X59.145 Y56.042 E21.62620
G1 X59.916 Y54.182 E21.75336
G1 X60.163 Y54.202 E21.76899
G1 X69.091 Y91.394 E24.18424
G1 X69.152 Y92.171 E24.23344
G1 X68.997 Y92.821 E24.27563
G1 X68.646 Y93.393 E24.31806
G1 X68.134 Y93.830 E24.36055
G1 X67.517 Y94.086 E24.40272
G1 X66.839 Y94.139 E24.44567
G1 X65.207 Y93.762 E24.55142
G1 X65.207 Y93.068 E24.59525
G1 X67.157 Y91.477 E24.75415
G1 X67.146 Y90.619 E24.80834
G1 X67.556 Y90.520 E24.83494
G1 X64.125 Y76.226 E25.76314
G1 X62.985 Y74.053 E25.91808
G1 X61.223 Y72.393 E26.07096
G1 X59.140 Y71.448 E26.21541
G1 F2160.000 E25.21541
G92 E0
G1 X56.966 Y49.009 F7800.000
G1 F2160.000 E1.00000
G1 X57.651 Y48.963 F360.000 E1.04336
G1 X58.579 Y49.184 E1.10360
G1 X59.391 Y49.683 E1.16378
G1 X60.010 Y50.407 E1.22396
G1 X60.390 Y51.322 E1.28649
G1 X69.975 Y91.254 E3.87963
G1 X70.053 Y92.241 E3.94215
G1 X69.832 Y93.167 E4.00227
G1 X69.333 Y93.981 E4.06256
G1 X68.606 Y94.600 E4.12284
G1 X67.727 Y94.966 E4.18296
G1 X66.773 Y95.040 E4.24339
G1 X66.236 Y94.916 E4.27822
G1 X66.236 Y95.054 E4.28696
G1 X34.120 Y95.054 E6.31490
G1 X32.979 Y94.966 E6.38715
G1 X32.099 Y94.600 E6.44734
G1 X31.373 Y93.981 E6.50759
G1 X30.875 Y93.167 E6.56786
G1 X30.653 Y92.240 E6.62804
G1 X30.731 Y91.254 E6.69052
G1 X40.316 Y51.322 E9.28366
G1 X40.696 Y50.408 E9.34618
G1 X41.315 Y49.683 E9.40639
G1 X41.997 Y49.264 E9.45690
G1 X42.127 Y49.185 E9.46652
G1 X43.056 Y48.963 E9.52683
G1 X43.740 Y49.016 E9.57018
G1 X43.740 Y48.948 E9.57445
G1 X56.892 Y48.948 E10.40493
G1 X57.334 Y49.588 F7800.000
G1 F2160.000 E9.40493
G92 E0
G1 X58.885 Y57.818 F7800.000
G1 F2160.000 E1.00000
G1 X59.625 Y58.558 F1080.000 E1.06644
G1 X60.026 Y60.227 E1.17538
G1 X57.988 Y58.190 E1.35823
G1 X57.092 Y58.562 E1.41982
G1 X60.427 Y61.897 E1.71908
G1 X60.828 Y63.566 E1.82802
G1 X55.892 Y58.631 E2.27091
G1 X54.623 Y58.631 E2.35141
G1 X61.228 Y65.236 E2.94411
G1 X61.629 Y66.905 E3.05305
G1 X53.355 Y58.631 E3.79555
G1 X52.086 Y58.631 E3.87605
G1 X62.030 Y68.575 E4.76836
