; generated by Slic3r 0.9.11-dev on 2013-07-21 at 13:43:54

; layer_height = 0.2
; perimeters = 3
; top_solid_layers = 3
; bottom_solid_layers = 3
; fill_density = .9
; perimeter_speed = 40
; infill_speed = 60
; travel_speed = 130
; nozzle_diameter = 0.5
; filament_diameter = 3
; extrusion_multiplier = 1
; perimeters extrusion width = 0.50mm
; infill extrusion width = 1.02mm
; solid infill extrusion width = 0.85mm
; top infill extrusion width = 0.85mm
; first layer extrusion width = 1.00mm

G21 ; set units to millimeters
M107
M104 S200 ; set temperature
G28 ; home all axes
M109 S200 ; wait for temperature to be reached
G90 ; use absolute coordinates
G92 E0
M82 ; use absolute distances for extrusion
G1 F2160.000 E-1.00000
G92 E0
G1 Z0.500 F7800.000
G1 X61.546 Y72.091
G1 F2160.000 E1.00000
G1 X62.416 Y71.451 F720.000 E1.06820
G1 X63.346 Y70.881 E1.13708
G1 X64.326 Y70.381 E1.20655
G1 X65.376 Y70.051 E1.27605
G1 X66.446 Y69.801 E1.34544
G1 X67.506 Y69.641 E1.41313
G1 X68.286 Y69.601 E1.46245
G1 X131.706 Y69.601 E5.46714
G1 X132.486 Y69.641 E5.51645
G1 X133.556 Y69.801 E5.58477
G1 X134.616 Y70.051 E5.65354
G1 X135.646 Y70.381 E5.72184
G1 X136.606 Y70.871 E5.78990
G1 X137.546 Y71.441 E5.85932
G1 X138.436 Y72.081 E5.92854
G1 X139.216 Y72.851 E5.99775
G1 X139.926 Y73.681 E6.06672
G1 X140.566 Y74.561 E6.13543
G1 X141.056 Y75.541 E6.20461
G1 X141.476 Y76.561 E6.27427
G1 X141.806 Y77.571 E6.34136
G1 X151.406 Y117.571 E8.93891
G1 X151.576 Y118.611 E9.00545
G1 X151.666 Y119.701 E9.07452
G1 X151.666 Y120.811 E9.14461
G1 X151.486 Y121.911 E9.21499
G1 X151.226 Y122.971 E9.28391
G1 X150.906 Y123.971 E9.35021
G1 X150.426 Y124.901 E9.41630
G1 X149.856 Y125.841 E9.48571
G1 X149.216 Y126.731 E9.55493
G1 X148.446 Y127.511 E9.62414
G1 X147.616 Y128.221 E9.69311
G1 X146.746 Y128.851 E9.76094
G1 X145.786 Y129.341 E9.82900
G1 X144.776 Y129.761 E9.89807
G1 X143.736 Y130.101 E9.96717
G1 X142.666 Y130.271 E10.03558
G1 X141.516 Y130.361 E10.10842
G1 X140.976 Y130.381 E10.14254
G1 X59.016 Y130.381 E15.31795
G1 X58.476 Y130.361 E15.35207
G1 X57.326 Y130.271 E15.42491
G1 X56.256 Y130.101 E15.49332
G1 X55.216 Y129.761 E15.56242
G1 X54.206 Y129.341 E15.63149
G1 X53.246 Y128.851 E15.69955
G1 X52.376 Y128.221 E15.76737
G1 X51.546 Y127.511 E15.83634
G1 X50.776 Y126.731 E15.90555
G1 X50.136 Y125.841 E15.97478
G1 X49.566 Y124.901 E16.04419
G1 X49.086 Y123.971 E16.11028
G1 X48.766 Y122.971 E16.17658
G1 X48.506 Y121.911 E16.24550
G1 X48.326 Y120.811 E16.31588
G1 X48.326 Y119.701 E16.38597
G1 X48.416 Y118.611 E16.45504
G1 X48.586 Y117.571 E16.52158
G1 X58.186 Y77.571 E19.11913
G1 X58.516 Y76.561 E19.18622
G1 X58.936 Y75.541 E19.25588
G1 X59.426 Y74.561 E19.32506
G1 X60.066 Y73.681 E19.39377
G1 X60.776 Y72.851 E19.46274
G1 X61.451 Y72.185 E19.52260
G1 F2160.000 E18.52260
G92 E0
G1 X84.234 Y81.007 F7800.000
G1 F2160.000 E1.00000
G1 X84.335 Y81.251 F360.000 E1.01670
G1 X83.462 Y83.358 E1.16075
G1 X81.441 Y84.197 E1.29891
G1 X69.263 Y84.197 E2.06790
G1 X67.245 Y83.358 E2.20592
G1 X66.369 Y81.251 E2.35002
G1 X67.245 Y79.141 E2.49429
G1 X69.263 Y78.305 E2.63224
G1 X81.441 Y78.305 E3.40120
G1 X83.461 Y79.141 E3.53926
G1 X84.183 Y80.883 E3.65833
G1 X84.496 Y81.041 F7800.000
G1 X82.568 Y100.149
G1 X83.785 Y100.266 F360.000 E3.73549
G1 X85.718 Y101.143 E3.86958
G1 X87.264 Y102.599 E4.00368
G1 X88.283 Y104.541 E4.14216
G1 X91.480 Y117.862 E5.00715
G1 X91.245 Y117.919 E5.02243
G1 X91.259 Y119.057 E5.09430
G1 X89.579 Y120.427 E5.23118
G1 X89.314 Y120.369 E5.24830
G1 X89.314 Y120.447 E5.25324
G1 X61.392 Y120.447 E7.01643
G1 X61.392 Y120.369 E7.02137
G1 X61.127 Y120.427 E7.03849
G1 X59.447 Y119.057 E7.17537
G1 X59.461 Y117.919 E7.24724
G1 X59.226 Y117.862 E7.26252
G1 X62.423 Y104.541 E8.12751
G1 X63.442 Y102.599 E8.26599
G1 X64.987 Y101.144 E8.40007
G1 X66.921 Y100.266 E8.53417
G1 X68.138 Y100.149 E8.61134
G1 X68.138 Y100.053 E8.61740
G1 X82.530 Y100.053 E9.52624
G1 X83.065 Y99.407 F7800.000
G1 X84.354 Y98.267
G1 X66.352 Y98.267 F720.000 E10.66295
G1 X66.352 Y98.563 E10.68165
G1 X63.977 Y99.642 E10.84636
G1 X62.139 Y101.374 E11.00583
G1 X61.892 Y101.231 E11.02382
G1 X65.858 Y84.715 E12.09632
G1 X68.907 Y85.983 E12.30482
G1 X81.797 Y85.983 E13.11878
G1 X84.849 Y84.716 E13.32743
G1 X88.814 Y101.231 E14.39991
G1 X88.567 Y101.374 E14.41789
G1 X86.727 Y99.641 E14.57745
G1 X84.354 Y98.563 E14.74208
G1 X84.354 Y98.401 E14.75232
G1 X84.018 Y99.391 F7800.000
G1 X83.461 Y99.338 F720.000 E14.78765
G1 X83.461 Y99.160 E14.79889
G1 X67.245 Y99.160 E15.82287
G1 X67.245 Y99.338 E15.83410
G1 X66.688 Y99.392 E15.86945
G1 X64.482 Y100.393 E16.02239
G1 X62.721 Y102.052 E16.17520
G1 X61.581 Y104.225 E16.33014
G1 X58.150 Y118.519 E17.25835
G1 X58.560 Y118.618 E17.28495
G1 X58.549 Y119.476 E17.33914
G1 X60.499 Y121.067 E17.49804
G1 X60.499 Y122.160 E17.56708
G1 X59.155 Y122.160 E17.65196
G1 X58.192 Y122.086 E17.71296
G1 X57.571 Y121.828 E17.75540
G1 X57.060 Y121.393 E17.79777
G1 X56.710 Y120.821 E17.84014
G1 X56.554 Y120.168 E17.88251
G1 X56.615 Y119.393 E17.93159
G1 X65.543 Y82.202 E20.34677
G1 X65.789 Y82.182 E20.36236
G1 X66.562 Y84.041 E20.48948
G1 X69.085 Y85.090 E20.66202
G1 X81.619 Y85.090 E21.45350
G1 X84.145 Y84.041 E21.62620
G1 X84.916 Y82.181 E21.75336
G1 X85.163 Y82.201 E21.76899
G1 X94.091 Y119.393 E24.18424
G1 X94.152 Y120.170 E24.23344
G1 X93.997 Y120.820 E24.27563
G1 X93.646 Y121.392 E24.31806
G1 X93.134 Y121.829 E24.36055
G1 X92.517 Y122.085 E24.40272
G1 X91.839 Y122.138 E24.44567
G1 X90.207 Y121.761 E24.55142
G1 X90.207 Y121.067 E24.59525
G1 X92.157 Y119.476 E24.75415
G1 X92.146 Y118.618 E24.80834
G1 X92.556 Y118.519 E24.83494
G1 X89.125 Y104.225 E25.76314
G1 X87.985 Y102.052 E25.91808
G1 X86.223 Y100.392 E26.07096
G1 X84.140 Y99.447 E26.21541
G1 F2160.000 E25.21541
G92 E0
G1 X81.966 Y77.008 F7800.000
G1 F2160.000 E1.00000
G1 X82.651 Y76.962 F360.000 E1.04336
G1 X83.579 Y77.183 E1.10360
G1 X84.391 Y77.682 E1.16378
G1 X85.010 Y78.406 E1.22396
G1 X85.390 Y79.321 E1.28649
G1 X94.975 Y119.253 E3.87963
G1 X95.053 Y120.240 E3.94215
G1 X94.832 Y121.166 E4.00227
G1 X94.333 Y121.980 E4.06256
G1 X93.606 Y122.599 E4.12284
G1 X92.727 Y122.965 E4.18296
G1 X91.773 Y123.039 E4.24339
G1 X91.236 Y122.915 E4.27822
G1 X91.236 Y123.053 E4.28696
G1 X59.120 Y123.053 E6.31490
G1 X57.979 Y122.965 E6.38715
G1 X57.099 Y122.599 E6.44734
G1 X56.373 Y121.980 E6.50759
G1 X55.875 Y121.166 E6.56786
G1 X55.653 Y120.239 E6.62804
G1 X55.731 Y119.253 E6.69052
G1 X65.316 Y79.321 E9.28366
G1 X65.696 Y78.407 E9.34618
G1 X66.315 Y77.682 E9.40639
G1 X66.997 Y77.263 E9.45690
G1 X67.127 Y77.184 E9.46652
G1 X68.056 Y76.962 E9.52683
G1 X68.740 Y77.015 E9.57018
G1 X68.740 Y76.947 E9.57445
G1 X81.892 Y76.947 E10.40493
G1 X82.334 Y77.587 F7800.000
G1 F2160.000 E9.40493
G92 E0
G1 X83.885 Y85.817 F7800.000
G1 F2160.000 E1.00000
G1 X84.625 Y86.557 F1080.000 E1.06644
G1 X85.026 Y88.226 E1.17538
G1 X82.988 Y86.189 E1.35823
G1 X82.092 Y86.561 E1.41982
G1 X85.427 Y89.896 E1.71908
G1 X85.828 Y91.565 E1.82802
G1 X80.892 Y86.630 E2.27091
G1 X79.623 Y86.630 E2.35141
G1 X86.228 Y93.235 E2.94411
G1 X86.629 Y94.904 E3.05305
G1 X78.355 Y86.630 E3.79555
G1 X77.086 Y86.630 E3.87605
G1 X87.030 Y96.574 E4.76836
G1 X84.271 Y97.620 F7800.000
G1 X73.280 Y86.630 F1080.000 E5.75458
G1 X72.012 Y86.630 E5.83507
G1 X83.002 Y97.620 E6.82130
G1 X81.734 Y97.620 E6.90179
G1 X70.743 Y86.630 E7.88801
G1 X69.475 Y86.630 E7.96851
G1 X80.465 Y97.620 E8.95473
G1 X79.196 Y97.620 E9.03523
G1 X67.800 Y86.223 E10.05792
G1 X66.233 Y85.925 E10.15913
G1 X77.928 Y97.620 E11.20860
G1 X76.659 Y97.620 E11.28909
G1 X65.987 Y86.948 E12.24676
G1 X65.741 Y87.971 E12.31351
G1 X75.391 Y97.620 E13.17938
G1 X74.122 Y97.620 E13.25988
G1 X65.496 Y88.994 E14.03395
G1 X65.250 Y90.017 E14.10070
G1 X72.853 Y97.620 E14.78297
G1 X71.585 Y97.620 E14.86347
G1 X65.005 Y91.040 E15.45394
G1 X64.759 Y92.063 E15.52070
G1 X70.316 Y97.620 E16.01937
G1 X69.048 Y97.620 E16.09987
G1 X64.513 Y93.086 E16.50675
G1 X64.268 Y94.109 E16.57350
G1 X67.779 Y97.620 E16.88858
G1 X66.510 Y97.620 E16.96908
G1 X64.022 Y95.132 E17.19236
G1 X63.776 Y96.155 E17.25912
G1 X65.705 Y98.084 E17.43219
G1 X64.876 Y98.523 E17.49174
G1 X63.531 Y97.178 E17.61243
G1 X63.285 Y98.201 E17.67918
G1 X64.003 Y98.919 E17.74361
G1 X63.040 Y99.224 E17.80774
G1 X63.131 Y99.315 E17.81591
G1 X74.549 Y86.630 F7800.000
G1 X86.950 Y99.031 F1080.000 E18.92876
G1 X87.431 Y98.243 E18.98733
G1 X75.818 Y86.630 E20.02945
G1 X61.168 Y103.621 F7800.000
G1 X61.373 Y103.229 F360.000 E20.04263
G1 X61.201 Y103.056 E20.04990
G1 X61.579 Y102.837 E20.06293
G1 X61.316 Y102.575 E20.07399
G1 X61.784 Y102.446 E20.08846
G1 X61.432 Y102.094 E20.10331
G1 X61.990 Y102.054 E20.11998
G1 X58.268 Y121.093 F7800.000
G1 X57.584 Y120.409 F360.000 E20.18105
G1 X61.819 Y122.107 F7800.000
G1 X61.445 Y121.733 F360.000 E20.21459
G1 X62.374 Y121.394 E20.27736
G1 X63.088 Y122.107 E20.34135
G1 X63.643 Y121.394 E20.39870
G1 X64.356 Y122.107 E20.46269
G1 X64.912 Y121.394 E20.52005
G1 X65.625 Y122.107 E20.58404
G1 X66.180 Y121.394 E20.64140
G1 X66.893 Y122.107 E20.70539
G1 X67.449 Y121.394 E20.76274
G1 X68.162 Y122.107 E20.82673
G1 X68.717 Y121.394 E20.88409
G1 X69.431 Y122.107 E20.94808
G1 X69.986 Y121.394 E21.00544
G1 X70.699 Y122.107 E21.06943
G1 X71.255 Y121.394 E21.12678
G1 X71.968 Y122.107 E21.19077
G1 X72.523 Y121.394 E21.24813
G1 X73.236 Y122.107 E21.31212
G1 X73.792 Y121.394 E21.36948
G1 X74.505 Y122.107 E21.43346
G1 X75.060 Y121.394 E21.49082
G1 X75.774 Y122.107 E21.55481
G1 X76.329 Y121.394 E21.61217
G1 X77.042 Y122.107 E21.67616
G1 X77.598 Y121.394 E21.73351
G1 X78.311 Y122.107 E21.79750
G1 X78.866 Y121.394 E21.85486
G1 X79.579 Y122.107 E21.91885
G1 X80.135 Y121.394 E21.97621
G1 X80.848 Y122.107 E22.04020
G1 X81.404 Y121.394 E22.09755
G1 X82.117 Y122.107 E22.16154
G1 X82.672 Y121.394 E22.21890
G1 X83.385 Y122.107 E22.28289
G1 X83.941 Y121.394 E22.34025
G1 X84.654 Y122.107 E22.40424
G1 X85.209 Y121.394 E22.46159
G1 X85.922 Y122.107 E22.52558
G1 X86.478 Y121.394 E22.58294
G1 X87.191 Y122.107 E22.64693
G1 X87.747 Y121.394 E22.70429
G1 X88.460 Y122.107 E22.76827
G1 X89.015 Y121.394 E22.82563
G1 X89.261 Y121.639 E22.84768
G1 X90.103 Y122.407 F7800.000
G1 X90.094 Y122.398 F360.000 E22.84804
G1 X92.497 Y121.069 F7800.000
G1 X92.139 Y120.712 F360.000 E22.87994
G1 X92.838 Y120.142 E22.93687
G1 X93.119 Y120.423 E22.96195
G1 X89.583 Y103.380 F7800.000
G1 X89.223 Y103.020 F360.000 E22.97712
G1 X89.394 Y102.594 E22.99080
G1 X88.791 Y101.991 E23.01624
G1 X89.206 Y101.809 E23.02975
G1 X85.060 Y81.544 F7800.000
G1 X85.133 Y81.020 F360.000 E23.04552
G1 X84.802 Y80.690 E23.05947
G1 X84.944 Y80.235 E23.07367
G1 X84.382 Y79.672 E23.09739
G1 X84.734 Y79.428 E23.11018
G1 X83.021 Y77.714 E23.18241
G1 X82.932 Y78.223 E23.19779
G1 X82.340 Y77.630 E23.22277
G1 X81.914 Y77.801 E23.23646
G1 X81.780 Y77.668 E23.24208
G1 X69.831 Y77.658 F7800.000
G1 X81.174 Y77.658 F360.000 E23.58024
G1 F2160.000 E22.58024
G92 E0
G1 X65.673 Y81.261 F7800.000
G1 F2160.000 E1.00000
G1 X65.546 Y81.134 F360.000 E1.00536
G1 X65.842 Y80.833 E1.01795
G1 X65.661 Y80.652 E1.02557
G1 X66.017 Y80.411 E1.03839
G1 X65.777 Y80.171 E1.04852
G1 X66.192 Y79.989 E1.06204
G1 X65.893 Y79.690 E1.07468
G1 X66.047 Y79.247 E1.08865
G1 X66.367 Y79.567 E1.10216
G1 X66.543 Y79.146 E1.11577
G1 X66.222 Y78.825 E1.12930
G1 X66.479 Y78.485 E1.14201
G1 X66.719 Y78.725 E1.15211
G1 X67.095 Y78.504 E1.16512
G1 X66.759 Y78.168 E1.17928
G1 X67.129 Y77.941 E1.19222
G1 X67.517 Y78.329 E1.20859
G1 X67.939 Y78.154 E1.22221
G1 X67.535 Y77.751 E1.23922
G1 X68.017 Y77.636 E1.25399
G1 X68.361 Y77.979 E1.26847
G1 X68.633 Y77.655 E1.28110
G1 X68.783 Y77.804 E1.28741
G1 F2160.000 E0.28741
G92 E0
G1 X133.528 Y81.007 F7800.000
G1 F2160.000 E1.00000
G1 X133.629 Y81.251 F360.000 E1.01670
G1 X132.756 Y83.358 E1.16075
G1 X130.735 Y84.197 E1.29891
G1 X118.557 Y84.197 E2.06790
G1 X116.539 Y83.358 E2.20592
G1 X115.663 Y81.251 E2.35002
G1 X116.539 Y79.141 E2.49429
G1 X118.557 Y78.305 E2.63224
G1 X130.735 Y78.305 E3.40120
G1 X132.755 Y79.141 E3.53926
G1 X133.477 Y80.883 E3.65833
G1 X133.790 Y81.041 F7800.000
G1 X131.862 Y100.149
G1 X133.079 Y100.266 F360.000 E3.73549
G1 X135.012 Y101.143 E3.86958
G1 X136.558 Y102.599 E4.00368
G1 X137.577 Y104.541 E4.14216
G1 X140.774 Y117.862 E5.00715
G1 X140.539 Y117.919 E5.02243
G1 X140.553 Y119.057 E5.09430
G1 X138.873 Y120.427 E5.23118
G1 X138.608 Y120.369 E5.24830
G1 X138.608 Y120.447 E5.25324
G1 X110.686 Y120.447 E7.01643
G1 X110.686 Y120.369 E7.02137
G1 X110.421 Y120.427 E7.03849
G1 X108.741 Y119.057 E7.17537
G1 X108.755 Y117.919 E7.24724
G1 X108.520 Y117.862 E7.26252
G1 X111.717 Y104.541 E8.12751
G1 X112.736 Y102.599 E8.26599
G1 X114.281 Y101.144 E8.40007
G1 X116.215 Y100.266 E8.53417
G1 X117.432 Y100.149 E8.61134
G1 X117.432 Y100.053 E8.61740
G1 X131.824 Y100.053 E9.52624
G1 X132.359 Y99.407 F7800.000
G1 X133.648 Y98.267
G1 X115.646 Y98.267 F720.000 E10.66295
G1 X115.646 Y98.563 E10.68165
G1 X113.271 Y99.642 E10.84636
G1 X111.433 Y101.374 E11.00583
G1 X111.186 Y101.231 E11.02382
G1 X115.152 Y84.715 E12.09632
G1 X118.201 Y85.983 E12.30482
G1 X131.091 Y85.983 E13.11878
G1 X134.143 Y84.716 E13.32743
G1 X138.108 Y101.231 E14.39991
G1 X137.861 Y101.374 E14.41789
G1 X136.021 Y99.641 E14.57745
G1 X133.648 Y98.563 E14.74208
G1 X133.648 Y98.401 E14.75232
G1 X133.312 Y99.391 F7800.000
G1 X132.755 Y99.338 F720.000 E14.78765
G1 X132.755 Y99.160 E14.79889
G1 X116.539 Y99.160 E15.82287
G1 X116.539 Y99.338 E15.83410
G1 X115.982 Y99.392 E15.86945
G1 X113.776 Y100.393 E16.02239
G1 X112.015 Y102.052 E16.17520
G1 X110.875 Y104.225 E16.33014
G1 X107.444 Y118.519 E17.25835
G1 X107.854 Y118.618 E17.28495
G1 X107.843 Y119.476 E17.33914
G1 X109.793 Y121.067 E17.49804
G1 X109.793 Y122.160 E17.56708
G1 X108.449 Y122.160 E17.65196
G1 X107.486 Y122.086 E17.71296
G1 X106.865 Y121.828 E17.75540
G1 X106.354 Y121.393 E17.79777
G1 X106.004 Y120.821 E17.84014
G1 X105.848 Y120.168 E17.88251
G1 X105.909 Y119.393 E17.93159
G1 X114.837 Y82.202 E20.34677
G1 X115.083 Y82.182 E20.36236
G1 X115.856 Y84.041 E20.48948
G1 X118.379 Y85.090 E20.66202
G1 X130.913 Y85.090 E21.45350
G1 X133.439 Y84.041 E21.62620
G1 X134.210 Y82.181 E21.75336
G1 X134.457 Y82.201 E21.76899
G1 X143.385 Y119.393 E24.18424
G1 X143.446 Y120.170 E24.23344
G1 X143.291 Y120.820 E24.27563
G1 X142.940 Y121.392 E24.31806
G1 X142.428 Y121.829 E24.36055
G1 X141.811 Y122.085 E24.40272
G1 X141.133 Y122.138 E24.44567
G1 X139.501 Y121.761 E24.55142
G1 X139.501 Y121.067 E24.59525
G1 X141.451 Y119.476 E24.75415
G1 X141.440 Y118.618 E24.80834
G1 X141.850 Y118.519 E24.83494
G1 X138.419 Y104.225 E25.76314
G1 X137.279 Y102.052 E25.91808
G1 X135.517 Y100.392 E26.07096
G1 X133.434 Y99.447 E26.21541
G1 F2160.000 E25.21541
G92 E0
G1 X131.260 Y77.008 F7800.000
G1 F2160.000 E1.00000
G1 X131.945 Y76.962 F360.000 E1.04336
G1 X132.873 Y77.183 E1.10360
G1 X133.685 Y77.682 E1.16378
G1 X134.304 Y78.406 E1.22396
G1 X134.684 Y79.321 E1.28649
G1 X144.269 Y119.253 E3.87963
G1 X144.347 Y120.240 E3.94215
G1 X144.126 Y121.166 E4.00227
G1 X143.627 Y121.980 E4.06256
G1 X142.900 Y122.599 E4.12284
G1 X142.021 Y122.965 E4.18296
G1 X141.067 Y123.039 E4.24339
G1 X140.530 Y122.915 E4.27822
G1 X140.530 Y123.053 E4.28696
G1 X108.414 Y123.053 E6.31490
G1 X107.273 Y122.965 E6.38715
G1 X106.393 Y122.599 E6.44734
G1 X105.667 Y121.980 E6.50759
G1 X105.169 Y121.166 E6.56786
G1 X104.947 Y120.239 E6.62804
G1 X105.025 Y119.253 E6.69052
G1 X114.610 Y79.321 E9.28366
G1 X114.990 Y78.407 E9.34618
G1 X115.609 Y77.682 E9.40639
G1 X116.291 Y77.263 E9.45690
G1 X116.421 Y77.184 E9.46652
G1 X117.350 Y76.962 E9.52683
G1 X118.034 Y77.015 E9.57018
G1 X118.034 Y76.947 E9.57445
G1 X131.186 Y76.947 E10.40493
G1 X131.628 Y77.587 F7800.000
G1 F2160.000 E9.40493
G92 E0
G1 X133.179 Y85.817 F7800.000
G1 F2160.000 E1.00000
G1 X133.919 Y86.557 F1080.000 E1.06644
G1 X134.320 Y88.226 E1.17538
G1 X132.282 Y86.189 E1.35823
G1 X131.386 Y86.561 E1.41982
G1 X134.721 Y89.896 E1.71908
G1 X135.122 Y91.565 E1.82802
G1 X130.186 Y86.630 E2.27091
G1 X128.917 Y86.630 E2.35141
G1 X135.522 Y93.235 E2.94411
G1 X135.923 Y94.904 E3.05305
G1 X127.649 Y86.630 E3.79555
