; generated by Slic3r 0.9.11-dev on 2013-07-19 at 17:37:45

; layer_height = 0.2
; perimeters = 1
; top_solid_layers = 0
; bottom_solid_layers = 3
; fill_density = 0
; perimeter_speed = 40
; infill_speed = 60
; travel_speed = 130
; nozzle_diameter = 0.5
; filament_diameter = 3
; extrusion_multiplier = 1
; perimeters extrusion width = 0.50mm
; infill extrusion width = 1.02mm
; solid infill extrusion width = 0.85mm
; top infill extrusion width = 0.85mm
; first layer extrusion width = 1.00mm

G21 ; set units to millimeters
M107
M104 S200 ; set temperature
G28 ; home all axes
M109 S200 ; wait for temperature to be reached
G90 ; use absolute coordinates
G92 E0
M82 ; use absolute distances for extrusion
G1 Z0.500 F7800.000
G1 F2160.000 E-1.00000
G92 E0
G1 X56.480 Y124.983 F7800.000
G1 F2160.000 E1.00000
G1 X44.030 Y103.303 F720.000 E2.57867
G1 X43.450 Y101.983 E2.66971
G1 X43.150 Y100.573 E2.76074
G1 X43.160 Y99.133 E2.85167
G1 X43.460 Y97.723 E2.94270
G1 X44.050 Y96.413 E3.03342
G1 X69.150 Y53.193 E6.18943
G1 X70.000 Y52.033 E6.28023
G1 X71.070 Y51.063 E6.37143
G1 X72.320 Y50.353 E6.46221
G1 X73.690 Y49.903 E6.55326
G1 X75.130 Y49.763 E6.64462
G1 X125.110 Y49.873 E9.80064
G1 X126.540 Y50.023 E9.89144
G1 X127.910 Y50.473 E9.98249
G1 X129.150 Y51.193 E10.07304
G1 X130.220 Y52.163 E10.16423
G1 X131.070 Y53.333 E10.25555
G1 X155.960 Y96.683 E13.41203
G1 X156.540 Y98.003 E13.50307
G1 X156.840 Y99.413 E13.59410
G1 X156.830 Y100.853 E13.68503
G1 X156.530 Y102.263 E13.77606
G1 X155.940 Y103.573 E13.86679
G1 X130.840 Y146.803 E17.02333
G1 X129.990 Y147.963 E17.11414
G1 X128.920 Y148.933 E17.20534
G1 X127.670 Y149.643 E17.29611
G1 X126.300 Y150.093 E17.38717
G1 X124.860 Y150.233 E17.47853
G1 X74.880 Y150.113 E20.63455
G1 X73.450 Y149.963 E20.72534
G1 X72.080 Y149.513 E20.81640
G1 X70.830 Y148.793 E20.90749
G1 X69.770 Y147.823 E20.99822
G1 X68.920 Y146.653 E21.08954
G1 X56.547 Y125.099 E22.65889
G1 F2160.000 E21.65889
G92 E0
G1 X62.824 Y121.173 F7800.000
G1 F2160.000 E1.00000
G1 X50.576 Y99.959 F720.000 E2.54682
G1 X50.685 Y99.852 E2.55644
G1 X75.324 Y57.177 E5.66808
G1 X75.470 Y57.218 E5.67770
G1 X124.768 Y57.218 E8.79065
G1 X137.122 Y78.615 E10.35078
G1 X137.176 Y78.827 E10.36459
G1 X149.424 Y100.041 E11.91141
G1 X149.315 Y100.148 E11.92103
G1 X124.676 Y142.823 E15.03267
G1 X124.530 Y142.782 E15.04229
G1 X75.232 Y142.782 E18.15524
G1 X62.878 Y121.385 E19.71537
G1 X62.857 Y121.303 E19.72073
G1 X75.789 Y58.066 F7800.000
G1 X124.279 Y58.066 F1080.000 E22.78266
G1 X136.329 Y78.938 E24.30455
G1 X136.383 Y79.150 E24.31836
G1 X148.421 Y100.000 E25.83865
G1 X124.211 Y141.934 E28.89628
G1 X75.721 Y141.934 E31.95821
G1 X63.671 Y121.062 E33.48010
G1 X63.617 Y120.850 E33.49391
G1 X51.579 Y100.000 E35.01420
G1 X75.723 Y58.182 E38.06338
G1 X76.305 Y58.959 F7800.000
G1 X123.763 Y58.959 F1080.000 E41.06021
G1 X135.495 Y79.278 E42.54181
G1 X135.549 Y79.490 E42.55563
G1 X147.390 Y100.000 E44.05111
G1 X123.695 Y141.041 E47.04365
G1 X76.237 Y141.041 E50.04049
G1 X64.505 Y120.722 E51.52209
G1 X64.451 Y120.510 E51.53590
G1 X52.610 Y100.000 E53.03138
G1 X76.238 Y59.075 E56.01547
G1 X76.820 Y59.852 F7800.000
G1 X123.248 Y59.852 F1080.000 E58.94721
G1 X134.660 Y79.618 E60.38852
G1 X134.714 Y79.830 E60.40233
G1 X146.359 Y100.000 E61.87302
G1 X123.180 Y140.148 E64.80046
G1 X76.752 Y140.148 E67.73220
G1 X65.340 Y120.382 E69.17351
G1 X65.286 Y120.170 E69.18733
G1 X53.641 Y100.000 E70.65801
G1 X76.753 Y59.968 E73.57700
G1 X77.336 Y60.744 F7800.000
G1 X122.732 Y60.744 F1080.000 E76.44365
G1 X133.826 Y79.959 E77.84467
G1 X133.880 Y80.170 E77.85848
G1 X145.329 Y100.000 E79.30436
G1 X122.664 Y139.256 E82.16671
G1 X77.268 Y139.256 E85.03336
G1 X66.174 Y120.041 E86.43438
G1 X66.120 Y119.830 E86.44820
G1 X54.671 Y100.000 E87.89408
G1 X77.269 Y60.860 E90.74797
G1 X77.851 Y61.637 F7800.000
G1 X122.217 Y61.637 F1080.000 E93.54953
G1 X132.991 Y80.299 E94.91026
G1 X133.046 Y80.511 E94.92407
G1 X144.298 Y100.000 E96.34515
G1 X122.149 Y138.363 E99.14241
G1 X77.783 Y138.363 E101.94397
G1 X67.009 Y119.701 E103.30470
G1 X66.954 Y119.489 E103.31851
G1 X55.702 Y100.000 E104.73959
G1 X77.784 Y61.753 E107.52839
G1 X78.367 Y62.530 F7800.000
G1 X121.702 Y62.530 F1080.000 E110.26486
G1 X132.157 Y80.639 E111.58529
G1 X132.211 Y80.851 E111.59911
G1 X143.267 Y100.000 E112.99538
G1 X121.633 Y137.470 E115.72755
G1 X78.298 Y137.470 E118.46402
G1 X67.843 Y119.361 E119.78446
G1 X67.789 Y119.149 E119.79827
G1 X56.733 Y100.000 E121.19454
G1 X78.300 Y62.646 E123.91825
G1 X78.882 Y63.422 F7800.000
G1 X121.186 Y63.422 F1080.000 E126.58963
G1 X131.322 Y80.979 E127.86977
G1 X131.377 Y81.191 E127.88358
G1 X142.236 Y100.000 E129.25506
G1 X121.118 Y136.578 E131.92213
G1 X78.814 Y136.578 E134.59351
G1 X68.677 Y119.021 E135.87366
G1 X68.623 Y118.809 E135.88747
G1 X57.764 Y100.000 E137.25894
G1 X78.815 Y63.538 E139.91756
G1 X79.397 Y64.315 F7800.000
G1 X120.671 Y64.315 F1080.000 E142.52384
G1 X130.488 Y81.319 E143.76369
G1 X130.542 Y81.531 E143.77751
G1 X141.205 Y100.000 E145.12418
G1 X120.603 Y135.685 E147.72616
G1 X79.329 Y135.685 E150.33244
G1 X69.512 Y118.681 E151.57230
G1 X69.458 Y118.469 E151.58611
G1 X58.795 Y100.000 E152.93278
G1 X79.330 Y64.431 E155.52630
G1 X79.913 Y65.208 F7800.000
G1 X120.155 Y65.208 F1080.000 E158.06749
G1 X129.654 Y81.659 E159.26706
G1 X129.708 Y81.871 E159.28087
G1 X140.174 Y100.000 E160.60274
G1 X120.087 Y134.792 E163.13963
G1 X79.845 Y134.792 E165.68081
G1 X70.346 Y118.341 E166.88039
G1 X70.292 Y118.129 E166.89420
G1 X59.825 Y100.000 E168.21606
G1 X79.846 Y65.324 E170.74449
G1 X80.428 Y66.101 F7800.000
G1 X119.640 Y66.101 F1080.000 E173.22059
G1 X128.819 Y81.999 E174.37986
G1 X128.873 Y82.211 E174.39368
G1 X139.144 Y100.000 E175.69074
G1 X119.572 Y133.899 E178.16254
G1 X80.360 Y133.899 E180.63863
G1 X71.181 Y118.000 E181.79791
G1 X71.127 Y117.789 E181.81173
G1 X60.856 Y100.000 E183.10879
G1 X80.361 Y66.217 E185.57213
G1 X80.944 Y66.993 F7800.000
G1 X119.125 Y66.993 F1080.000 E187.98313
G1 X127.985 Y82.340 E189.10211
G1 X128.039 Y82.552 E189.11593
G1 X138.113 Y100.000 E190.38819
G1 X119.056 Y133.007 E192.79489
G1 X80.875 Y133.007 E195.20590
G1 X72.015 Y117.660 E196.32489
G1 X71.961 Y117.448 E196.33870
G1 X61.887 Y100.000 E197.61096
G1 X80.877 Y67.109 E200.00920
G1 X81.459 Y67.886 F7800.000
G1 X118.609 Y67.886 F1080.000 E202.35511
G1 X127.150 Y82.680 E203.43381
G1 X127.205 Y82.892 E203.44762
G1 X137.082 Y100.000 E204.69508
G1 X118.541 Y132.114 E207.03669
G1 X81.391 Y132.114 E209.38260
G1 X72.850 Y117.320 E210.46130
G1 X72.795 Y117.108 E210.47512
G1 X62.918 Y100.000 E211.72257
G1 X81.392 Y68.002 E214.05572
G1 X81.974 Y68.779 F7800.000
G1 X118.094 Y68.779 F1080.000 E216.33654
G1 X126.316 Y83.020 E217.37494
G1 X126.370 Y83.232 E217.38876
G1 X136.051 Y100.000 E218.61142
G1 X118.026 Y131.221 E220.88793
G1 X81.906 Y131.221 E223.16875
G1 X73.684 Y116.980 E224.20716
G1 X73.630 Y116.768 E224.22097
G1 X63.949 Y100.000 E225.44363
G1 X81.907 Y68.895 E227.71169
G1 X82.490 Y69.671 F7800.000
G1 X117.578 Y69.671 F1080.000 E229.92741
G1 X125.481 Y83.360 E230.92552
G1 X125.536 Y83.572 E230.93934
G1 X135.020 Y100.000 E232.13719
G1 X117.510 Y130.329 E234.34862
G1 X82.422 Y130.329 E236.56434
G1 X74.518 Y116.640 E237.56246
G1 X74.464 Y116.428 E237.57628
G1 X64.980 Y100.000 E238.77412
G1 X82.423 Y69.787 E240.97709
G1 X83.005 Y70.564 F7800.000
G1 X117.063 Y70.564 F1080.000 E243.12772
G1 X124.647 Y83.700 E244.08555
G1 X124.701 Y83.912 E244.09936
G1 X133.990 Y100.000 E245.27241
G1 X116.995 Y129.436 E247.41874
G1 X82.937 Y129.436 E249.56937
G1 X75.353 Y116.300 E250.52721
G1 X75.299 Y116.088 E250.54102
G1 X66.010 Y100.000 E251.71407
G1 X82.938 Y70.680 E253.85194
G1 X83.521 Y71.457 F7800.000
G1 X116.547 Y71.457 F1080.000 E255.93748
G1 X123.813 Y84.040 E256.85501
G1 X123.867 Y84.252 E256.86883
G1 X132.959 Y100.000 E258.01708
G1 X116.479 Y128.543 E260.09831
G1 X83.453 Y128.543 E262.18385
G1 X76.187 Y115.959 E263.10140
G1 X76.133 Y115.748 E263.11521
G1 X67.041 Y100.000 E264.26345
G1 X83.454 Y71.573 E266.33623
G1 X84.036 Y72.350 F7800.000
G1 X116.032 Y72.350 F1080.000 E268.35668
G1 X122.978 Y84.381 E269.23392
G1 X123.032 Y84.592 E269.24773
G1 X131.928 Y100.000 E270.37118
G1 X115.964 Y127.650 E272.38733
G1 X83.968 Y127.650 E274.40777
G1 X77.022 Y115.619 E275.28503
G1 X76.968 Y115.407 E275.29884
G1 X68.072 Y100.000 E276.42228
G1 X83.969 Y72.466 E278.42997
G1 X84.551 Y73.242 F7800.000
G1 X115.517 Y73.242 F1080.000 E280.38532
G1 X122.144 Y84.721 E281.22227
G1 X122.198 Y84.933 E281.23609
G1 X130.897 Y100.000 E282.33473
G1 X115.449 Y126.758 E284.28578
G1 X84.483 Y126.758 E286.24114
G1 X77.856 Y115.279 E287.07810
G1 X77.802 Y115.067 E287.09191
G1 X69.103 Y100.000 E288.19055
G1 X84.484 Y73.358 E290.13314
G1 X85.067 Y74.135 F7800.000
G1 X115.001 Y74.135 F1080.000 E292.02340
G1 X121.309 Y85.061 E292.82007
G1 X121.364 Y85.273 E292.83388
G1 X129.866 Y100.000 E293.90772
G1 X114.933 Y125.865 E295.79368
G1 X84.999 Y125.865 E297.68394
G1 X78.691 Y114.939 E298.48062
G1 X78.636 Y114.727 E298.49443
G1 X70.134 Y100.000 E299.56826
G1 X85.000 Y74.251 E301.44577
G1 X85.582 Y75.028 F7800.000
G1 X114.486 Y75.028 F1080.000 E303.27093
G1 X120.475 Y85.401 E304.02731
G1 X120.529 Y85.613 E304.04112
G1 X128.835 Y100.000 E305.09016
G1 X114.418 Y124.972 E306.91103
G1 X85.514 Y124.972 E308.73619
G1 X79.525 Y114.599 E309.49258
G1 X79.471 Y114.387 E309.50639
G1 X71.164 Y100.000 E310.55542
G1 X85.515 Y75.144 E312.36783
G1 X86.098 Y75.920 F7800.000
G1 X113.970 Y75.920 F1080.000 E314.12790
G1 X119.640 Y85.741 E314.84399
G1 X119.695 Y85.953 E314.85780
G1 X127.805 Y100.000 E315.88204
G1 X113.902 Y124.080 E317.63781
G1 X86.030 Y124.080 E319.39788
G1 X80.359 Y114.259 E320.11398
G1 X80.305 Y114.047 E320.12779
G1 X72.195 Y100.000 E321.15202
G1 X86.031 Y76.036 E322.89934
G1 X86.613 Y76.813 F7800.000
G1 X113.455 Y76.813 F1080.000 E324.59432
G1 X118.806 Y86.081 E325.27011
G1 X118.860 Y86.293 E325.28392
G1 X126.774 Y100.000 E326.28336
G1 X113.387 Y123.187 E327.97404
G1 X86.545 Y123.187 E329.66902
G1 X81.194 Y113.918 E330.34483
G1 X81.140 Y113.707 E330.35864
G1 X73.226 Y100.000 E331.35806
G1 X86.546 Y76.929 E333.04029
G1 X87.128 Y77.706 F7800.000
G1 X112.940 Y77.706 F1080.000 E334.67018
G1 X117.972 Y86.421 E335.30568
G1 X118.026 Y86.633 E335.31949
G1 X125.743 Y100.000 E336.29412
G1 X112.871 Y122.294 E337.91971
G1 X87.060 Y122.294 E339.54960
G1 X82.028 Y113.578 E340.18512
G1 X81.974 Y113.366 E340.19893
G1 X74.257 Y100.000 E341.17355
G1 X87.062 Y77.822 E342.79068
G1 X87.644 Y78.599 F7800.000
G1 X112.424 Y78.599 F1080.000 E344.35548
G1 X117.137 Y86.762 E344.95069
G1 X117.191 Y86.974 E344.96450
G1 X124.712 Y100.000 E345.91433
G1 X112.356 Y121.401 E347.47483
G1 X87.576 Y121.401 E349.03962
G1 X82.863 Y113.238 E349.63485
G1 X82.808 Y113.026 E349.64866
G1 X75.288 Y100.000 E350.59848
G1 X87.577 Y78.715 E352.15052
G1 X88.159 Y79.491 F7800.000
G1 X111.909 Y79.491 F1080.000 E353.65022
G1 X116.303 Y87.102 E354.20514
G1 X116.357 Y87.314 E354.21896
G1 X123.681 Y100.000 E355.14398
G1 X111.841 Y120.509 E356.63938
G1 X88.091 Y120.509 E358.13909
G1 X83.697 Y112.898 E358.69402
G1 X83.643 Y112.686 E358.70784
G1 X76.319 Y100.000 E359.63285
G1 X88.092 Y79.607 E361.11980
G1 X88.675 Y80.384 F7800.000
G1 X111.393 Y80.384 F1080.000 E362.55441
G1 X115.468 Y87.442 E363.06904
G1 X115.523 Y87.654 E363.08285
G1 X122.651 Y100.000 E363.98308
G1 X111.325 Y119.616 E365.41339
G1 X88.607 Y119.616 E366.84799
G1 X84.532 Y112.558 E367.36264
G1 X84.477 Y112.346 E367.37646
G1 X77.349 Y100.000 E368.27667
G1 X88.608 Y80.500 E369.69852
G1 X89.190 Y81.277 F7800.000
G1 X110.878 Y81.277 F1080.000 E371.06804
G1 X114.634 Y87.782 E371.54238
G1 X114.688 Y87.994 E371.55619
G1 X121.620 Y100.000 E372.43161
G1 X110.810 Y118.723 E373.79683
G1 X89.122 Y118.723 E375.16635
G1 X85.366 Y112.218 E375.64070
G1 X85.312 Y112.006 E375.65452
G1 X78.380 Y100.000 E376.52992
G1 X89.123 Y81.393 E377.88668
G1 X89.706 Y82.169 F7800.000
G1 X110.363 Y82.169 F1080.000 E379.19111
G1 X113.799 Y88.122 E379.62516
G1 X113.854 Y88.334 E379.63897
G1 X120.589 Y100.000 E380.48959
G1 X110.294 Y117.831 E381.78972
G1 X89.637 Y117.831 E383.09414
G1 X86.200 Y111.878 E383.52821
G1 X86.146 Y111.666 E383.54202
G1 X79.411 Y100.000 E384.39262
G1 X89.639 Y82.285 E385.68429
G1 X90.221 Y83.062 F7800.000
G1 X109.847 Y83.062 F1080.000 E386.92362
G1 X112.965 Y88.462 E387.31739
G1 X113.019 Y88.674 E387.33120
G1 X119.558 Y100.000 E388.15702
G1 X109.779 Y116.938 E389.39205
G1 X90.153 Y116.938 E390.63138
G1 X87.035 Y111.537 E391.02516
G1 X86.981 Y111.325 E391.03897
G1 X80.442 Y100.000 E391.86477
G1 X90.154 Y83.178 E393.09134
G1 X90.736 Y83.955 F7800.000
G1 X109.332 Y83.955 F1080.000 E394.26558
G1 X112.131 Y88.803 E394.61905
G1 X112.185 Y89.014 E394.63287
G1 X118.527 Y100.000 E395.43388
G1 X109.264 Y116.045 E396.60382
G1 X90.668 Y116.045 E397.77806
G1 X87.869 Y111.197 E398.13155
G1 X87.815 Y110.985 E398.14536
G1 X81.473 Y100.000 E398.94636
G1 X90.669 Y84.071 E400.10784
G1 X91.252 Y84.848 F7800.000
G1 X108.816 Y84.848 F1080.000 E401.21698
G1 X111.296 Y89.143 E401.53017
G1 X111.350 Y89.355 E401.54398
G1 X117.496 Y100.000 E402.32019
G1 X108.748 Y115.152 E403.42504
G1 X91.184 Y115.152 E404.53418
G1 X88.704 Y110.857 E404.84738
G1 X88.649 Y110.645 E404.86119
G1 X82.503 Y100.000 E405.63739
G1 X91.185 Y84.964 E406.73378
G1 X91.767 Y85.740 F7800.000
G1 X108.301 Y85.740 F1080.000 E407.77783
G1 X110.462 Y89.483 E408.05072
G1 X110.516 Y89.695 E408.06453
G1 X116.466 Y100.000 E408.81594
G1 X108.233 Y114.260 E409.85569
G1 X91.699 Y114.260 E410.89975
G1 X89.538 Y110.517 E411.17266
G1 X89.484 Y110.305 E411.18647
G1 X83.534 Y100.000 E411.93786
G1 X91.700 Y85.856 E412.96916
G1 X92.283 Y86.633 F7800.000
G1 X107.786 Y86.633 F1080.000 E413.94812
G1 X109.627 Y89.823 E414.18072
G1 X109.681 Y90.035 E414.19453
G1 X115.435 Y100.000 E414.92114
G1 X107.717 Y113.367 E415.89580
G1 X92.214 Y113.367 E416.87476
G1 X90.373 Y110.177 E417.10738
G1 X90.318 Y109.965 E417.12119
G1 X84.565 Y100.000 E417.84778
G1 X92.216 Y86.749 E418.81398
G1 X92.798 Y87.526 F7800.000
G1 X107.270 Y87.526 F1080.000 E419.72785
G1 X108.793 Y90.163 E419.92016
G1 X108.847 Y90.375 E419.93397
G1 X114.404 Y100.000 E420.63578
G1 X107.202 Y112.474 E421.54534
G1 X92.730 Y112.474 E422.45921
G1 X91.207 Y109.837 E422.65154
G1 X91.153 Y109.625 E422.66535
G1 X85.596 Y100.000 E423.36714
G1 X92.731 Y87.642 E424.26825
G1 X93.313 Y88.418 F7800.000
G1 X106.755 Y88.418 F1080.000 E425.11702
G1 X107.958 Y90.503 E425.26904
G1 X108.013 Y90.715 E425.28286
G1 X113.373 Y100.000 E425.95986
G1 X106.687 Y111.582 E426.80433
G1 X93.245 Y111.582 E427.65310
G1 X92.041 Y109.496 E427.80515
G1 X91.987 Y109.284 E427.81896
G1 X86.627 Y100.000 E428.49594
G1 X93.246 Y88.534 E429.33196
G1 X93.829 Y89.311 F7800.000
G1 X106.239 Y89.311 F1080.000 E430.11564
G1 X107.124 Y90.843 E430.22737
G1 X107.178 Y91.055 E430.24118
G1 X112.342 Y100.000 E430.89338
G1 X106.171 Y110.689 E431.67276
G1 X93.761 Y110.689 E432.45644
G1 X92.876 Y109.156 E432.56819
G1 X92.822 Y108.944 E432.58201
G1 X87.658 Y100.000 E433.23419
G1 X93.762 Y89.427 E434.00511
G1 X94.344 Y90.204 F7800.000
G1 X105.724 Y90.204 F1080.000 E434.72370
G1 X106.290 Y91.184 E434.79514
G1 X106.344 Y91.396 E434.80895
G1 X111.312 Y100.000 E435.43635
G1 X105.656 Y109.796 E436.15064
G1 X94.276 Y109.796 E436.86923
G1 X93.710 Y108.816 E436.94069
G1 X93.656 Y108.604 E436.95450
G1 X88.688 Y100.000 E437.58187
G1 X94.277 Y90.320 E438.28771
G1 X94.860 Y91.097 F7800.000
G1 X105.208 Y91.097 F1080.000 E438.94120
G1 X105.455 Y91.524 E438.97235
G1 X105.509 Y91.736 E438.98617
G1 X110.281 Y100.000 E439.58876
G1 X105.140 Y108.903 E440.23795
G1 X94.791 Y108.903 E440.89145
G1 X94.545 Y108.476 E440.92262
G1 X94.490 Y108.264 E440.93644
G1 X89.719 Y100.000 E441.53901
G1 X94.793 Y91.213 E442.17975
G1 X95.375 Y91.989 F7800.000
G1 X104.625 Y91.989 F1080.000 E442.76385
G1 X109.250 Y100.000 E443.34795
G1 X104.625 Y108.011 E443.93205
G1 X95.375 Y108.011 E444.51616
G1 X90.750 Y100.000 E445.10026
G1 X95.308 Y92.105 E445.67590
G1 X95.890 Y92.882 F7800.000
G1 X104.110 Y92.882 F1080.000 E446.19491
